; generated by PrusaSlicer 2.0.0+linux64 on 2019-06-23 at 18:40:45

; 

; external perimeters extrusion width = 0.60mm
; perimeters extrusion width = 0.50mm
; infill extrusion width = 0.50mm
; solid infill extrusion width = 0.50mm
; top infill extrusion width = 0.45mm
; first layer extrusion width = 0.42mm

M73 P0 R25
M73 Q0 S25
M201 X1000 Y1000 Z1000 E5000 ; sets maximum accelerations, mm/sec^2
M203 X200 Y200 Z12 E120 ; sets maximum feedrates, mm/sec
M204 P1250 R1250 T1250 ; sets acceleration (P, T) and retract acceleration (R), mm/sec^2
M205 X8.00 Y8.00 Z0.40 E1.50 ; sets the jerk limits, mm/sec
M205 S0 T0 ; sets the minimum extruding and travel feed rate, mm/sec
M107
M115 U3.7.1 ; tell printer latest fw version
G90 ; use absolute coordinates
M83 ; extruder relative mode
M104 S215 ; set extruder temp
M140 S60 ; set bed temp
M190 S60 ; wait for bed temp
M109 S215 ; wait for extruder temp
G28 W ; home all without mesh bed level
G80 ; mesh bed leveling
G1 Y-3.0 F1000.0 ; go outside print area
G92 E0.0
G1 X60.0 E9.0 F1000.0 ; intro line
M73 Q0 S25
M73 P0 R25
G1 X100.0 E12.5 F1000.0 ; intro line
G92 E0.0
M221 S95
M900 K30 ; Filament gcode
G21 ; set units to millimeters
G90 ; use absolute coordinates
M83 ; use relative distances for extrusion
;BEFORE_LAYER_CHANGE
G92 E0.0
;0.2


G1 E-0.80000 F2100.00000
G1 Z0.600 F10800.000
;AFTER_LAYER_CHANGE
;0.2
G1 X97.682 Y82.820
G1 Z0.200
G1 E0.80000 F2100.00000
M204 S1000
G1 F1200
G1 X100.118 Y80.118 E0.11408
G1 X102.821 Y77.681 E0.11410
G1 X105.739 Y75.551 E0.11328
G1 X108.837 Y73.743 E0.11245
G1 X112.017 Y72.294 E0.10958
G1 X115.313 Y71.171 E0.10918
G1 X118.584 Y70.401 E0.10537
G1 X121.835 Y69.954 E0.10290
G1 X125.004 Y69.811 E0.09946
G1 X128.166 Y69.954 E0.09924
G1 X131.414 Y70.401 E0.10282
G1 X134.687 Y71.171 E0.10542
G1 X137.985 Y72.295 E0.10925
G1 X141.165 Y73.744 E0.10957
G1 X144.260 Y75.550 E0.11236
G1 X147.180 Y77.682 E0.11334
G1 X149.882 Y80.118 E0.11408
G1 X152.319 Y82.821 E0.11410
G1 X154.449 Y85.739 E0.11328
G1 X156.257 Y88.837 E0.11245
G1 X157.706 Y92.017 E0.10958
G1 X158.829 Y95.313 E0.10918
G1 X159.599 Y98.584 E0.10537
G1 X160.046 Y101.835 E0.10290
G1 X160.189 Y105.000 E0.09934
G1 X160.046 Y108.166 E0.09935
G1 X159.599 Y111.414 E0.10282
G1 X158.829 Y114.687 E0.10542
G1 X157.705 Y117.985 E0.10925
G1 X156.256 Y121.165 E0.10957
G1 X154.450 Y124.260 E0.11236
G1 X152.318 Y127.180 E0.11334
G1 X149.882 Y129.882 E0.11408
G1 X147.179 Y132.319 E0.11410
G1 X144.261 Y134.449 E0.11328
G1 X141.163 Y136.257 E0.11245
G1 X137.983 Y137.706 E0.10958
G1 X134.687 Y138.829 E0.10918
G1 X131.416 Y139.599 E0.10537
G1 X128.165 Y140.046 E0.10290
G1 X125.000 Y140.189 E0.09934
G1 X121.834 Y140.046 E0.09935
G1 X118.586 Y139.599 E0.10282
G1 X115.313 Y138.829 E0.10542
G1 X112.015 Y137.705 E0.10925
G1 X108.835 Y136.256 E0.10957
G1 X105.740 Y134.450 E0.11236
G1 X102.820 Y132.318 E0.11334
G1 X100.118 Y129.882 E0.11408
G1 X97.681 Y127.179 E0.11410
G1 X95.551 Y124.261 E0.11328
G1 X93.743 Y121.163 E0.11245
G1 X92.294 Y117.983 E0.10958
G1 X91.171 Y114.687 E0.10918
G1 X90.401 Y111.416 E0.10537
G1 X89.954 Y108.165 E0.10290
G1 X89.811 Y105.000 E0.09934
G1 X89.954 Y101.834 E0.09935
G1 X90.401 Y98.586 E0.10282
G1 X91.171 Y95.313 E0.10542
G1 X92.295 Y92.015 E0.10925
G1 X93.744 Y88.835 E0.10957
G1 X95.550 Y85.740 E0.11236
G1 X97.646 Y82.869 E0.11146
G1 F8640
G1 X99.846 Y80.420 E-0.76000
G1 E-0.04000 F2100.00000
G1 Z0.800 F10800.000
G1 X119.308 Y101.288
G1 Z0.200
G1 E0.80000 F2100.00000
G1 F1200
G1 X120.443 Y99.893 E0.05638
G1 X122.380 Y98.676 E0.07175
G1 X124.611 Y98.166 E0.07175
G1 X126.772 Y98.389 E0.06810
G1 X128.754 Y99.276 E0.06810
G1 X130.431 Y100.833 E0.07175
G1 X131.500 Y102.856 E0.07175
G1 X131.845 Y105.000 E0.06810
G1 X131.500 Y107.144 E0.06810
G1 X130.431 Y109.167 E0.07175
G1 X128.754 Y110.724 E0.07175
G1 X126.772 Y111.611 E0.06810
G1 X124.611 Y111.834 E0.06810
G1 X122.380 Y111.324 E0.07175
G1 X120.443 Y110.107 E0.07175
G1 X119.308 Y108.712 E0.05638
G1 X116.332 Y108.712 E0.09332
G1 X115.426 Y108.539 E0.02890
G1 X114.549 Y107.963 E0.03291
G1 X113.973 Y107.086 E0.03291
G1 X113.800 Y106.180 E0.02890
G1 X113.800 Y103.820 E0.07403
G1 X113.973 Y102.914 E0.02890
G1 X114.549 Y102.037 E0.03291
G1 X115.426 Y101.461 E0.03291
G1 X116.332 Y101.288 E0.02890
G1 X119.248 Y101.288 E0.09144
G1 X119.487 Y101.665 F10800.000
G1 F1200
G1 X120.696 Y100.179 E0.06006
G1 X122.527 Y99.029 E0.06779
G1 X124.634 Y98.548 E0.06779
G1 X126.673 Y98.758 E0.06425
G1 X128.543 Y99.595 E0.06425
G1 X130.127 Y101.066 E0.06779
G1 X131.138 Y102.977 E0.06779
G1 X131.463 Y105.000 E0.06425
G1 X131.138 Y107.023 E0.06425
G1 X130.127 Y108.934 E0.06779
G1 X128.543 Y110.405 E0.06779
G1 X126.673 Y111.242 E0.06425
G1 X124.634 Y111.452 E0.06425
G1 X122.527 Y110.971 E0.06779
G1 X120.696 Y109.821 E0.06779
G1 X119.487 Y108.335 E0.06006
G1 X116.367 Y108.335 E0.09782
G1 X115.571 Y108.183 E0.02543
G1 X114.821 Y107.691 E0.02811
G1 X114.329 Y106.942 E0.02811
G1 X114.177 Y106.145 E0.02543
G1 X114.177 Y103.855 E0.07179
G1 X114.329 Y103.058 E0.02543
G1 X114.821 Y102.309 E0.02811
G1 X115.571 Y101.817 E0.02811
G1 X116.367 Y101.665 E0.02543
G1 X119.427 Y101.665 E0.09594
G1 X119.455 Y101.266 F10800.000
G1 F8640
G1 X120.696 Y100.179 E-0.45115
G1 X121.829 Y99.467 E-0.30885
G1 E-0.04000 F2100.00000
G1 Z0.800 F10800.000
G1 X109.121 Y103.304
G1 Z0.200
G1 E0.80000 F2100.00000
G1 F1200
G1 X109.121 Y106.696 E0.10634
G1 X106.184 Y108.391 E0.10634
G1 X103.247 Y106.696 E0.10634
G1 X103.247 Y103.304 E0.10634
G1 X106.184 Y101.609 E0.10634
G1 X109.069 Y103.274 E0.10446
G1 X108.744 Y103.522 F10800.000
G1 F1200
G1 X108.744 Y106.478 E0.09268
G1 X106.184 Y107.956 E0.09268
G1 X103.624 Y106.478 E0.09268
G1 X103.624 Y103.522 E0.09268
G1 X106.184 Y102.044 E0.09268
G1 X108.692 Y103.492 E0.09080
G1 X109.144 Y103.522 F10800.000
G1 F8640
G1 X108.744 Y106.478 E-0.68959
G1 X108.480 Y106.630 E-0.07041
G1 E-0.04000 F2100.00000
G1 Z0.800 F10800.000
G1 X143.287 Y95.837
G1 Z0.200
G1 E0.80000 F2100.00000
G1 F1200
G1 X106.713 Y95.837 E1.14676
G1 X106.713 Y81.945 E0.43559
G1 X106.973 Y80.579 E0.04359
G1 X107.828 Y79.278 E0.04881
G1 X109.129 Y78.423 E0.04881
G1 X110.495 Y78.163 E0.04359
G1 X139.505 Y78.163 E0.90962
G1 X140.871 Y78.423 E0.04359
G1 X142.172 Y79.278 E0.04881
G1 X143.027 Y80.579 E0.04881
G1 X143.287 Y81.945 E0.04359
G1 X143.287 Y95.777 E0.43371
G1 X142.910 Y95.460 F10800.000
G1 F1200
G1 X107.090 Y95.460 E1.12311
G1 X107.090 Y81.980 E0.42265
G1 X107.330 Y80.723 E0.04012
G1 X108.100 Y79.550 E0.04401
G1 X109.273 Y78.780 E0.04401
G1 X110.530 Y78.540 E0.04012
G1 X139.470 Y78.540 E0.90738
G1 X140.727 Y78.780 E0.04012
G1 X141.900 Y79.550 E0.04401
G1 X142.670 Y80.723 E0.04401
G1 X142.910 Y81.980 E0.04012
G1 X142.910 Y95.400 E0.42077
G1 X142.912 Y95.860 F10800.000
G1 F8640
G1 X139.619 Y95.406 E-0.76000
G1 E-0.04000 F2100.00000
G1 Z0.800 F10800.000
G1 X153.791 Y90.113
G1 Z0.200
G1 E0.80000 F2100.00000
G1 F1200
G1 X155.137 Y93.070 E0.10183
G1 X156.161 Y96.082 E0.09976
G1 X156.871 Y99.103 E0.09729
G1 X157.281 Y102.088 E0.09449
G1 X157.412 Y105.000 E0.09139
G1 X157.281 Y107.912 E0.09139
G1 X156.871 Y110.897 E0.09449
G1 X156.161 Y113.918 E0.09729
G1 X155.137 Y116.930 E0.09976
G1 X153.791 Y119.887 E0.10183
G1 X152.129 Y122.736 E0.10344
G1 X150.163 Y125.429 E0.10454
G1 X147.919 Y127.919 E0.10510
G1 X145.429 Y130.163 E0.10510
G1 X142.736 Y132.129 E0.10454
G1 X139.887 Y133.791 E0.10344
G1 X136.930 Y135.137 E0.10183
G1 X133.918 Y136.161 E0.09976
G1 X130.897 Y136.871 E0.09729
G1 X127.912 Y137.281 E0.09449
G1 X125.000 Y137.412 E0.09139
G1 X122.088 Y137.281 E0.09139
G1 X119.103 Y136.871 E0.09449
G1 X116.082 Y136.161 E0.09729
G1 X113.070 Y135.137 E0.09976
G1 X110.113 Y133.791 E0.10183
G1 X107.264 Y132.129 E0.10344
G1 X104.571 Y130.163 E0.10454
G1 X102.081 Y127.919 E0.10510
G1 X99.837 Y125.429 E0.10510
G1 X97.871 Y122.736 E0.10454
G1 X96.209 Y119.887 E0.10344
G1 X94.863 Y116.930 E0.10183
G1 X93.839 Y113.918 E0.09976
G1 X93.129 Y110.897 E0.09729
G1 X92.719 Y107.912 E0.09449
G1 X92.588 Y105.000 E0.09139
G1 X92.719 Y102.088 E0.09139
G1 X93.129 Y99.103 E0.09449
G1 X93.839 Y96.082 E0.09729
G1 X94.863 Y93.070 E0.09976
G1 X96.209 Y90.113 E0.10183
G1 X97.871 Y87.264 E0.10344
G1 X99.837 Y84.571 E0.10454
G1 X102.081 Y82.081 E0.10510
G1 X104.571 Y79.837 E0.10510
G1 X107.264 Y77.871 E0.10454
G1 X110.113 Y76.209 E0.10344
G1 X113.070 Y74.863 E0.10183
G1 X116.082 Y73.839 E0.09976
G1 X119.103 Y73.129 E0.09729
G1 X122.088 Y72.719 E0.09449
G1 X125.000 Y72.588 E0.09139
G1 X127.912 Y72.719 E0.09139
G1 X130.897 Y73.129 E0.09449
G1 X133.918 Y73.839 E0.09729
G1 X136.930 Y74.863 E0.09976
G1 X139.887 Y76.209 E0.10183
G1 X142.736 Y77.871 E0.10344
G1 X145.429 Y79.837 E0.10454
G1 X147.919 Y82.081 E0.10510
G1 X150.163 Y84.571 E0.10510
G1 X152.129 Y87.264 E0.10454
G1 X153.761 Y90.062 E0.10156
G1 X154.087 Y89.872 F10800.000
G1 F1200
G1 X155.488 Y92.930 E0.10548
G1 X156.524 Y95.978 E0.10092
G1 X157.242 Y99.034 E0.09843
G1 X157.657 Y102.054 E0.09559
G1 X157.790 Y105.000 E0.09247
G1 X157.657 Y107.946 E0.09247
G1 X157.242 Y110.966 E0.09559
G1 X156.524 Y114.022 E0.09843
G1 X155.488 Y117.070 E0.10092
G1 X154.127 Y120.060 E0.10302
G1 X152.445 Y122.943 E0.10464
G1 X150.456 Y125.667 E0.10576
G1 X148.186 Y128.186 E0.10632
G1 X145.667 Y130.456 E0.10632
G1 X142.943 Y132.445 E0.10576
G1 X140.060 Y134.127 E0.10464
G1 X137.070 Y135.488 E0.10302
G1 X134.022 Y136.524 E0.10092
G1 X130.966 Y137.242 E0.09843
G1 X127.946 Y137.657 E0.09559
G1 X125.000 Y137.790 E0.09247
G1 X122.054 Y137.657 E0.09247
G1 X119.034 Y137.242 E0.09559
G1 X115.978 Y136.524 E0.09843
G1 X112.930 Y135.488 E0.10092
G1 X109.940 Y134.127 E0.10302
G1 X107.057 Y132.445 E0.10464
G1 X104.333 Y130.456 E0.10576
G1 X101.814 Y128.186 E0.10632
G1 X99.544 Y125.667 E0.10632
G1 X97.555 Y122.943 E0.10576
G1 X95.873 Y120.060 E0.10464
G1 X94.512 Y117.070 E0.10302
G1 X93.476 Y114.022 E0.10092
G1 X92.758 Y110.966 E0.09843
G1 X92.343 Y107.946 E0.09559
G1 X92.210 Y105.000 E0.09247
G1 X92.343 Y102.054 E0.09247
G1 X92.758 Y99.034 E0.09559
G1 X93.476 Y95.978 E0.09843
G1 X94.512 Y92.930 E0.10092
G1 X95.873 Y89.940 E0.10302
G1 X97.555 Y87.057 E0.10464
G1 X99.544 Y84.333 E0.10576
G1 X101.814 Y81.814 E0.10632
G1 X104.333 Y79.544 E0.10632
G1 X107.057 Y77.555 E0.10576
G1 X109.940 Y75.873 E0.10464
G1 X112.930 Y74.512 E0.10302
G1 X115.978 Y73.476 E0.10092
G1 X119.034 Y72.758 E0.09843
G1 X122.054 Y72.343 E0.09559
G1 X125.000 Y72.210 E0.09247
G1 X127.946 Y72.343 E0.09247
G1 X130.966 Y72.758 E0.09559
G1 X134.022 Y73.476 E0.09843
G1 X137.070 Y74.512 E0.10092
G1 X140.060 Y75.873 E0.10302
G1 X142.943 Y77.555 E0.10464
G1 X145.667 Y79.544 E0.10576
G1 X148.186 Y81.814 E0.10632
G1 X150.456 Y84.333 E0.10632
G1 X152.445 Y87.057 E0.10576
G1 X154.057 Y89.820 E0.10028
G1 X153.872 Y90.209 F10800.000
G1 X153.563 Y90.294
G1 F1200
G1 X143.570 Y90.294 E0.31332
G1 X143.570 Y90.671 F10800.000
G1 F1200
G1 X153.734 Y90.671 E0.31870
G1 X153.906 Y91.048 F10800.000
G1 F1200
G1 X143.570 Y91.048 E0.32408
G1 X143.570 Y91.425 F10800.000
G1 F1200
G1 X154.078 Y91.425 E0.32946
G1 X154.249 Y91.802 F10800.000
G1 F1200
G1 X143.570 Y91.802 E0.33484
G1 X143.570 Y92.179 F10800.000
G1 F1200
G1 X154.421 Y92.179 E0.34022
G1 X154.592 Y92.556 F10800.000
G1 F1200
G1 X143.570 Y92.556 E0.34560
G1 X143.570 Y92.933 F10800.000
G1 F1200
G1 X154.131 Y92.933 E0.33114
G1 X142.065 Y105.000 E0.53505
M73 Q4 S24
M73 P4 R24
G1 X154.131 Y117.067 E0.53505
G1 X137.067 Y117.067 E0.53505
G1 X137.067 Y134.131 E0.53505
G1 X125.000 Y122.065 E0.53505
G1 X112.556 Y134.508 E0.55177
G1 X112.556 Y117.444 E0.53505
G1 X95.408 Y117.444 E0.53769
G1 X95.267 Y117.135 F10800.000
G1 F1200
G1 X104.599 Y107.803 E0.41380
G1 X104.261 Y107.608 F10800.000
G1 F1200
G1 X95.105 Y116.763 E0.40598
G1 X94.970 Y116.366 F10800.000
G1 F1200
G1 X103.923 Y107.413 E0.39699
G1 X103.585 Y107.217 F10800.000
G1 F1200
G1 X94.835 Y115.968 E0.38800
G1 X94.699 Y115.570 F10800.000
G1 F1200
G1 X103.247 Y107.022 E0.37901
G1 X102.964 Y106.772 F10800.000
G1 F1200
G1 X94.564 Y115.172 E0.37248
G1 X94.429 Y114.774 F10800.000
G1 F1200
G1 X102.964 Y106.238 E0.37848
G1 X102.964 Y105.705 F10800.000
G1 F1200
G1 X94.293 Y114.376 E0.38448
G1 X94.158 Y113.978 F10800.000
G1 F1200
G1 X102.964 Y105.172 E0.39048
G1 X102.964 Y104.828 F10800.000
G1 F1200
G1 X94.158 Y96.022 E0.39048
G1 X94.293 Y95.624 F10800.000
G1 F1200
G1 X102.964 Y104.295 E0.38448
G1 X102.964 Y103.762 F10800.000
G1 F1200
G1 X94.429 Y95.226 E0.37848
G1 X94.564 Y94.828 F10800.000
G1 F1200
G1 X102.964 Y103.228 E0.37248
G1 X103.247 Y102.978 F10800.000
G1 F1200
G1 X94.699 Y94.430 E0.37901
G1 X94.835 Y94.032 F10800.000
G1 F1200
G1 X103.585 Y102.783 E0.38800
G1 X103.923 Y102.587 F10800.000
G1 F1200
G1 X94.970 Y93.634 E0.39699
G1 X95.105 Y93.236 F10800.000
G1 F1200
G1 X104.261 Y102.392 E0.40598
G1 X104.599 Y102.197 F10800.000
G1 F1200
G1 X95.267 Y92.865 E0.41380
G1 X95.408 Y92.556 F10800.000
G1 F1200
G1 X106.430 Y92.556 E0.34560
G1 X106.430 Y92.933 F10800.000
G1 F1200
G1 X95.869 Y92.933 E0.33114
G1 X104.937 Y102.002 E0.40211
G1 X105.275 Y101.807 F10800.000
G1 F1200
G1 X96.779 Y93.311 E0.37673
G1 X106.430 Y93.311 E0.30260
G1 X106.430 Y93.688 F10800.000
G1 F1200
G1 X97.690 Y93.688 E0.27406
G1 X105.613 Y101.611 E0.35136
G1 X105.951 Y101.416 F10800.000
G1 F1200
G1 X98.600 Y94.065 E0.32598
G1 X106.430 Y94.065 E0.24551
G1 X106.430 Y94.442 F10800.000
G1 F1200
G1 X99.510 Y94.442 E0.21697
G1 X106.578 Y101.509 E0.31339
G1 F8640
G1 X104.250 Y99.182 E-0.76000
G1 E-0.04000 F2100.00000
G1 Z0.800 F10800.000
G1 X107.840 Y102.238
G1 Z0.200
G1 E0.80000 F2100.00000
G1 F1200
G1 X100.421 Y94.819 E0.32897
G1 X106.430 Y94.819 E0.18843
G1 X106.430 Y95.196 F10800.000
G1 F1200
G1 X101.331 Y95.196 E0.15988
G1 X109.101 Y102.966 E0.34455
G1 X109.404 Y103.269 F10800.000
G1 F1200
G1 X111.135 Y105.000 E0.07676
G1 X109.404 Y106.731 E0.07676
G1 X109.101 Y107.034 F10800.000
G1 F1200
G1 X101.331 Y114.804 E0.34455
G1 X115.196 Y114.804 E0.43473
G1 X115.196 Y128.136 E0.41801
G1 X125.000 Y118.332 E0.43473
G1 X134.427 Y127.759 E0.41801
G1 X134.427 Y114.427 E0.41801
G1 X147.759 Y114.427 E0.41801
G1 X138.332 Y105.000 E0.41801
G1 X147.759 Y95.573 E0.41801
G1 X143.570 Y95.573 E0.13134
G1 X143.570 Y95.196 F10800.000
G1 F1200
G1 X148.669 Y95.196 E0.15988
G1 X138.865 Y105.000 E0.43473
G1 X148.669 Y114.804 E0.43473
G1 X134.804 Y114.804 E0.43473
G1 X134.804 Y128.669 E0.43473
G1 X125.000 Y118.865 E0.43473
G1 X114.819 Y129.046 E0.45145
G1 X114.819 Y115.181 E0.43473
G1 X100.421 Y115.181 E0.45145
G1 X107.840 Y107.762 E0.32897
G1 F8640
G1 X105.512 Y110.090 E-0.76000
G1 E-0.04000 F2100.00000
G1 Z0.800 F10800.000
G1 X106.578 Y108.491
G1 Z0.200
G1 E0.80000 F2100.00000
G1 F1200
G1 X99.510 Y115.558 E0.31339
G1 X114.442 Y115.558 E0.46817
G1 X114.442 Y129.957 E0.45145
G1 X125.000 Y119.398 E0.46817
G1 X135.181 Y129.579 E0.45145
G1 X135.181 Y115.181 E0.45145
G1 X149.579 Y115.181 E0.45145
G1 X139.398 Y105.000 E0.45145
G1 X149.579 Y94.819 E0.45145
G1 X143.570 Y94.819 E0.18843
G1 X143.570 Y94.442 F10800.000
G1 F1200
G1 X150.490 Y94.442 E0.21697
G1 X139.932 Y105.000 E0.46817
G1 X150.490 Y115.558 E0.46817
G1 X135.558 Y115.558 E0.46817
G1 X135.558 Y130.490 E0.46817
G1 X125.000 Y119.932 E0.46817
G1 X114.065 Y130.867 E0.48489
G1 X114.065 Y115.935 E0.46817
G1 X98.600 Y115.935 E0.48489
G1 X105.951 Y108.584 E0.32598
G1 X105.613 Y108.389 F10800.000
G1 F1200
G1 X97.690 Y116.312 E0.35136
G1 X113.688 Y116.312 E0.50161
G1 X113.688 Y131.777 E0.48489
G1 X125.000 Y120.465 E0.50161
G1 X135.935 Y131.400 E0.48489
G1 X135.935 Y115.935 E0.48489
G1 X151.400 Y115.935 E0.48489
G1 X140.465 Y105.000 E0.48489
G1 X151.400 Y94.065 E0.48489
G1 X143.570 Y94.065 E0.24551
M73 Q8 S23
M73 P8 R23
G1 X143.570 Y93.688 F10800.000
G1 F1200
G1 X152.310 Y93.688 E0.27406
G1 X140.998 Y105.000 E0.50161
G1 X152.310 Y116.312 E0.50161
G1 X136.312 Y116.312 E0.50161
G1 X136.312 Y132.310 E0.50161
G1 X125.000 Y120.998 E0.50161
G1 X113.311 Y132.688 E0.51833
G1 X113.311 Y116.689 E0.50161
G1 X96.779 Y116.689 E0.51833
G1 X105.275 Y108.193 E0.37673
G1 X104.937 Y107.998 F10800.000
G1 F1200
G1 X95.869 Y117.067 E0.40211
G1 X112.933 Y117.067 E0.53505
G1 X112.933 Y133.598 E0.51833
