; generated by PrusaSlicer 2.0.0+linux64 on 2019-06-23 at 19:19:05

; 

; external perimeters extrusion width = 0.60mm
; perimeters extrusion width = 0.50mm
; infill extrusion width = 0.50mm
; solid infill extrusion width = 0.50mm
; top infill extrusion width = 0.45mm
; first layer extrusion width = 0.42mm

M73 P0 R29
M73 Q0 S29
M201 X1000 Y1000 Z1000 E5000 ; sets maximum accelerations, mm/sec^2
M203 X200 Y200 Z12 E120 ; sets maximum feedrates, mm/sec
M204 P1250 R1250 T1250 ; sets acceleration (P, T) and retract acceleration (R), mm/sec^2
M205 X8.00 Y8.00 Z0.40 E1.50 ; sets the jerk limits, mm/sec
M205 S0 T0 ; sets the minimum extruding and travel feed rate, mm/sec
M107
M115 U3.7.1 ; tell printer latest fw version
G90 ; use absolute coordinates
M83 ; extruder relative mode
M104 S215 ; set extruder temp
M140 S60 ; set bed temp
M190 S60 ; wait for bed temp
M109 S215 ; wait for extruder temp
G28 W ; home all without mesh bed level
G80 ; mesh bed leveling
G1 Y-3.0 F1000.0 ; go outside print area
G92 E0.0
G1 X60.0 E9.0 F1000.0 ; intro line
M73 Q0 S29
M73 P0 R29
G1 X100.0 E12.5 F1000.0 ; intro line
G92 E0.0
M221 S95
M900 K30 ; Filament gcode
G21 ; set units to millimeters
G90 ; use absolute coordinates
M83 ; use relative distances for extrusion
;BEFORE_LAYER_CHANGE
G92 E0.0
;0.2


G1 E-0.80000 F2100.00000
G1 Z0.600 F10800.000
;AFTER_LAYER_CHANGE
;0.2
G1 X97.682 Y82.820
G1 Z0.200
G1 E0.80000 F2100.00000
M204 S1000
G1 F1200
G1 X100.118 Y80.118 E0.11408
G1 X102.821 Y77.681 E0.11410
G1 X105.739 Y75.551 E0.11328
G1 X108.837 Y73.743 E0.11245
G1 X112.017 Y72.294 E0.10958
G1 X115.313 Y71.171 E0.10918
G1 X118.584 Y70.401 E0.10537
G1 X121.835 Y69.954 E0.10290
G1 X125.004 Y69.811 E0.09946
G1 X128.166 Y69.954 E0.09924
G1 X131.414 Y70.401 E0.10282
G1 X134.687 Y71.171 E0.10542
G1 X137.985 Y72.295 E0.10925
G1 X141.165 Y73.744 E0.10957
G1 X144.260 Y75.550 E0.11236
G1 X147.180 Y77.682 E0.11334
G1 X149.882 Y80.118 E0.11408
G1 X152.319 Y82.821 E0.11410
G1 X154.449 Y85.739 E0.11328
G1 X156.257 Y88.837 E0.11245
G1 X157.706 Y92.017 E0.10958
G1 X158.829 Y95.313 E0.10918
G1 X159.599 Y98.584 E0.10537
G1 X160.046 Y101.835 E0.10290
G1 X160.189 Y105.000 E0.09934
G1 X160.046 Y108.166 E0.09935
G1 X159.599 Y111.414 E0.10282
G1 X158.829 Y114.687 E0.10542
G1 X157.705 Y117.985 E0.10925
G1 X156.256 Y121.165 E0.10957
G1 X154.450 Y124.260 E0.11236
G1 X152.318 Y127.180 E0.11334
G1 X149.882 Y129.882 E0.11408
G1 X147.179 Y132.319 E0.11410
G1 X144.261 Y134.449 E0.11328
G1 X141.163 Y136.257 E0.11245
G1 X137.983 Y137.706 E0.10958
G1 X134.687 Y138.829 E0.10918
G1 X131.416 Y139.599 E0.10537
G1 X128.165 Y140.046 E0.10290
G1 X125.000 Y140.189 E0.09934
G1 X121.834 Y140.046 E0.09935
G1 X118.586 Y139.599 E0.10282
G1 X115.313 Y138.829 E0.10542
G1 X112.015 Y137.705 E0.10925
G1 X108.835 Y136.256 E0.10957
G1 X105.740 Y134.450 E0.11236
G1 X102.820 Y132.318 E0.11334
G1 X100.118 Y129.882 E0.11408
G1 X97.681 Y127.179 E0.11410
G1 X95.551 Y124.261 E0.11328
G1 X93.743 Y121.163 E0.11245
G1 X92.294 Y117.983 E0.10958
G1 X91.171 Y114.687 E0.10918
G1 X90.401 Y111.416 E0.10537
G1 X89.954 Y108.165 E0.10290
G1 X89.811 Y105.000 E0.09934
G1 X89.954 Y101.834 E0.09935
G1 X90.401 Y98.586 E0.10282
G1 X91.171 Y95.313 E0.10542
G1 X92.295 Y92.015 E0.10925
G1 X93.744 Y88.835 E0.10957
G1 X95.550 Y85.740 E0.11236
G1 X97.646 Y82.869 E0.11146
G1 F8640
G1 X99.846 Y80.420 E-0.76000
G1 E-0.04000 F2100.00000
G1 Z0.800 F10800.000
G1 X106.713 Y114.163
G1 Z0.200
G1 E0.80000 F2100.00000
G1 F1200
G1 X143.287 Y114.163 E1.14676
G1 X143.287 Y128.055 E0.43559
G1 X143.027 Y129.421 E0.04359
G1 X142.172 Y130.722 E0.04881
G1 X140.871 Y131.577 E0.04881
G1 X139.505 Y131.837 E0.04359
G1 X110.495 Y131.837 E0.90962
G1 X109.129 Y131.577 E0.04359
G1 X107.828 Y130.722 E0.04881
G1 X106.973 Y129.421 E0.04881
G1 X106.713 Y128.055 E0.04359
G1 X106.713 Y114.223 E0.43371
G1 X107.090 Y114.540 F10800.000
G1 F1200
G1 X142.910 Y114.540 E1.12311
G1 X142.910 Y128.020 E0.42265
G1 X142.670 Y129.277 E0.04012
G1 X141.900 Y130.450 E0.04401
G1 X140.727 Y131.220 E0.04401
G1 X139.470 Y131.460 E0.04012
G1 X110.530 Y131.460 E0.90738
G1 X109.273 Y131.220 E0.04012
G1 X108.100 Y130.450 E0.04401
G1 X107.330 Y129.277 E0.04401
G1 X107.090 Y128.020 E0.04012
G1 X107.090 Y114.600 E0.42077
G1 X107.088 Y114.140 F10800.000
G1 F8640
G1 X110.381 Y114.594 E-0.76000
G1 E-0.04000 F2100.00000
G1 Z0.800 F10800.000
G1 X105.665 Y108.391
G1 Z0.200
G1 E0.80000 F2100.00000
G1 F1200
G1 X102.728 Y106.696 E0.10634
G1 X102.728 Y103.304 E0.10634
G1 X105.665 Y101.609 E0.10634
G1 X108.602 Y103.304 E0.10634
G1 X108.602 Y106.696 E0.10634
G1 X105.717 Y108.361 E0.10446
G1 X105.665 Y107.956 F10800.000
G1 F1200
G1 X103.105 Y106.478 E0.09268
G1 X103.105 Y103.522 E0.09268
G1 X105.665 Y102.044 E0.09268
G1 X108.225 Y103.522 E0.09268
G1 X108.225 Y106.478 E0.09268
G1 X105.717 Y107.926 E0.09080
G1 X105.465 Y108.302 F10800.000
G1 F8640
G1 X103.105 Y106.478 E-0.68959
G1 X103.105 Y106.173 E-0.07041
G1 E-0.04000 F2100.00000
G1 Z0.800 F10800.000
G1 X119.308 Y108.712
G1 Z0.200
G1 E0.80000 F2100.00000
G1 F1200
G1 X116.332 Y108.712 E0.09332
G1 X115.426 Y108.539 E0.02890
G1 X114.549 Y107.963 E0.03291
G1 X113.973 Y107.086 E0.03291
G1 X113.800 Y106.180 E0.02890
G1 X113.800 Y103.820 E0.07403
G1 X113.973 Y102.914 E0.02890
G1 X114.549 Y102.037 E0.03291
G1 X115.426 Y101.461 E0.03291
G1 X116.332 Y101.288 E0.02890
G1 X119.308 Y101.288 E0.09332
G1 X120.443 Y99.893 E0.05638
G1 X122.380 Y98.676 E0.07175
G1 X124.611 Y98.166 E0.07175
G1 X126.772 Y98.389 E0.06810
G1 X128.754 Y99.276 E0.06810
G1 X130.431 Y100.833 E0.07175
G1 X131.500 Y102.856 E0.07175
G1 X131.845 Y105.000 E0.06810
G1 X131.500 Y107.144 E0.06810
G1 X130.431 Y109.167 E0.07175
G1 X128.754 Y110.724 E0.07175
G1 X126.772 Y111.611 E0.06810
G1 X124.611 Y111.834 E0.06810
G1 X122.380 Y111.324 E0.07175
G1 X120.443 Y110.107 E0.07175
G1 X119.346 Y108.759 E0.05450
G1 X119.487 Y108.335 F10800.000
G1 F1200
G1 X116.367 Y108.335 E0.09782
G1 X115.571 Y108.183 E0.02543
G1 X114.821 Y107.691 E0.02811
G1 X114.329 Y106.942 E0.02811
G1 X114.177 Y106.145 E0.02543
G1 X114.177 Y103.855 E0.07179
G1 X114.329 Y103.058 E0.02543
G1 X114.821 Y102.309 E0.02811
G1 X115.571 Y101.817 E0.02811
G1 X116.367 Y101.665 E0.02543
G1 X119.487 Y101.665 E0.09782
G1 X120.696 Y100.179 E0.06006
G1 X122.527 Y99.029 E0.06779
G1 X124.634 Y98.548 E0.06779
G1 X126.673 Y98.758 E0.06425
G1 X128.543 Y99.595 E0.06425
G1 X130.127 Y101.066 E0.06779
G1 X131.138 Y102.977 E0.06779
G1 X131.463 Y105.000 E0.06425
G1 X131.138 Y107.023 E0.06425
G1 X130.127 Y108.934 E0.06779
G1 X128.543 Y110.405 E0.06779
G1 X126.673 Y111.242 E0.06425
G1 X124.634 Y111.452 E0.06425
G1 X122.527 Y110.971 E0.06779
G1 X120.696 Y109.821 E0.06779
G1 X119.525 Y108.382 E0.05818
G1 X119.211 Y108.624 F10800.000
G1 F8640
G1 X116.367 Y108.335 E-0.72922
G1 X116.237 Y108.310 E-0.03078
G1 E-0.04000 F2100.00000
G1 Z0.800 F10800.000
G1 X143.287 Y95.837
G1 Z0.200
G1 E0.80000 F2100.00000
G1 F1200
G1 X106.713 Y95.837 E1.14676
G1 X106.713 Y81.945 E0.43559
G1 X106.973 Y80.579 E0.04359
G1 X107.828 Y79.278 E0.04881
G1 X109.129 Y78.423 E0.04881
G1 X110.495 Y78.163 E0.04359
G1 X139.505 Y78.163 E0.90962
G1 X140.871 Y78.423 E0.04359
G1 X142.172 Y79.278 E0.04881
G1 X143.027 Y80.579 E0.04881
G1 X143.287 Y81.945 E0.04359
G1 X143.287 Y95.777 E0.43371
G1 X142.910 Y95.460 F10800.000
G1 F1200
G1 X107.090 Y95.460 E1.12311
G1 X107.090 Y81.980 E0.42265
G1 X107.330 Y80.723 E0.04012
G1 X108.100 Y79.550 E0.04401
G1 X109.273 Y78.780 E0.04401
G1 X110.530 Y78.540 E0.04012
G1 X139.470 Y78.540 E0.90738
G1 X140.727 Y78.780 E0.04012
G1 X141.900 Y79.550 E0.04401
G1 X142.670 Y80.723 E0.04401
G1 X142.910 Y81.980 E0.04012
G1 X142.910 Y95.400 E0.42077
G1 X142.912 Y95.860 F10800.000
G1 F8640
G1 X139.619 Y95.406 E-0.76000
G1 E-0.04000 F2100.00000
G1 Z0.800 F10800.000
G1 X153.791 Y90.113
G1 Z0.200
G1 E0.80000 F2100.00000
G1 F1200
G1 X155.137 Y93.070 E0.10183
G1 X156.161 Y96.082 E0.09976
G1 X156.871 Y99.103 E0.09729
G1 X157.281 Y102.088 E0.09449
G1 X157.412 Y105.000 E0.09139
G1 X157.281 Y107.912 E0.09139
G1 X156.871 Y110.897 E0.09449
G1 X156.161 Y113.918 E0.09729
G1 X155.137 Y116.930 E0.09976
G1 X153.791 Y119.887 E0.10183
G1 X152.129 Y122.736 E0.10344
G1 X150.163 Y125.429 E0.10454
G1 X147.919 Y127.919 E0.10510
G1 X145.429 Y130.163 E0.10510
G1 X142.736 Y132.129 E0.10454
G1 X139.887 Y133.791 E0.10344
G1 X136.930 Y135.137 E0.10183
G1 X133.918 Y136.161 E0.09976
G1 X130.897 Y136.871 E0.09729
G1 X127.912 Y137.281 E0.09449
G1 X125.000 Y137.412 E0.09139
G1 X122.088 Y137.281 E0.09139
G1 X119.103 Y136.871 E0.09449
G1 X116.082 Y136.161 E0.09729
G1 X113.070 Y135.137 E0.09976
G1 X110.113 Y133.791 E0.10183
G1 X107.264 Y132.129 E0.10344
G1 X104.571 Y130.163 E0.10454
G1 X102.081 Y127.919 E0.10510
G1 X99.837 Y125.429 E0.10510
G1 X97.871 Y122.736 E0.10454
G1 X96.209 Y119.887 E0.10344
G1 X94.863 Y116.930 E0.10183
G1 X93.839 Y113.918 E0.09976
G1 X93.129 Y110.897 E0.09729
G1 X92.719 Y107.912 E0.09449
G1 X92.588 Y105.000 E0.09139
G1 X92.719 Y102.088 E0.09139
G1 X93.129 Y99.103 E0.09449
G1 X93.839 Y96.082 E0.09729
G1 X94.863 Y93.070 E0.09976
G1 X96.209 Y90.113 E0.10183
G1 X97.871 Y87.264 E0.10344
G1 X99.837 Y84.571 E0.10454
G1 X102.081 Y82.081 E0.10510
G1 X104.571 Y79.837 E0.10510
G1 X107.264 Y77.871 E0.10454
G1 X110.113 Y76.209 E0.10344
G1 X113.070 Y74.863 E0.10183
G1 X116.082 Y73.839 E0.09976
G1 X119.103 Y73.129 E0.09729
G1 X122.088 Y72.719 E0.09449
G1 X125.000 Y72.588 E0.09139
G1 X127.912 Y72.719 E0.09139
G1 X130.897 Y73.129 E0.09449
G1 X133.918 Y73.839 E0.09729
G1 X136.930 Y74.863 E0.09976
G1 X139.887 Y76.209 E0.10183
G1 X142.736 Y77.871 E0.10344
G1 X145.429 Y79.837 E0.10454
G1 X147.919 Y82.081 E0.10510
G1 X150.163 Y84.571 E0.10510
G1 X152.129 Y87.264 E0.10454
G1 X153.761 Y90.062 E0.10156
G1 X154.087 Y89.872 F10800.000
G1 F1200
G1 X155.488 Y92.930 E0.10548
G1 X156.524 Y95.978 E0.10092
G1 X157.242 Y99.034 E0.09843
G1 X157.657 Y102.054 E0.09559
G1 X157.790 Y105.000 E0.09247
G1 X157.657 Y107.946 E0.09247
G1 X157.242 Y110.966 E0.09559
G1 X156.524 Y114.022 E0.09843
G1 X155.488 Y117.070 E0.10092
G1 X154.127 Y120.060 E0.10302
G1 X152.445 Y122.943 E0.10464
G1 X150.456 Y125.667 E0.10576
G1 X148.186 Y128.186 E0.10632
G1 X145.667 Y130.456 E0.10632
G1 X142.943 Y132.445 E0.10576
G1 X140.060 Y134.127 E0.10464
G1 X137.070 Y135.488 E0.10302
G1 X134.022 Y136.524 E0.10092
G1 X130.966 Y137.242 E0.09843
G1 X127.946 Y137.657 E0.09559
G1 X125.000 Y137.790 E0.09247
G1 X122.054 Y137.657 E0.09247
G1 X119.034 Y137.242 E0.09559
G1 X115.978 Y136.524 E0.09843
G1 X112.930 Y135.488 E0.10092
G1 X109.940 Y134.127 E0.10302
G1 X107.057 Y132.445 E0.10464
M73 Q3 S28
G1 X104.333 Y130.456 E0.10576
G1 X101.814 Y128.186 E0.10632
G1 X99.544 Y125.667 E0.10632
M73 P3 R28
G1 X97.555 Y122.943 E0.10576
G1 X95.873 Y120.060 E0.10464
G1 X94.512 Y117.070 E0.10302
G1 X93.476 Y114.022 E0.10092
G1 X92.758 Y110.966 E0.09843
G1 X92.343 Y107.946 E0.09559
G1 X92.210 Y105.000 E0.09247
G1 X92.343 Y102.054 E0.09247
G1 X92.758 Y99.034 E0.09559
G1 X93.476 Y95.978 E0.09843
G1 X94.512 Y92.930 E0.10092
G1 X95.873 Y89.940 E0.10302
G1 X97.555 Y87.057 E0.10464
G1 X99.544 Y84.333 E0.10576
G1 X101.814 Y81.814 E0.10632
G1 X104.333 Y79.544 E0.10632
G1 X107.057 Y77.555 E0.10576
G1 X109.940 Y75.873 E0.10464
G1 X112.930 Y74.512 E0.10302
G1 X115.978 Y73.476 E0.10092
G1 X119.034 Y72.758 E0.09843
G1 X122.054 Y72.343 E0.09559
G1 X125.000 Y72.210 E0.09247
G1 X127.946 Y72.343 E0.09247
G1 X130.966 Y72.758 E0.09559
G1 X134.022 Y73.476 E0.09843
G1 X137.070 Y74.512 E0.10092
G1 X140.060 Y75.873 E0.10302
G1 X142.943 Y77.555 E0.10464
G1 X145.667 Y79.544 E0.10576
G1 X148.186 Y81.814 E0.10632
G1 X150.456 Y84.333 E0.10632
G1 X152.445 Y87.057 E0.10576
G1 X154.057 Y89.820 E0.10028
G1 X153.872 Y90.209 F10800.000
G1 X153.880 Y90.581
G1 F1200
G1 X139.762 Y76.464 E0.62751
G1 X138.780 Y76.016 E0.03393
G1 X140.906 Y78.142 E0.09452
G1 X140.246 Y78.016 E0.02113
G1 X137.799 Y75.569 E0.10876
G1 X136.819 Y75.124 E0.03381
G1 X139.585 Y77.890 E0.12294
G1 X139.041 Y77.880 E0.01712
G1 X136.009 Y74.849 E0.13474
G1 X135.199 Y74.573 E0.02689
G1 X138.506 Y77.880 E0.14699
G1 X137.971 Y77.880 E0.01680
G1 X134.389 Y74.298 E0.15923
G1 X133.840 Y74.111 E0.01822
G1 X133.615 Y74.058 E0.00727
G1 X137.437 Y77.880 E0.16989
G1 X136.902 Y77.880 E0.01680
G1 X132.916 Y73.894 E0.17719
G1 X132.217 Y73.729 E0.02256
G1 X136.368 Y77.880 E0.18449
G1 X135.833 Y77.880 E0.01680
G1 X131.518 Y73.565 E0.19179
G1 X130.823 Y73.404 E0.02245
G1 X135.299 Y77.880 E0.19896
G1 X134.764 Y77.880 E0.01680
G1 X130.203 Y73.319 E0.20274
G1 X129.583 Y73.234 E0.01966
G1 X134.230 Y77.880 E0.20652
G1 X133.695 Y77.880 E0.01680
G1 X128.964 Y73.149 E0.21031
G1 X128.344 Y73.064 E0.01966
G1 X133.161 Y77.880 E0.21409
G1 X132.626 Y77.880 E0.01680
G1 X127.740 Y72.994 E0.21718
G1 X127.180 Y72.969 E0.01761
G1 X132.091 Y77.880 E0.21830
G1 X131.557 Y77.880 E0.01680
G1 X126.620 Y72.944 E0.21942
G1 X126.061 Y72.918 E0.01761
G1 X131.022 Y77.880 E0.22054
G1 X130.488 Y77.880 E0.01680
G1 X125.501 Y72.893 E0.22166
G1 X124.946 Y72.873 E0.01744
G1 X129.953 Y77.880 E0.22255
G1 X129.419 Y77.880 E0.01680
G1 X124.435 Y72.896 E0.22153
G1 X123.923 Y72.919 E0.01609
G1 X128.884 Y77.880 E0.22050
G1 X128.350 Y77.880 E0.01680
G1 X123.412 Y72.942 E0.21948
G1 X122.900 Y72.965 E0.01609
G1 X127.815 Y77.880 E0.21846
G1 X127.280 Y77.880 E0.01680
G1 X122.389 Y72.988 E0.21743
G1 X121.896 Y73.031 E0.01553
G1 X126.746 Y77.880 E0.21556
G1 X126.211 Y77.880 E0.01680
G1 X121.426 Y73.095 E0.21269
G1 X120.956 Y73.160 E0.01491
G1 X125.677 Y77.880 E0.20982
G1 X125.142 Y77.880 E0.01680
G1 X120.486 Y73.224 E0.20695
G1 X120.016 Y73.289 E0.01491
G1 X124.608 Y77.880 E0.20408
G1 X124.073 Y77.880 E0.01680
G1 X119.546 Y73.353 E0.20121
G1 X119.154 Y73.407 E0.01244
G1 X119.082 Y73.424 E0.00232
G1 X123.539 Y77.880 E0.19807
G1 X123.004 Y77.880 E0.01680
G1 X118.650 Y73.526 E0.19355
G1 X118.217 Y73.627 E0.01397
G1 X122.469 Y77.880 E0.18902
G1 X121.935 Y77.880 E0.01680
G1 X117.784 Y73.729 E0.18450
G1 X117.351 Y73.831 E0.01397
G1 X121.400 Y77.880 E0.17998
G1 X120.866 Y77.880 E0.01680
G1 X116.918 Y73.933 E0.17546
G1 X116.486 Y74.034 E0.01397
G1 X120.331 Y77.880 E0.17094
G1 X119.797 Y77.880 E0.01680
G1 X116.061 Y74.145 E0.16604
G1 X115.662 Y74.280 E0.01324
G1 X119.262 Y77.880 E0.16001
G1 X118.728 Y77.880 E0.01680
G1 X115.263 Y74.416 E0.15398
G1 X114.865 Y74.552 E0.01324
G1 X118.193 Y77.880 E0.14795
G1 X117.659 Y77.880 E0.01680
G1 X114.466 Y74.687 E0.14192
G1 X114.067 Y74.823 E0.01324
G1 X117.124 Y77.880 E0.13589
G1 X116.589 Y77.880 E0.01680
G1 X113.668 Y74.959 E0.12986
G1 X113.269 Y75.094 E0.01324
G1 X116.055 Y77.880 E0.12383
G1 X115.520 Y77.880 E0.01680
G1 X112.894 Y75.254 E0.11673
G1 X112.527 Y75.421 E0.01269
G1 X114.986 Y77.880 E0.10930
G1 X114.451 Y77.880 E0.01680
G1 X112.159 Y75.588 E0.10187
G1 X111.792 Y75.755 E0.01269
G1 X113.917 Y77.880 E0.09444
G1 X113.382 Y77.880 E0.01680
G1 X111.425 Y75.923 E0.08701
G1 X111.057 Y76.090 E0.01269
G1 X112.848 Y77.880 E0.07957
G1 X112.313 Y77.880 E0.01680
G1 X110.690 Y76.257 E0.07214
G1 X110.323 Y76.424 E0.01269
G1 X111.778 Y77.880 E0.06471
G1 X111.244 Y77.880 E0.01680
G1 X109.979 Y76.615 E0.05624
G1 X109.641 Y76.812 E0.01228
G1 X110.709 Y77.880 E0.04749
G1 X110.468 Y77.880 E0.00759
G1 X110.222 Y77.927 E0.00787
G1 X109.303 Y77.009 E0.04082
G1 X108.966 Y77.206 E0.01228
G1 X109.773 Y78.013 E0.03587
G1 X109.324 Y78.098 E0.01436
G1 X108.628 Y77.403 E0.03092
G1 X108.291 Y77.600 E0.01228
G1 X108.916 Y78.225 E0.02780
G1 X108.593 Y78.437 E0.01213
G1 X107.953 Y77.796 E0.02846
G1 X107.615 Y77.993 E0.01228
G1 X108.271 Y78.649 E0.02913
G1 X107.948 Y78.861 E0.01213
G1 X107.290 Y78.202 E0.02926
G1 X106.981 Y78.428 E0.01202
G1 X107.625 Y79.073 E0.02866
G1 X107.413 Y79.395 E0.01213
G1 X106.672 Y78.653 E0.03295
G1 X106.363 Y78.879 E0.01202
G1 X107.201 Y79.717 E0.03726
G1 X106.989 Y80.040 E0.01213
G1 X106.054 Y79.104 E0.04158
G1 X105.745 Y79.330 E0.01202
G1 X106.777 Y80.363 E0.04590
G1 X106.706 Y80.471 E0.00407
G1 X106.649 Y80.769 E0.00955
G1 X105.436 Y79.556 E0.05394
G1 X105.127 Y79.781 E0.01202
G1 X106.564 Y81.218 E0.06387
G1 X106.478 Y81.667 E0.01436
G1 X104.818 Y80.007 E0.07380
