; generated by Slic3r Prusa Edition 1.42.0-beta2+linux64 on 2019-05-13 at 15:16:50

; 

; external perimeters extrusion width = 0.45mm
; perimeters extrusion width = 0.45mm
; infill extrusion width = 0.45mm
; solid infill extrusion width = 0.45mm
; top infill extrusion width = 0.40mm
; support material extrusion width = 0.35mm
; first layer extrusion width = 0.42mm

M73 P0 R159
M73 Q0 S160
M201 X1000 Y1000 Z1000 E5000 ; sets maximum accelerations, mm/sec^2
M203 X200 Y200 Z12 E120 ; sets maximum feedrates, mm/sec
M204 P1250 R1250 T1250 ; sets acceleration (P, T) and retract acceleration (R), mm/sec^2
M205 X8.00 Y8.00 Z0.40 E1.50 ; sets the jerk limits, mm/sec
M205 S0 T0 ; sets the minimum extruding and travel feed rate, mm/sec
M107
M115 U3.6.0 ; tell printer latest fw version
G90 ; use absolute coordinates
M83 ; extruder relative mode
M104 S215 ; set extruder temp
M140 S60 ; set bed temp
M190 S60 ; wait for bed temp
M109 S215 ; wait for extruder temp
G28 W ; home all without mesh bed level
G80 ; mesh bed leveling
G1 Y-3.0 F1000.0 ; go outside print area
G92 E0.0
G1 X60.0 E9.0 F1000.0 ; intro line
M73 Q0 S160
M73 P0 R159
G1 X100.0 E12.5 F1000.0 ; intro line
G92 E0.0
M221 S95
M900 K30 ; Filament gcode
G21 ; set units to millimeters
G90 ; use absolute coordinates
M83 ; use relative distances for extrusion
;BEFORE_LAYER_CHANGE
G92 E0.0
;0.2


G1 E-0.80000 F2100.00000
G1 Z0.600 F10800.000
;AFTER_LAYER_CHANGE
;0.2
G1 X76.338 Y78.404
G1 Z0.200
G1 E0.80000 F2100.00000
M204 S1000
G1 F1200
G1 X76.657 Y78.053 E0.01487
G1 X77.047 Y77.777 E0.01498
G1 X77.487 Y77.592 E0.01498
G1 X77.958 Y77.507 E0.01498
G1 X115.602 Y75.187 E1.18256
G1 X123.456 Y75.184 E0.24624
G1 X211.184 Y77.966 E2.75205
G1 X211.759 Y78.064 E0.01828
G1 X212.285 Y78.308 E0.01817
G1 X212.654 Y78.605 E0.01487
G1 X212.952 Y78.975 E0.01487
G1 X215.797 Y83.806 E0.17579
G1 X217.687 Y88.671 E0.16364
G1 X217.818 Y89.309 E0.02044
G1 X217.817 Y128.112 E1.21665
G1 X217.612 Y128.918 E0.02608
G1 X215.216 Y133.627 E0.16564
G1 X213.206 Y136.168 E0.10158
G1 X212.756 Y136.577 E0.01908
G1 X207.808 Y139.072 E0.17374
G1 X206.928 Y139.274 E0.02833
G1 X155.245 Y139.444 E1.62048
G1 X81.680 Y136.661 E2.30822
G1 X79.934 Y136.438 E0.05519
G1 X79.138 Y136.075 E0.02743
G1 X78.688 Y135.634 E0.01976
G1 X76.946 Y133.210 E0.09358
G1 X73.934 Y128.511 E0.17501
G1 X73.705 Y128.014 E0.01714
G1 X71.296 Y111.405 E0.52624
G1 X71.319 Y102.537 E0.27803
G1 X74.356 Y86.197 E0.52111
G1 X75.988 Y79.151 E0.22679
G1 X76.313 Y78.458 E0.02398
G1 F8640
G1 X76.657 Y78.053 E-0.12280
G1 X77.047 Y77.777 E-0.11033
G1 X77.487 Y77.592 E-0.11033
G1 X77.958 Y77.507 E-0.11033
G1 X79.281 Y77.426 E-0.30620
G1 E-0.04000 F2100.00000
G1 Z0.800 F10800.000
G1 X159.825 Y99.633
G1 Z0.200
G1 E0.80000 F2100.00000
G1 F1200
G1 X159.825 Y117.120 E0.54829
G1 F8640
G1 X159.825 Y113.828 E-0.76000
G1 E-0.04000 F2100.00000
G1 Z0.800 F10800.000
G1 X162.087 Y119.705
G1 Z0.200
G1 E0.80000 F2100.00000
G1 F1200
G1 X162.087 Y120.695 E0.03104
G1 F8640
G1 X162.087 Y119.705 E-0.22860
G1 E-0.57140 F2100.00000
G1 Z0.800 F10800.000
G1 X163.596 Y122.643
G1 Z0.200
G1 E0.80000 F2100.00000
G1 F1200
G1 X163.596 Y122.192 E0.01414
G1 X164.350 Y122.192 E0.02365
G1 X164.350 Y123.369 E0.03691
G1 F8640
G1 X164.350 Y122.192 E-0.27183
G1 X163.596 Y122.192 E-0.17414
G1 X163.596 Y122.643 E-0.10412
G1 E-0.24991 F2100.00000
G1 Z0.800 F10800.000
G1 X166.612 Y122.022
G1 Z0.200
G1 E0.80000 F2100.00000
G1 F1200
G1 X166.612 Y123.946 E0.06033
G1 X167.366 Y123.414 E0.02894
G1 X167.366 Y122.192 E0.03833
G1 X168.121 Y122.192 E0.02365
G1 X168.121 Y122.871 E0.02129
G1 X168.875 Y122.300 E0.02966
G1 X168.875 Y119.874 E0.07605
G1 X169.629 Y119.874 E0.02365
G1 X169.629 Y121.729 E0.05814
G1 X170.383 Y121.158 E0.02966
G1 X170.383 Y119.874 E0.04024
G1 X171.135 Y119.874 E0.02356
G1 X171.135 Y117.556 E0.07267
G1 X171.137 Y120.605 E0.09558
G1 X171.891 Y120.056 E0.02925
G1 X171.891 Y117.556 E0.07836
G1 X172.645 Y117.556 E0.02365
G1 X172.645 Y119.532 E0.06193
G1 X173.400 Y119.044 E0.02816
G1 X173.400 Y117.556 E0.04664
G1 X174.154 Y117.556 E0.02365
G1 X174.154 Y118.595 E0.03255
G1 X174.908 Y118.187 E0.02688
G1 X174.908 Y117.556 E0.01978
G1 X175.662 Y117.556 E0.02365
G1 X175.662 Y118.014 E0.01434
G1 F8640
G1 X175.662 Y117.556 E-0.10560
G1 X174.908 Y117.556 E-0.17414
G1 X174.908 Y118.187 E-0.14563
G1 X174.154 Y118.595 E-0.19792
G1 X174.154 Y118.002 E-0.13671
G1 E-0.04000 F2100.00000
G1 Z0.800 F10800.000
G1 X184.712 Y117.387
G1 Z0.200
G1 E0.80000 F2100.00000
G1 F1200
G1 X184.712 Y117.848 E0.01448
G1 X185.466 Y118.213 E0.02626
G1 X185.466 Y117.556 E0.02059
G1 X186.220 Y117.556 E0.02365
G1 X186.220 Y118.626 E0.03355
G1 X186.975 Y119.087 E0.02770
G1 X186.975 Y117.556 E0.04798
G1 X187.729 Y117.556 E0.02365
G1 X187.729 Y119.794 E0.07016
G1 X188.483 Y119.705 F10800.000
G1 F1200
G1 X188.483 Y120.133 E0.01342
G1 X189.237 Y120.707 E0.02971
G1 X189.237 Y119.874 E0.02610
G1 X189.991 Y119.874 E0.02365
G1 X189.991 Y121.528 E0.05184
G1 F8640
G1 X189.991 Y119.874 E-0.38180
G1 X189.237 Y119.874 E-0.17414
G1 X189.237 Y120.707 E-0.19219
G1 X189.196 Y120.675 E-0.01187
G1 E-0.04000 F2100.00000
G1 Z0.800 F10800.000
G1 X191.499 Y122.773
G1 Z0.200
G1 E0.80000 F2100.00000
G1 F1200
G1 X191.499 Y122.192 E0.01823
G1 X191.995 Y122.192 E0.01553
G1 X191.995 Y118.226 E0.12436
G1 X191.499 Y118.226 E0.01553
G1 X191.499 Y112.603 E0.17630
G1 X190.745 Y112.603 E0.02365
G1 X190.745 Y118.395 E0.18162
G1 F8640
G1 X190.745 Y115.104 E-0.76000
G1 E-0.04000 F2100.00000
G1 Z0.800 F10800.000
G1 X193.291 Y116.291
G1 Z0.200
G1 E0.80000 F2100.00000
G1 F1200
G1 X193.291 Y115.430 E0.02199
G1 F8640
G1 X193.291 Y116.291 E-0.19887
G1 E-0.60113 F2100.00000
G1 Z0.800 F10800.000
G1 X194.516 Y115.395
G1 Z0.200
G1 E0.80000 F2100.00000
G1 F1200
G1 X194.516 Y112.603 E0.08755
G1 X193.762 Y112.603 E0.02365
G1 X193.762 Y115.226 E0.08223
G1 X193.051 Y115.226 E0.02229
G1 X193.077 Y115.651 E0.01335
G1 X193.008 Y115.746 E0.00370
G1 X193.008 Y112.603 E0.09854
G1 X192.254 Y112.603 E0.02365
G1 X192.254 Y123.184 E0.33177
G1 X193.008 Y123.816 E0.03086
G1 X193.008 Y116.369 E0.23352
G1 X193.092 Y116.362 E0.00264
G1 X193.228 Y117.996 E0.05142
G1 X193.526 Y120.690 E0.08500
G1 X193.492 Y120.784 E0.00313
G1 X193.110 Y121.154 E0.01667
G1 X193.227 Y121.401 E0.00855
G1 X193.612 Y121.350 E0.01220
G1 X193.762 Y122.482 E0.03580
G1 X193.762 Y124.585 E0.06596
G1 F8640
G1 X193.762 Y122.482 E-0.48572
G1 X193.612 Y121.350 E-0.26365
G1 X193.567 Y121.356 E-0.01063
G1 E-0.04000 F2100.00000
G1 Z0.800 F10800.000
G1 X193.809 Y127.305
G1 Z0.200
G1 E0.80000 F2100.00000
G1 F1200
G1 X193.809 Y124.761 E0.06497
G1 X193.605 Y124.770 E0.00522
G1 X193.291 Y124.507 E0.01044
G1 X193.291 Y127.162 E0.06779
G1 X192.773 Y127.162 E0.01322
G1 X192.773 Y124.073 E0.07887
G1 X192.256 Y123.639 E0.01725
G1 X192.256 Y124.845 E0.03077
G1 X191.738 Y124.845 E0.01322
G1 X191.738 Y123.205 E0.04186
G1 X191.220 Y122.771 E0.01725
G1 X191.220 Y124.845 E0.05294
G1 X190.702 Y124.845 E0.01322
G1 X190.702 Y122.337 E0.06403
G1 X190.184 Y121.910 E0.01713
G1 X190.184 Y124.845 E0.07493
G1 X189.666 Y124.845 E0.01322
G1 X189.666 Y121.496 E0.08551
G1 X189.149 Y121.081 E0.01694
G1 X189.149 Y124.845 E0.09610
G1 X188.631 Y124.845 E0.01322
G1 X188.631 Y120.672 E0.10653
G1 X188.113 Y120.292 E0.01640
G1 X188.113 Y124.845 E0.11623
G1 X187.694 Y124.845 E0.01071
G1 X187.694 Y122.527 E0.05918
G1 X187.595 Y122.527 E0.00252
G1 X187.595 Y119.918 E0.06660
G1 X187.077 Y119.569 E0.01596
G1 X187.077 Y122.527 E0.07553
G1 X186.560 Y122.527 E0.01322
G1 X186.560 Y119.239 E0.08394
G1 X186.119 Y118.968 E0.01321
G1 X186.042 Y118.925 E0.00226
G1 X186.042 Y122.527 E0.09197
G1 X185.524 Y122.527 E0.01322
G1 X185.524 Y118.639 E0.09927
G1 X185.354 Y118.545 E0.00497
G1 X185.006 Y118.376 E0.00986
G1 X185.006 Y120.209 E0.04680
G1 X184.488 Y120.209 E0.01322
G1 X184.488 Y118.131 E0.05305
G1 X183.971 Y117.915 E0.01432
G1 X183.971 Y120.209 E0.05856
G1 X183.453 Y120.209 E0.01322
G1 X183.453 Y117.726 E0.06341
G1 X182.935 Y117.563 E0.01386
G1 X182.935 Y120.209 E0.06756
G1 X182.417 Y120.209 E0.01322
G1 X182.417 Y117.427 E0.07102
G1 X181.899 Y117.320 E0.01350
G1 X181.899 Y120.209 E0.07376
G1 X181.382 Y120.209 E0.01322
G1 X181.382 Y117.242 E0.07577
G1 X180.864 Y117.190 E0.01329
G1 X180.864 Y120.209 E0.07708
G1 X180.346 Y120.209 E0.01322
G1 X180.346 Y117.166 E0.07771
G1 X179.828 Y117.169 E0.01322
G1 X179.828 Y120.209 E0.07762
G1 X179.310 Y120.209 E0.01322
G1 X179.310 Y117.199 E0.07684
G1 X178.792 Y117.257 E0.01330
G1 X178.792 Y120.209 E0.07538
G1 X178.275 Y120.209 E0.01322
G1 X178.275 Y117.347 E0.07306
G1 X177.757 Y117.465 E0.01356
G1 X177.757 Y120.209 E0.07006
G1 X177.239 Y120.209 E0.01322
G1 X177.239 Y117.609 E0.06637
G1 X176.721 Y117.778 E0.01391
G1 X176.721 Y120.209 E0.06207
G1 X176.203 Y120.209 E0.01322
G1 X176.203 Y117.971 E0.05714
G1 X175.686 Y118.198 E0.01443
G1 X175.686 Y120.209 E0.05136
G1 X175.168 Y120.209 E0.01322
G1 X175.168 Y118.445 E0.04503
G1 X174.650 Y118.713 E0.01489
G1 X174.650 Y120.209 E0.03818
G1 X174.132 Y120.209 E0.01322
G1 X174.132 Y119.006 E0.03072
G1 X173.614 Y119.320 E0.01546
G1 X173.614 Y122.527 E0.08189
G1 X173.097 Y122.527 E0.01322
G1 X173.097 Y119.647 E0.07353
G1 X172.579 Y119.995 E0.01593
G1 X172.579 Y122.527 E0.06464
G1 X172.061 Y122.527 E0.01322
G1 X172.061 Y120.362 E0.05527
G1 X171.543 Y120.739 E0.01636
G1 X171.543 Y122.527 E0.04564
G1 X171.469 Y122.527 E0.00189
G1 X171.469 Y124.845 E0.05918
G1 X171.025 Y124.845 E0.01133
G1 X171.025 Y121.116 E0.09520
G1 X170.508 Y121.499 E0.01644
G1 X170.508 Y124.845 E0.08542
G1 X169.990 Y124.845 E0.01322
G1 X169.990 Y121.891 E0.07541
G1 X169.472 Y122.283 E0.01659
G1 X169.472 Y124.845 E0.06539
G1 X169.151 Y124.845 E0.00818
G1 X169.151 Y127.162 E0.05918
G1 X168.954 Y127.162 E0.00504
G1 X168.954 Y122.676 E0.11456
G1 X168.436 Y123.068 E0.01659
G1 X168.436 Y127.162 E0.10455
G1 X167.918 Y127.162 E0.01322
G1 X167.918 Y123.450 E0.09478
G1 X167.401 Y123.816 E0.01618
G1 X167.401 Y127.162 E0.08546
G1 X166.883 Y127.162 E0.01322
G1 X166.883 Y124.181 E0.07613
G1 X166.365 Y124.536 E0.01604
G1 X166.365 Y127.162 E0.06705
G1 X165.847 Y127.162 E0.01322
G1 X165.847 Y124.802 E0.06026
G1 X165.553 Y124.775 E0.00755
G1 X165.329 Y124.560 E0.00792
G1 X165.329 Y127.162 E0.06645
G1 X164.812 Y127.162 E0.01322
G1 X164.812 Y124.061 E0.07919
G1 X164.294 Y123.562 E0.01836
G1 X164.294 Y127.162 E0.09192
G1 X163.776 Y127.162 E0.01322
G1 X163.776 Y123.064 E0.10465
G1 X163.258 Y122.556 E0.01851
G1 X163.258 Y127.162 E0.11762
G1 X162.740 Y127.162 E0.01322
G1 X162.740 Y121.969 E0.13260
G1 X162.574 Y121.759 E0.00686
G1 X162.223 Y121.224 E0.01632
G1 X162.223 Y127.162 E0.15162
G1 X162.198 Y127.162 E0.00063
G1 X162.198 Y124.845 E0.05918
G1 X161.705 Y124.845 E0.01259
G1 X161.705 Y120.436 E0.11256
G1 X161.187 Y119.648 E0.02408
G1 X161.187 Y124.845 E0.13268
G1 X160.669 Y124.845 E0.01322
G1 X160.669 Y118.860 E0.15280
G1 X160.151 Y118.072 E0.02408
G1 X160.151 Y124.988 E0.17657
G1 F8640
G1 X160.151 Y121.696 E-0.76000
G1 E-0.04000 F2100.00000
G1 Z0.800 F10800.000
G1 X157.562 Y122.670
G1 Z0.200
G1 E0.80000 F2100.00000
G1 F1200
G1 X157.562 Y94.713 E0.71384
G1 X158.080 Y94.713 E0.01322
G1 X158.080 Y122.527 E0.71019
G1 X158.598 Y122.527 E0.01322
G1 X158.598 Y94.713 E0.71019
G1 X159.116 Y94.713 E0.01322
G1 X159.116 Y122.527 E0.71019
G1 X159.634 Y122.527 E0.01322
G1 X159.634 Y117.127 E0.13788
G1 X159.248 Y116.253 E0.02438
G1 X159.225 Y116.123 E0.00338
G1 X159.309 Y114.536 E0.04057
G1 X159.408 Y111.451 E0.07881
G1 X159.440 Y108.376 E0.07852
G1 X159.408 Y105.301 E0.07852
G1 X159.309 Y102.216 E0.07881
G1 X159.225 Y100.629 E0.04057
G1 X159.248 Y100.499 E0.00338
G1 X159.634 Y99.626 E0.02438
G1 X159.634 Y94.713 E0.12544
G1 X159.880 Y94.713 E0.00629
G1 X159.880 Y90.077 E0.11836
G1 X160.151 Y90.077 E0.00693
G1 X160.151 Y98.680 E0.21966
G1 X160.669 Y97.892 E0.02408
G1 X160.669 Y90.077 E0.19954
G1 X161.187 Y90.077 E0.01322
G1 X161.187 Y97.104 E0.17942
G1 X161.705 Y96.316 E0.02408
G1 X161.705 Y90.077 E0.15930
G1 X162.198 Y90.077 E0.01259
G1 X162.198 Y87.759 E0.05918
G1 X162.223 Y87.759 E0.00063
G1 X162.223 Y95.528 E0.19836
G1 X162.574 Y94.994 E0.01632
G1 X162.740 Y94.783 E0.00686
G1 X162.740 Y87.759 E0.17934
G1 X163.258 Y87.759 E0.01322
G1 X163.258 Y94.217 E0.16489
G1 X163.776 Y93.771 E0.01745
G1 X163.776 Y87.759 E0.15350
G1 X164.294 Y87.759 E0.01322
G1 X164.294 Y93.325 E0.14211
G1 X164.812 Y92.879 E0.01745
G1 X164.812 Y90.077 E0.07153
G1 X165.329 Y90.077 E0.01322
G1 X165.329 Y92.433 E0.06014
M73 Q0 S159
G1 X165.390 Y92.381 E0.00204
G1 X165.393 Y92.268 E0.00287
G1 X165.847 Y92.031 E0.01308
G1 X165.847 Y90.077 E0.04990
G1 X166.365 Y90.077 E0.01322
G1 X166.365 Y92.216 E0.05461
G1 X166.883 Y92.572 E0.01604
G1 X166.883 Y90.077 E0.06369
G1 X167.401 Y90.077 E0.01322
G1 X167.401 Y92.937 E0.07302
M73 P0 R158
G1 X167.918 Y93.302 E0.01618
G1 X167.918 Y90.077 E0.08234
G1 X168.436 Y90.077 E0.01322
G1 X168.436 Y93.685 E0.09211
G1 X168.954 Y94.077 E0.01659
G1 X168.954 Y90.077 E0.10212
G1 X169.151 Y90.077 E0.00504
G1 X169.151 Y92.395 E0.05918
G1 X169.472 Y92.395 E0.00818
G1 X169.472 Y94.469 E0.05295
G1 X169.990 Y94.861 E0.01659
G1 X169.990 Y92.395 E0.06297
G1 X170.508 Y92.395 E0.01322
G1 X170.508 Y95.253 E0.07298
G1 X171.025 Y95.636 E0.01644
G1 X171.025 Y92.395 E0.08276
G1 X171.469 Y92.395 E0.01133
G1 X171.469 Y94.713 E0.05918
G1 X171.543 Y94.713 E0.00189
G1 X171.543 Y96.013 E0.03320
G1 X172.061 Y96.390 E0.01636
G1 X172.061 Y94.713 E0.04283
G1 X172.579 Y94.713 E0.01322
G1 X172.579 Y96.757 E0.05220
G1 X173.097 Y97.105 E0.01593
G1 X173.097 Y94.713 E0.06109
G1 X173.614 Y94.713 E0.01322
G1 X173.614 Y97.433 E0.06945
G1 X174.132 Y97.747 E0.01546
G1 X174.132 Y94.713 E0.07746
G1 X174.650 Y94.713 E0.01322
G1 X174.650 Y98.039 E0.08493
G1 X175.168 Y98.307 E0.01489
G1 X175.168 Y94.713 E0.09177
G1 X175.686 Y94.713 E0.01322
G1 X175.686 Y98.555 E0.09810
G1 X176.203 Y98.781 E0.01443
G1 X176.203 Y97.031 E0.04470
G1 X176.721 Y97.031 E0.01322
G1 X176.721 Y98.974 E0.04963
G1 X177.239 Y99.143 E0.01391
G1 X177.239 Y97.031 E0.05393
G1 X177.757 Y97.031 E0.01322
G1 X177.757 Y99.287 E0.05762
G1 X178.275 Y99.405 E0.01356
G1 X178.275 Y97.031 E0.06062
G1 X178.792 Y97.031 E0.01322
G1 X178.792 Y99.496 E0.06294
G1 X179.310 Y99.553 E0.01330
G1 X179.310 Y97.031 E0.06440
G1 X179.828 Y97.031 E0.01322
G1 X179.828 Y99.583 E0.06518
G1 X180.346 Y99.587 E0.01322
G1 X180.346 Y97.031 E0.06527
G1 X180.864 Y97.031 E0.01322
G1 X180.864 Y99.562 E0.06464
G1 X181.382 Y99.511 E0.01329
G1 X181.382 Y97.031 E0.06333
G1 X181.899 Y97.031 E0.01322
G1 X181.899 Y99.432 E0.06132
G1 X182.417 Y99.325 E0.01350
G1 X182.417 Y97.031 E0.05858
G1 X182.935 Y97.031 E0.01322
G1 X182.935 Y99.190 E0.05512
G1 X183.453 Y99.027 E0.01386
G1 X183.453 Y97.031 E0.05097
G1 X183.971 Y97.031 E0.01322
G1 X183.971 Y98.837 E0.04612
G1 X184.488 Y98.621 E0.01432
G1 X184.488 Y97.031 E0.04061
G1 X185.006 Y97.031 E0.01322
G1 X185.006 Y98.376 E0.03435
G1 X185.524 Y98.114 E0.01482
G1 X185.524 Y94.713 E0.08683
G1 X186.042 Y94.713 E0.01322
G1 X186.042 Y97.828 E0.07953
G1 X186.560 Y97.513 E0.01547
G1 X186.560 Y94.713 E0.07150
G1 X187.077 Y94.713 E0.01322
G1 X187.077 Y97.184 E0.06309
G1 X187.595 Y96.834 E0.01596
G1 X187.595 Y94.713 E0.05416
G1 X187.694 Y94.713 E0.00252
G1 X187.694 Y92.395 E0.05918
G1 X188.113 Y92.395 E0.01071
G1 X188.113 Y96.460 E0.10379
G1 X188.631 Y96.080 E0.01640
G1 X188.631 Y92.395 E0.09409
G1 X189.149 Y92.395 E0.01322
G1 X189.149 Y95.671 E0.08365
G1 X189.666 Y95.257 E0.01694
G1 X189.666 Y92.395 E0.07307
G1 X190.012 Y92.395 E0.00881
G1 X190.012 Y90.077 E0.05918
G1 X190.184 Y90.077 E0.00441
G1 X190.184 Y94.842 E0.12167
G1 X190.702 Y94.415 E0.01713
G1 X190.702 Y90.077 E0.11077
G1 X191.220 Y90.077 E0.01322
G1 X191.220 Y93.981 E0.09968
G1 X191.738 Y93.547 E0.01725
G1 X191.738 Y90.077 E0.08860
G1 X192.256 Y90.077 E0.01322
G1 X192.256 Y93.113 E0.07752
G1 X192.773 Y92.679 E0.01725
G1 X192.773 Y90.077 E0.06643
G1 X193.291 Y90.077 E0.01322
G1 X193.291 Y92.245 E0.05535
G1 X193.605 Y91.982 E0.01044
G1 X193.809 Y91.991 E0.00522
G1 X193.809 Y90.077 E0.04887
G1 X194.327 Y90.077 E0.01322
G1 X194.327 Y101.809 E0.29957
G1 X193.809 Y101.809 F10800.000
