; generated by Slic3r Prusa Edition 1.42.0-beta2+linux64 on 2019-05-15 at 14:09:24

; 

; external perimeters extrusion width = 0.45mm
; perimeters extrusion width = 0.45mm
; infill extrusion width = 0.45mm
; solid infill extrusion width = 0.45mm
; top infill extrusion width = 0.40mm
; first layer extrusion width = 0.42mm

M73 P0 R43
M73 Q0 S43
M201 X1000 Y1000 Z1000 E5000 ; sets maximum accelerations, mm/sec^2
M203 X200 Y200 Z12 E120 ; sets maximum feedrates, mm/sec
M204 P1250 R1250 T1250 ; sets acceleration (P, T) and retract acceleration (R), mm/sec^2
M205 X8.00 Y8.00 Z0.40 E1.50 ; sets the jerk limits, mm/sec
M205 S0 T0 ; sets the minimum extruding and travel feed rate, mm/sec
M107
M115 U3.6.0 ; tell printer latest fw version
G90 ; use absolute coordinates
M83 ; extruder relative mode
M104 S215 ; set extruder temp
M140 S60 ; set bed temp
M190 S60 ; wait for bed temp
M109 S215 ; wait for extruder temp
G28 W ; home all without mesh bed level
G80 ; mesh bed leveling
G1 Y-3.0 F1000.0 ; go outside print area
G92 E0.0
G1 X60.0 E9.0 F1000.0 ; intro line
M73 Q0 S43
M73 P0 R43
G1 X100.0 E12.5 F1000.0 ; intro line
G92 E0.0
M221 S95
M900 K30 ; Filament gcode
G21 ; set units to millimeters
G90 ; use absolute coordinates
M83 ; use relative distances for extrusion
;BEFORE_LAYER_CHANGE
G92 E0.0
;0.2


G1 E-0.80000 F2100.00000
G1 Z0.600 F10800.000
;AFTER_LAYER_CHANGE
;0.2
G1 X99.314 Y97.605
G1 Z0.200
G1 E0.80000 F2100.00000
M204 S1000
G1 F1200
G1 X99.794 Y97.174 E0.02021
G1 X100.381 Y96.901 E0.02032
G1 X100.998 Y96.811 E0.01953
G1 X149.004 Y96.811 E1.50519
G1 X149.823 Y96.972 E0.02620
G1 X150.521 Y97.426 E0.02608
G1 X150.998 Y98.107 E0.02608
G1 X151.187 Y98.917 E0.02608
G1 X151.175 Y111.241 E0.38639
G1 X151.014 Y111.857 E0.01998
G1 X150.679 Y112.404 E0.02010
G1 X150.200 Y112.830 E0.02010
G1 X149.619 Y113.099 E0.02010
G1 X149.002 Y113.189 E0.01953
G1 X100.938 Y113.188 E1.50702
G1 X100.265 Y113.062 E0.02146
G1 X99.665 Y112.734 E0.02146
G1 X99.194 Y112.237 E0.02146
G1 X98.901 Y111.619 E0.02146
G1 X98.812 Y111.013 E0.01919
G1 X98.822 Y98.781 E0.38353
G1 X98.981 Y98.156 E0.02021
G1 X99.283 Y97.656 E0.01833
G1 F8640
G1 X99.794 Y97.174 E-0.16213
G1 X100.381 Y96.901 E-0.14966
G1 X100.998 Y96.811 E-0.14382
G1 X102.316 Y96.811 E-0.30439
G1 E-0.04000 F2100.00000
G1 Z0.800 F10800.000
G1 X101.587 Y99.587
G1 Z0.200
G1 E0.80000 F2100.00000
G1 F1200
G1 X148.413 Y99.587 E1.46819
G1 X148.413 Y110.413 E0.33944
G1 X101.587 Y110.413 E1.46819
G1 X101.587 Y99.647 E0.33756
G1 X101.210 Y99.210 F10800.000
G1 F1200
G1 X148.790 Y99.210 E1.49184
G1 X148.790 Y110.790 E0.36308
G1 X101.210 Y110.790 E1.49184
G1 X101.210 Y99.270 E0.36120
G1 X101.609 Y99.242 F10800.000
G1 F8640
G1 X104.501 Y99.266 E-0.76000
G1 E-0.04000 F2100.00000
G1 Z0.800 F10800.000
G1 X101.700 Y109.535
G1 Z0.200
G1 E0.80000 F2100.00000
G1 F1200
G1 X102.296 Y110.130 E0.02651
G1 X102.831 Y110.130 E0.01685
G1 X101.870 Y109.169 E0.04278
G1 X101.870 Y108.634 E0.01685
G1 X103.366 Y110.130 E0.06660
G1 X103.902 Y110.130 E0.01685
G1 X101.870 Y108.098 E0.09043
G1 X101.870 Y107.563 E0.01685
G1 X104.437 Y110.130 E0.11425
G1 X104.972 Y110.130 E0.01685
G1 X101.870 Y107.028 E0.13807
G1 X101.870 Y106.493 E0.01685
G1 X105.507 Y110.130 E0.16190
G1 X106.043 Y110.130 E0.01685
G1 X101.870 Y105.957 E0.18572
G1 X101.870 Y105.422 E0.01685
G1 X106.578 Y110.130 E0.20955
G1 X107.113 Y110.130 E0.01685
G1 X101.870 Y104.887 E0.23337
G1 X101.870 Y104.352 E0.01685
G1 X107.648 Y110.130 E0.25720
G1 X108.184 Y110.130 E0.01685
G1 X101.870 Y103.816 E0.28102
G1 X101.870 Y103.281 E0.01685
G1 X108.719 Y110.130 E0.30484
G1 X109.254 Y110.130 E0.01685
G1 X101.870 Y102.746 E0.32867
G1 X101.870 Y102.210 E0.01685
G1 X109.790 Y110.130 E0.35249
G1 X110.325 Y110.130 E0.01685
G1 X101.870 Y101.675 E0.37632
G1 X101.870 Y101.140 E0.01685
G1 X110.860 Y110.130 E0.40014
G1 X111.395 Y110.130 E0.01685
G1 X101.870 Y100.605 E0.42397
G1 X101.870 Y100.069 E0.01685
G1 X111.931 Y110.130 E0.44779
G1 X112.466 Y110.130 E0.01685
G1 X102.206 Y99.870 E0.45667
G1 X102.741 Y99.870 E0.01685
G1 X113.001 Y110.130 E0.45667
G1 X113.537 Y110.130 E0.01685
G1 X103.276 Y99.870 E0.45667
G1 X103.812 Y99.870 E0.01685
G1 X114.072 Y110.130 E0.45667
G1 X114.607 Y110.130 E0.01685
G1 X104.347 Y99.870 E0.45667
G1 X104.882 Y99.870 E0.01685
G1 X115.142 Y110.130 E0.45667
G1 X115.678 Y110.130 E0.01685
G1 X105.417 Y99.870 E0.45667
G1 X105.953 Y99.870 E0.01685
G1 X116.213 Y110.130 E0.45667
G1 X116.748 Y110.130 E0.01685
G1 X106.488 Y99.870 E0.45667
G1 X107.023 Y99.870 E0.01685
G1 X117.283 Y110.130 E0.45667
G1 X117.819 Y110.130 E0.01685
G1 X107.558 Y99.870 E0.45667
G1 X108.094 Y99.870 E0.01685
G1 X118.354 Y110.130 E0.45667
G1 X118.889 Y110.130 E0.01685
G1 X108.629 Y99.870 E0.45667
G1 X109.164 Y99.870 E0.01685
G1 X119.425 Y110.130 E0.45667
G1 X119.960 Y110.130 E0.01685
G1 X109.700 Y99.870 E0.45667
G1 X110.235 Y99.870 E0.01685
G1 X120.495 Y110.130 E0.45667
G1 X121.030 Y110.130 E0.01685
G1 X110.770 Y99.870 E0.45667
G1 X111.305 Y99.870 E0.01685
G1 X121.566 Y110.130 E0.45667
G1 X122.101 Y110.130 E0.01685
G1 X111.841 Y99.870 E0.45667
G1 X112.376 Y99.870 E0.01685
G1 X122.636 Y110.130 E0.45667
G1 X123.171 Y110.130 E0.01685
G1 X112.911 Y99.870 E0.45667
G1 X113.446 Y99.870 E0.01685
G1 X123.707 Y110.130 E0.45667
G1 X124.242 Y110.130 E0.01685
G1 X113.982 Y99.870 E0.45667
G1 X114.517 Y99.870 E0.01685
G1 X124.777 Y110.130 E0.45667
G1 X125.313 Y110.130 E0.01685
G1 X115.052 Y99.870 E0.45667
G1 X115.588 Y99.870 E0.01685
G1 X125.848 Y110.130 E0.45667
G1 X126.383 Y110.130 E0.01685
G1 X116.123 Y99.870 E0.45667
G1 X116.658 Y99.870 E0.01685
G1 X126.918 Y110.130 E0.45667
G1 X127.454 Y110.130 E0.01685
G1 X117.193 Y99.870 E0.45667
G1 X117.729 Y99.870 E0.01685
G1 X127.989 Y110.130 E0.45667
G1 X128.524 Y110.130 E0.01685
G1 X118.264 Y99.870 E0.45667
G1 X118.799 Y99.870 E0.01685
G1 X129.060 Y110.130 E0.45667
G1 X129.595 Y110.130 E0.01685
G1 X119.335 Y99.870 E0.45667
G1 X119.870 Y99.870 E0.01685
G1 X130.130 Y110.130 E0.45667
G1 X130.665 Y110.130 E0.01685
G1 X120.405 Y99.870 E0.45667
G1 X120.940 Y99.870 E0.01685
G1 X131.201 Y110.130 E0.45667
G1 X131.736 Y110.130 E0.01685
G1 X121.476 Y99.870 E0.45667
G1 X122.011 Y99.870 E0.01685
G1 X132.271 Y110.130 E0.45667
G1 X132.806 Y110.130 E0.01685
G1 X122.546 Y99.870 E0.45667
M73 Q2 S42
M73 P2 R42
G1 X123.081 Y99.870 E0.01685
G1 X133.342 Y110.130 E0.45667
G1 X133.877 Y110.130 E0.01685
G1 X123.617 Y99.870 E0.45667
G1 X124.152 Y99.870 E0.01685
G1 X134.412 Y110.130 E0.45667
G1 X134.948 Y110.130 E0.01685
G1 X124.687 Y99.870 E0.45667
G1 X125.223 Y99.870 E0.01685
G1 X135.483 Y110.130 E0.45667
G1 X136.018 Y110.130 E0.01685
G1 X125.758 Y99.870 E0.45667
G1 X126.293 Y99.870 E0.01685
G1 X136.553 Y110.130 E0.45667
G1 X137.089 Y110.130 E0.01685
G1 X126.828 Y99.870 E0.45667
G1 X127.364 Y99.870 E0.01685
G1 X137.624 Y110.130 E0.45667
G1 X138.159 Y110.130 E0.01685
G1 X127.899 Y99.870 E0.45667
G1 X128.434 Y99.870 E0.01685
G1 X138.695 Y110.130 E0.45667
G1 X139.230 Y110.130 E0.01685
G1 X128.970 Y99.870 E0.45667
G1 X129.505 Y99.870 E0.01685
G1 X139.765 Y110.130 E0.45667
G1 X140.300 Y110.130 E0.01685
G1 X130.040 Y99.870 E0.45667
G1 X130.575 Y99.870 E0.01685
G1 X140.836 Y110.130 E0.45667
G1 X141.371 Y110.130 E0.01685
G1 X131.111 Y99.870 E0.45667
G1 X131.646 Y99.870 E0.01685
G1 X141.906 Y110.130 E0.45667
G1 X142.441 Y110.130 E0.01685
G1 X132.181 Y99.870 E0.45667
G1 X132.716 Y99.870 E0.01685
G1 X142.977 Y110.130 E0.45667
G1 X143.512 Y110.130 E0.01685
G1 X133.252 Y99.870 E0.45667
G1 X133.787 Y99.870 E0.01685
G1 X144.047 Y110.130 E0.45667
G1 X144.583 Y110.130 E0.01685
G1 X134.322 Y99.870 E0.45667
G1 X134.858 Y99.870 E0.01685
G1 X145.118 Y110.130 E0.45667
G1 X145.653 Y110.130 E0.01685
G1 X135.393 Y99.870 E0.45667
G1 X135.928 Y99.870 E0.01685
G1 X146.188 Y110.130 E0.45667
G1 X146.724 Y110.130 E0.01685
G1 X136.463 Y99.870 E0.45667
G1 X136.999 Y99.870 E0.01685
G1 X147.259 Y110.130 E0.45667
G1 X147.794 Y110.130 E0.01685
G1 X137.534 Y99.870 E0.45667
G1 X138.069 Y99.870 E0.01685
G1 X148.130 Y109.931 E0.44779
G1 X148.130 Y109.395 E0.01685
G1 X138.605 Y99.870 E0.42397
G1 X139.140 Y99.870 E0.01685
G1 X148.130 Y108.860 E0.40015
G1 X148.130 Y108.325 E0.01685
G1 X139.675 Y99.870 E0.37632
G1 X140.210 Y99.870 E0.01685
G1 X148.130 Y107.790 E0.35250
G1 X148.130 Y107.254 E0.01685
G1 X140.746 Y99.870 E0.32867
G1 X141.281 Y99.870 E0.01685
G1 X148.130 Y106.719 E0.30485
G1 X148.130 Y106.184 E0.01685
G1 X141.816 Y99.870 E0.28102
G1 X142.351 Y99.870 E0.01685
G1 X148.130 Y105.649 E0.25720
G1 X148.130 Y105.113 E0.01685
G1 X142.887 Y99.870 E0.23338
G1 X143.422 Y99.870 E0.01685
G1 X148.130 Y104.578 E0.20955
G1 X148.130 Y104.043 E0.01685
G1 X143.957 Y99.870 E0.18573
G1 X144.493 Y99.870 E0.01685
G1 X148.130 Y103.507 E0.16190
G1 X148.130 Y102.972 E0.01685
G1 X145.028 Y99.870 E0.13808
G1 X145.563 Y99.870 E0.01685
G1 X148.130 Y102.437 E0.11425
G1 X148.130 Y101.902 E0.01685
G1 X146.098 Y99.870 E0.09043
G1 X146.634 Y99.870 E0.01685
G1 X148.130 Y101.366 E0.06661
G1 X148.130 Y100.831 E0.01685
G1 X147.169 Y99.870 E0.04278
G1 X147.704 Y99.870 E0.01685
G1 X148.300 Y100.465 E0.02651
M106 S255
;BEFORE_LAYER_CHANGE
G92 E0.0
;0.35


G1 F8640
G1 X147.704 Y99.870 E-0.19449
G1 X147.169 Y99.870 E-0.12360
G1 X148.130 Y100.831 E-0.31387
G1 X148.130 Y101.366 E-0.12360
G1 X148.117 Y101.353 E-0.00445
G1 E-0.04000 F2100.00000
G1 Z0.800 F10800.000
;AFTER_LAYER_CHANGE
;0.35
G1 X150.998 Y98.107
G1 Z0.350
G1 E0.80000 F2100.00000
G1 F3000
G1 X151.187 Y98.917 E0.02012
G1 X151.175 Y111.241 E0.29804
G1 X151.014 Y111.857 E0.01541
G1 X150.679 Y112.404 E0.01550
G1 X150.200 Y112.830 E0.01550
G1 X149.619 Y113.099 E0.01550
G1 X149.002 Y113.189 E0.01506
G1 X100.938 Y113.188 E1.16243
G1 X100.265 Y113.062 E0.01655
G1 X99.665 Y112.734 E0.01655
G1 X99.194 Y112.237 E0.01655
G1 X98.901 Y111.619 E0.01655
G1 X98.812 Y111.013 E0.01480
G1 X98.822 Y98.781 E0.29583
G1 X98.981 Y98.156 E0.01559
G1 X99.314 Y97.605 E0.01559
G1 X99.794 Y97.174 E0.01559
G1 X100.381 Y96.901 E0.01568
G1 X100.998 Y96.811 E0.01506
G1 X149.004 Y96.811 E1.16102
G1 X149.823 Y96.972 E0.02021
G1 X150.521 Y97.426 E0.02012
G1 X150.964 Y98.058 E0.01867
G1 F8640
G1 X151.187 Y98.917 E-0.20500
G1 X151.185 Y101.321 E-0.55500
G1 E-0.04000 F2100.00000
G1 Z0.950 F10800.000
G1 X148.357 Y99.643
G1 Z0.350
G1 E0.80000 F2100.00000
M204 S800
G1 F2700
G1 X148.357 Y110.357 E0.27917
G1 X101.643 Y110.357 E1.21718
G1 X101.643 Y99.643 E0.27917
G1 X148.297 Y99.643 E1.21562
M204 S1000
G1 X148.775 Y99.225 F10800.000
M204 S800
G1 F1500
G1 X148.775 Y110.775 E0.30094
G1 X101.225 Y110.775 E1.23895
G1 X101.225 Y99.225 E0.30094
G1 X148.715 Y99.225 E1.23739
M204 S1000
G1 X148.603 Y99.586 F10800.000
G1 F8640
G1 X148.732 Y102.516 E-0.76000
G1 E-0.04000 F2100.00000
G1 Z0.950 F10800.000
G1 X147.383 Y110.232
G1 Z0.350
G1 E0.80000 F2100.00000
M204 S1250
G1 F4800
G1 X148.044 Y109.571 E0.02448
G1 X148.044 Y108.977 E0.01555
G1 X146.977 Y110.044 E0.03951
G1 X146.383 Y110.044 E0.01555
G1 X148.044 Y108.383 E0.06151
G1 X148.044 Y107.789 E0.01555
G1 X145.789 Y110.044 E0.08350
G1 X145.195 Y110.044 E0.01555
G1 X148.044 Y107.195 E0.10549
G1 X148.044 Y106.601 E0.01555
G1 X144.601 Y110.044 E0.12749
G1 X144.008 Y110.044 E0.01555
G1 X148.044 Y106.008 E0.14948
G1 X148.044 Y105.414 E0.01555
G1 X143.414 Y110.044 E0.17148
G1 X142.820 Y110.044 E0.01555
G1 X148.044 Y104.820 E0.19347
G1 X148.044 Y104.226 E0.01555
G1 X142.226 Y110.044 E0.21546
G1 X141.632 Y110.044 E0.01555
G1 X148.044 Y103.632 E0.23746
G1 X148.044 Y103.038 E0.01555
G1 X141.038 Y110.044 E0.25945
G1 X140.444 Y110.044 E0.01555
G1 X148.044 Y102.444 E0.28144
G1 X148.044 Y101.851 E0.01555
G1 X139.851 Y110.044 E0.30344
G1 X139.257 Y110.044 E0.01555
G1 X148.044 Y101.257 E0.32543
G1 X148.044 Y100.663 E0.01555
G1 X138.663 Y110.044 E0.34743
G1 X138.069 Y110.044 E0.01555
G1 X148.044 Y100.069 E0.36942
G1 X148.044 Y99.956 E0.00295
G1 X147.563 Y99.956 E0.01260
G1 X137.475 Y110.044 E0.37360
G1 X136.881 Y110.044 E0.01555
G1 X146.969 Y99.956 E0.37360
G1 X146.375 Y99.956 E0.01555
G1 X136.287 Y110.044 E0.37360
G1 X135.694 Y110.044 E0.01555
G1 X145.781 Y99.956 E0.37360
G1 X145.187 Y99.956 E0.01555
G1 X135.100 Y110.044 E0.37360
G1 X134.506 Y110.044 E0.01555
G1 X144.593 Y99.956 E0.37360
G1 X144.000 Y99.956 E0.01555
G1 X133.912 Y110.044 E0.37360
G1 X133.318 Y110.044 E0.01555
G1 X143.406 Y99.956 E0.37360
G1 X142.812 Y99.956 E0.01555
G1 X132.724 Y110.044 E0.37360
G1 X132.130 Y110.044 E0.01555
G1 X142.218 Y99.956 E0.37360
G1 X141.624 Y99.956 E0.01555
G1 X131.536 Y110.044 E0.37360
G1 X130.943 Y110.044 E0.01555
G1 X141.030 Y99.956 E0.37360
G1 X140.436 Y99.956 E0.01555
G1 X130.349 Y110.044 E0.37360
G1 X129.755 Y110.044 E0.01555
G1 X139.843 Y99.956 E0.37360
G1 X139.249 Y99.956 E0.01555
G1 X129.161 Y110.044 E0.37360
G1 X128.567 Y110.044 E0.01555
G1 X138.655 Y99.956 E0.37360
G1 X138.061 Y99.956 E0.01555
G1 X127.973 Y110.044 E0.37360
G1 X127.379 Y110.044 E0.01555
G1 X137.467 Y99.956 E0.37360
G1 X136.873 Y99.956 E0.01555
G1 X126.786 Y110.044 E0.37360
G1 X126.192 Y110.044 E0.01555
G1 X136.279 Y99.956 E0.37360
G1 X135.686 Y99.956 E0.01555
G1 X125.598 Y110.044 E0.37360
G1 X125.004 Y110.044 E0.01555
G1 X135.092 Y99.956 E0.37360
G1 X134.498 Y99.956 E0.01555
G1 X124.410 Y110.044 E0.37360
G1 X123.816 Y110.044 E0.01555
G1 X133.904 Y99.956 E0.37360
G1 X133.310 Y99.956 E0.01555
G1 X123.222 Y110.044 E0.37360
G1 X122.629 Y110.044 E0.01555
G1 X132.716 Y99.956 E0.37360
G1 X132.122 Y99.956 E0.01555
G1 X122.035 Y110.044 E0.37360
G1 X121.441 Y110.044 E0.01555
G1 X131.528 Y99.956 E0.37360
G1 X130.935 Y99.956 E0.01555
G1 X120.847 Y110.044 E0.37360
G1 X120.253 Y110.044 E0.01555
G1 X130.341 Y99.956 E0.37360
G1 X129.747 Y99.956 E0.01555
G1 X119.659 Y110.044 E0.37360
G1 X119.065 Y110.044 E0.01555
G1 X129.153 Y99.956 E0.37360
G1 X128.559 Y99.956 E0.01555
G1 X118.471 Y110.044 E0.37360
G1 X117.878 Y110.044 E0.01555
G1 X127.965 Y99.956 E0.37360
G1 X127.371 Y99.956 E0.01555
G1 X117.284 Y110.044 E0.37360
G1 X116.690 Y110.044 E0.01555
G1 X126.778 Y99.956 E0.37360
G1 X126.184 Y99.956 E0.01555
G1 X116.096 Y110.044 E0.37360
G1 X115.502 Y110.044 E0.01555
G1 X125.590 Y99.956 E0.37360
G1 X124.996 Y99.956 E0.01555
G1 X114.908 Y110.044 E0.37360
G1 X114.314 Y110.044 E0.01555
G1 X124.402 Y99.956 E0.37360
G1 X123.808 Y99.956 E0.01555
G1 X113.721 Y110.044 E0.37360
G1 X113.127 Y110.044 E0.01555
G1 X123.214 Y99.956 E0.37360
G1 X122.621 Y99.956 E0.01555
G1 X112.533 Y110.044 E0.37360
G1 X111.939 Y110.044 E0.01555
G1 X122.027 Y99.956 E0.37360
G1 X121.433 Y99.956 E0.01555
G1 X111.345 Y110.044 E0.37360
G1 X110.751 Y110.044 E0.01555
G1 X120.839 Y99.956 E0.37360
G1 X120.245 Y99.956 E0.01555
G1 X110.157 Y110.044 E0.37360
G1 X109.564 Y110.044 E0.01555
G1 X119.651 Y99.956 E0.37360
G1 X119.057 Y99.956 E0.01555
G1 X108.970 Y110.044 E0.37360
G1 X108.376 Y110.044 E0.01555
G1 X118.463 Y99.956 E0.37360
G1 X117.870 Y99.956 E0.01555
G1 X107.782 Y110.044 E0.37360
G1 X107.188 Y110.044 E0.01555
G1 X117.276 Y99.956 E0.37360
G1 X116.682 Y99.956 E0.01555
G1 X106.594 Y110.044 E0.37360
G1 X106.000 Y110.044 E0.01555
G1 X116.088 Y99.956 E0.37360
G1 X115.494 Y99.956 E0.01555
G1 X105.406 Y110.044 E0.37360
G1 X104.813 Y110.044 E0.01555
G1 X114.900 Y99.956 E0.37360
G1 X114.306 Y99.956 E0.01555
G1 X104.219 Y110.044 E0.37360
G1 X103.625 Y110.044 E0.01555
G1 X113.713 Y99.956 E0.37360
G1 X113.119 Y99.956 E0.01555
G1 X103.031 Y110.044 E0.37360
G1 X102.437 Y110.044 E0.01555
G1 X112.525 Y99.956 E0.37360
G1 X111.931 Y99.956 E0.01555
G1 X101.956 Y109.931 E0.36942
G1 X101.956 Y109.337 E0.01555
G1 X111.337 Y99.956 E0.34742
G1 X110.743 Y99.956 E0.01555
M73 Q4 S41
G1 X101.956 Y108.743 E0.32543
M73 P4 R41
G1 X101.956 Y108.149 E0.01555
G1 X110.149 Y99.956 E0.30344
G1 X109.556 Y99.956 E0.01555
G1 X101.956 Y107.556 E0.28144
G1 X101.956 Y106.962 E0.01555
G1 X108.962 Y99.956 E0.25945
G1 X108.368 Y99.956 E0.01555
G1 X101.956 Y106.368 E0.23745
G1 X101.956 Y105.774 E0.01555
G1 X107.774 Y99.956 E0.21546
G1 X107.180 Y99.956 E0.01555
G1 X101.956 Y105.180 E0.19347
G1 X101.956 Y104.586 E0.01555
G1 X106.586 Y99.956 E0.17147
G1 X105.992 Y99.956 E0.01555
G1 X101.956 Y103.992 E0.14948
G1 X101.956 Y103.398 E0.01555
