; generated by PrusaSlicer 2.0.0+linux64 on 2019-06-23 at 12:09:05

; 

; external perimeters extrusion width = 0.60mm
; perimeters extrusion width = 0.50mm
; infill extrusion width = 0.50mm
; solid infill extrusion width = 0.50mm
; top infill extrusion width = 0.45mm
; first layer extrusion width = 0.42mm

M73 P0 R49
M73 Q0 S49
M201 X1000 Y1000 Z1000 E5000 ; sets maximum accelerations, mm/sec^2
M203 X200 Y200 Z12 E120 ; sets maximum feedrates, mm/sec
M204 P1250 R1250 T1250 ; sets acceleration (P, T) and retract acceleration (R), mm/sec^2
M205 X8.00 Y8.00 Z0.40 E1.50 ; sets the jerk limits, mm/sec
M205 S0 T0 ; sets the minimum extruding and travel feed rate, mm/sec
M107
M115 U3.7.1 ; tell printer latest fw version
G90 ; use absolute coordinates
M83 ; extruder relative mode
M104 S215 ; set extruder temp
M140 S60 ; set bed temp
M190 S60 ; wait for bed temp
M109 S215 ; wait for extruder temp
G28 W ; home all without mesh bed level
G80 ; mesh bed leveling
G1 Y-3.0 F1000.0 ; go outside print area
G92 E0.0
G1 X60.0 E9.0 F1000.0 ; intro line
M73 Q0 S49
M73 P0 R49
G1 X100.0 E12.5 F1000.0 ; intro line
G92 E0.0
M221 S95
M900 K30 ; Filament gcode
G21 ; set units to millimeters
G90 ; use absolute coordinates
M83 ; use relative distances for extrusion
;BEFORE_LAYER_CHANGE
G92 E0.0
;0.2


G1 E-0.80000 F2100.00000
G1 Z0.600 F10800.000
;AFTER_LAYER_CHANGE
;0.2
G1 X104.121 Y83.040
G1 Z0.200
G1 E0.80000 F2100.00000
M204 S1000
G1 F1200
G1 X104.965 Y82.855 E0.02709
G1 X145.004 Y82.855 E1.25539
G1 X145.823 Y83.016 E0.02620
G1 X146.521 Y83.470 E0.02608
G1 X146.998 Y84.151 E0.02608
G1 X147.187 Y84.965 E0.02620
G1 X147.188 Y124.989 E1.25494
G1 X147.026 Y125.783 E0.02541
G1 X146.587 Y126.464 E0.02541
G1 X145.863 Y126.968 E0.02766
G1 X145.002 Y127.145 E0.02754
G1 X104.967 Y127.145 E1.25527
G1 X104.173 Y126.983 E0.02541
G1 X103.493 Y126.543 E0.02541
G1 X102.989 Y125.819 E0.02766
G1 X102.811 Y124.959 E0.02754
G1 X102.812 Y85.011 E1.25254
G1 X102.974 Y84.217 E0.02541
G1 X103.413 Y83.536 E0.02541
G1 X104.072 Y83.074 E0.02521
G1 F8640
G1 X104.965 Y82.855 E-0.21237
G1 X107.337 Y82.855 E-0.54763
G1 E-0.04000 F2100.00000
G1 Z0.800 F10800.000
G1 X109.000 Y111.609
G1 Z0.200
G1 E0.80000 F2100.00000
G1 F1200
G1 X111.937 Y113.304 E0.10634
G1 X111.937 Y116.696 E0.10634
G1 X109.000 Y118.391 E0.10634
G1 X106.063 Y116.696 E0.10634
G1 X106.063 Y113.304 E0.10634
G1 X108.948 Y111.639 E0.10446
G1 X109.000 Y112.044 F10800.000
G1 F1200
G1 X111.560 Y113.522 E0.09268
G1 X111.560 Y116.478 E0.09268
G1 X109.000 Y117.956 E0.09268
G1 X106.440 Y116.478 E0.09268
G1 X106.440 Y113.522 E0.09268
G1 X108.948 Y112.074 E0.09080
G1 X109.200 Y111.698 F10800.000
G1 F8640
G1 X111.560 Y113.522 E-0.68959
G1 X111.560 Y113.827 E-0.07041
G1 E-0.04000 F2100.00000
G1 Z0.800 F10800.000
G1 X122.063 Y113.304
G1 Z0.200
G1 E0.80000 F2100.00000
G1 F1200
G1 X125.000 Y111.609 E0.10634
G1 X127.937 Y113.304 E0.10634
G1 X127.937 Y116.696 E0.10634
G1 X125.000 Y118.391 E0.10634
G1 X122.063 Y116.696 E0.10634
G1 X122.063 Y113.364 E0.10446
G1 X122.440 Y113.522 F10800.000
G1 F1200
G1 X125.000 Y112.044 E0.09268
G1 X127.560 Y113.522 E0.09268
G1 X127.560 Y116.478 E0.09268
G1 X125.000 Y117.956 E0.09268
G1 X122.440 Y116.478 E0.09268
G1 X122.440 Y113.582 E0.09080
G1 X122.240 Y113.176 F10800.000
G1 F8640
G1 X125.000 Y112.044 E-0.68959
G1 X125.264 Y112.196 E-0.07041
G1 E-0.04000 F2100.00000
G1 Z0.800 F10800.000
G1 X141.000 Y111.609
G1 Z0.200
G1 E0.80000 F2100.00000
G1 F1200
G1 X143.937 Y113.304 E0.10634
G1 X143.937 Y116.696 E0.10634
G1 X141.000 Y118.391 E0.10634
G1 X138.063 Y116.696 E0.10634
G1 X138.063 Y113.304 E0.10634
G1 X140.948 Y111.639 E0.10446
G1 X141.000 Y112.044 F10800.000
G1 F1200
G1 X143.560 Y113.522 E0.09268
G1 X143.560 Y116.478 E0.09268
G1 X141.000 Y117.956 E0.09268
G1 X138.440 Y116.478 E0.09268
G1 X138.440 Y113.522 E0.09268
G1 X140.948 Y112.074 E0.09080
G1 X141.200 Y111.698 F10800.000
G1 F8640
G1 X143.560 Y113.522 E-0.68959
G1 X143.560 Y113.827 E-0.07041
G1 E-0.04000 F2100.00000
G1 Z0.800 F10800.000
G1 X141.000 Y98.391
G1 Z0.200
G1 E0.80000 F2100.00000
G1 F1200
G1 X138.063 Y96.696 E0.10634
G1 X138.063 Y93.304 E0.10634
G1 X141.000 Y91.609 E0.10634
G1 X143.937 Y93.304 E0.10634
G1 X143.937 Y96.696 E0.10634
G1 X141.052 Y98.361 E0.10446
G1 X141.000 Y97.956 F10800.000
G1 F1200
G1 X138.440 Y96.478 E0.09268
G1 X138.440 Y93.522 E0.09268
G1 X141.000 Y92.044 E0.09268
G1 X143.560 Y93.522 E0.09268
G1 X143.560 Y96.478 E0.09268
G1 X141.052 Y97.926 E0.09080
G1 X140.800 Y98.302 F10800.000
G1 F8640
G1 X138.440 Y96.478 E-0.68959
G1 X138.440 Y96.173 E-0.07041
G1 E-0.04000 F2100.00000
G1 Z0.800 F10800.000
G1 X127.937 Y96.696
G1 Z0.200
G1 E0.80000 F2100.00000
G1 F1200
G1 X125.000 Y98.391 E0.10634
G1 X122.063 Y96.696 E0.10634
G1 X122.063 Y93.304 E0.10634
G1 X125.000 Y91.609 E0.10634
G1 X127.937 Y93.304 E0.10634
G1 X127.937 Y96.636 E0.10446
G1 X127.560 Y96.478 F10800.000
G1 F1200
G1 X125.000 Y97.956 E0.09268
G1 X122.440 Y96.478 E0.09268
G1 X122.440 Y93.522 E0.09268
G1 X125.000 Y92.044 E0.09268
G1 X127.560 Y93.522 E0.09268
G1 X127.560 Y96.418 E0.09080
G1 X127.760 Y96.824 F10800.000
G1 F8640
G1 X125.000 Y97.956 E-0.68959
G1 X124.736 Y97.804 E-0.07041
G1 E-0.04000 F2100.00000
G1 Z0.800 F10800.000
G1 X109.000 Y91.609
G1 Z0.200
G1 E0.80000 F2100.00000
G1 F1200
G1 X111.937 Y93.304 E0.10634
G1 X111.937 Y96.696 E0.10634
G1 X109.000 Y98.391 E0.10634
G1 X106.063 Y96.696 E0.10634
G1 X106.063 Y93.304 E0.10634
G1 X108.948 Y91.639 E0.10446
G1 X109.000 Y92.044 F10800.000
G1 F1200
G1 X111.560 Y93.522 E0.09268
G1 X111.560 Y96.478 E0.09268
G1 X109.000 Y97.956 E0.09268
G1 X106.440 Y96.478 E0.09268
G1 X106.440 Y93.522 E0.09268
G1 X108.948 Y92.074 E0.09080
G1 X109.200 Y91.698 F10800.000
G1 F8640
G1 X111.560 Y93.522 E-0.68959
G1 X111.560 Y93.827 E-0.07041
G1 E-0.04000 F2100.00000
G1 Z0.800 F10800.000
G1 X105.587 Y86.563
G1 Z0.200
G1 E0.80000 F2100.00000
G1 F1200
G1 X144.413 Y86.563 E1.21736
G1 X144.413 Y123.437 E1.15617
G1 X105.587 Y123.437 E1.21736
G1 X105.587 Y86.623 E1.15429
G1 X105.210 Y86.186 F10800.000
G1 F1200
G1 X144.790 Y86.186 E1.24100
G1 X144.790 Y123.814 E1.17982
G1 X105.210 Y123.814 E1.24100
G1 X105.210 Y86.246 E1.17794
G1 X105.597 Y86.286 F10800.000
G1 X105.870 Y86.900
G1 F1200
G1 X106.900 Y86.900 E0.03231
G1 X106.900 Y86.846 E0.00171
G1 X107.277 Y86.846 F10800.000
G1 F1200
G1 X107.277 Y87.277 E0.01354
G1 X105.870 Y87.277 E0.04413
G1 X105.870 Y87.654 F10800.000
G1 F1200
G1 X107.654 Y87.654 E0.05595
G1 X107.654 Y86.846 E0.02536
G1 X108.031 Y86.846 F10800.000
G1 F1200
G1 X108.031 Y88.031 E0.03718
G1 X105.870 Y88.031 E0.06777
G1 X105.870 Y88.409 F10800.000
G1 F1200
G1 X108.409 Y88.409 E0.07960
G1 X108.409 Y86.846 E0.04900
G1 X108.786 Y86.846 F10800.000
G1 F1200
G1 X108.786 Y88.786 E0.06083
G1 X105.870 Y88.786 E0.09142
G1 X105.870 Y89.163 F10800.000
G1 F1200
G1 X109.163 Y89.163 E0.10324
G1 X109.163 Y86.846 E0.07265
G1 X109.540 Y86.846 F10800.000
G1 F1200
G1 X109.540 Y89.540 E0.08447
G1 X105.870 Y89.540 E0.11507
G1 X105.870 Y89.917 F10800.000
G1 F1200
G1 X109.917 Y89.917 E0.12689
G1 X109.917 Y86.846 E0.09630
G1 X110.294 Y86.846 F10800.000
G1 F1200
G1 X110.294 Y90.294 E0.10812
G1 X105.870 Y90.294 E0.13871
G1 X105.870 Y90.671 F10800.000
G1 F1200
G1 X110.671 Y90.671 E0.15054
G1 X110.671 Y86.846 E0.11994
G1 X111.048 Y86.846 F10800.000
G1 F1200
G1 X111.048 Y91.048 E0.13177
G1 X105.870 Y91.048 E0.16236
G1 X105.870 Y91.425 F10800.000
G1 F1200
G1 X108.752 Y91.425 E0.09037
G1 X109.248 Y91.425 F10800.000
G1 F1200
G1 X111.425 Y91.425 E0.06827
G1 X111.425 Y86.846 E0.14359
G1 X111.802 Y86.846 F10800.000
G1 F1200
G1 X111.802 Y91.802 E0.15541
G1 X109.901 Y91.802 E0.05961
G1 X110.554 Y92.179 F10800.000
G1 F1200
G1 X112.179 Y92.179 E0.05096
G1 X112.179 Y86.846 E0.16723
G1 X112.556 Y86.846 F10800.000
G1 F1200
G1 X112.556 Y92.556 E0.17906
G1 X111.207 Y92.556 E0.04230
G1 X111.860 Y92.933 F10800.000
G1 F1200
G1 X112.933 Y92.933 E0.03365
G1 X112.933 Y86.846 E0.19088
G1 X113.311 Y86.846 F10800.000
G1 F1200
G1 X113.311 Y93.311 E0.20270
G1 X112.220 Y93.311 E0.03420
G1 X112.220 Y93.688 F10800.000
G1 F1200
G1 X113.688 Y93.688 E0.04602
G1 X113.688 Y86.846 E0.21453
G1 X114.065 Y86.846 F10800.000
G1 F1200
G1 X114.065 Y94.065 E0.22635
G1 X112.220 Y94.065 E0.05784
G1 X112.220 Y94.442 F10800.000
G1 F1200
G1 X114.442 Y94.442 E0.06967
G1 X114.442 Y86.846 E0.23817
G1 X114.819 Y86.846 F10800.000
G1 F1200
G1 X114.819 Y94.819 E0.25000
G1 X112.220 Y94.819 E0.08149
G1 X112.220 Y95.196 F10800.000
G1 F1200
G1 X115.196 Y95.196 E0.09331
G1 X115.196 Y86.846 E0.26182
G1 X115.573 Y86.846 F10800.000
G1 F1200
G1 X115.573 Y95.573 E0.27364
G1 X112.220 Y95.573 E0.10514
G1 X112.220 Y95.950 F10800.000
G1 F1200
G1 X115.950 Y95.950 E0.11696
G1 X115.950 Y86.846 E0.28547
G1 X116.327 Y86.846 F10800.000
G1 F1200
G1 X116.327 Y96.327 E0.29729
G1 X112.220 Y96.327 E0.12878
G1 X112.220 Y96.704 F10800.000
G1 F1200
G1 X116.704 Y96.704 E0.14061
G1 X116.704 Y86.846 E0.30911
G1 X117.081 Y86.846 F10800.000
G1 F1200
G1 X117.081 Y97.081 E0.32093
G1 X111.835 Y97.081 E0.16450
G1 X111.182 Y97.458 F10800.000
G1 F1200
G1 X117.458 Y97.458 E0.19680
G1 X117.458 Y86.846 E0.33276
G1 X117.511 Y86.846 F10800.000
G1 F1200
G1 X123.065 Y92.399 E0.24626
G1 X122.727 Y92.595 F10800.000
G1 F1200
G1 X117.835 Y87.703 E0.21688
G1 X117.835 Y97.835 E0.31769
G1 X110.529 Y97.835 E0.22911
G1 X109.875 Y98.213 F10800.000
G1 F1200
G1 X118.213 Y98.213 E0.26141
G1 X118.213 Y88.614 E0.30097
G1 X122.389 Y92.790 E0.18517
G1 X122.051 Y92.985 F10800.000
G1 F1200
G1 X118.590 Y89.524 E0.15346
M73 Q2 S48
G1 X118.590 Y98.590 E0.28425
M73 P2 R48
G1 X109.524 Y98.590 E0.28425
G1 X115.934 Y105.000 E0.28425
G1 X109.524 Y111.410 E0.28425
G1 X118.590 Y111.410 E0.28425
G1 X118.590 Y119.943 E0.26753
G1 X121.780 Y116.752 E0.14147
G1 X122.051 Y117.015 F10800.000
G1 F1200
G1 X118.213 Y120.853 E0.17018
G1 X118.213 Y111.787 E0.28425
G1 X109.875 Y111.787 E0.26141
G1 X110.529 Y112.165 F10800.000
G1 F1200
G1 X117.835 Y112.165 E0.22911
G1 X117.835 Y121.763 E0.30097
G1 X122.389 Y117.210 E0.20189
G1 X122.727 Y117.405 F10800.000
G1 F1200
G1 X117.458 Y122.674 E0.23360
G1 X117.458 Y112.542 E0.31769
G1 X111.182 Y112.542 E0.19680
G1 X111.835 Y112.919 F10800.000
G1 F1200
G1 X117.081 Y112.919 E0.16450
G1 X117.081 Y123.154 E0.32093
G1 X116.704 Y123.154 F10800.000
G1 F1200
G1 X116.704 Y113.296 E0.30911
G1 X112.220 Y113.296 E0.14061
G1 X112.220 Y113.673 F10800.000
G1 F1200
G1 X116.327 Y113.673 E0.12878
G1 X116.327 Y123.154 E0.29729
G1 X115.950 Y123.154 F10800.000
G1 F1200
G1 X115.950 Y114.050 E0.28547
G1 X112.220 Y114.050 E0.11696
G1 X112.220 Y114.427 F10800.000
G1 F1200
G1 X115.573 Y114.427 E0.10514
G1 X115.573 Y123.154 E0.27364
G1 X115.196 Y123.154 F10800.000
G1 F1200
G1 X115.196 Y114.804 E0.26182
G1 X112.220 Y114.804 E0.09331
G1 X112.220 Y115.181 F10800.000
G1 F1200
G1 X114.819 Y115.181 E0.08149
G1 X114.819 Y123.154 E0.25000
G1 X114.442 Y123.154 F10800.000
G1 F1200
G1 X114.442 Y115.558 E0.23817
G1 X112.220 Y115.558 E0.06967
G1 X112.220 Y115.935 F10800.000
G1 F1200
G1 X114.065 Y115.935 E0.05784
G1 X114.065 Y123.154 E0.22635
G1 X113.688 Y123.154 F10800.000
G1 F1200
G1 X113.688 Y116.312 E0.21453
G1 X112.220 Y116.312 E0.04602
G1 X112.220 Y116.689 F10800.000
G1 F1200
G1 X113.311 Y116.689 E0.03420
G1 X113.311 Y123.154 E0.20270
G1 X112.933 Y123.154 F10800.000
G1 F1200
G1 X112.933 Y117.067 E0.19088
G1 X111.860 Y117.067 E0.03365
G1 X111.207 Y117.444 F10800.000
G1 F1200
G1 X112.556 Y117.444 E0.04230
G1 X112.556 Y123.154 E0.17906
G1 X112.179 Y123.154 F10800.000
G1 F1200
G1 X112.179 Y117.821 E0.16723
G1 X110.554 Y117.821 E0.05096
G1 X109.901 Y118.198 F10800.000
G1 F1200
G1 X111.802 Y118.198 E0.05961
G1 X111.802 Y123.154 E0.15541
G1 X111.425 Y123.154 F10800.000
G1 F1200
G1 X111.425 Y118.575 E0.14359
G1 X109.248 Y118.575 E0.06827
G1 X108.752 Y118.575 F10800.000
G1 F1200
G1 X105.870 Y118.575 E0.09037
G1 X105.870 Y118.198 F10800.000
G1 F1200
G1 X108.099 Y118.198 E0.06989
G1 X107.446 Y117.821 F10800.000
G1 F1200
G1 X105.870 Y117.821 E0.04941
G1 X105.870 Y117.444 F10800.000
G1 F1200
G1 X106.793 Y117.444 E0.02894
G1 X106.140 Y117.067 F10800.000
G1 F1200
G1 X105.870 Y117.067 E0.00846
G1 X105.825 Y116.776 F10800.000
G1 F1200
G1 X105.825 Y113.224 E0.02917
G1 X106.165 Y112.919 F10800.000
G1 F1200
G1 X105.883 Y112.919 E0.00886
G1 X113.801 Y105.000 E0.35113
G1 X105.883 Y97.081 E0.35113
G1 X106.165 Y97.081 E0.00886
G1 X105.825 Y96.776 F10800.000
G1 F1200
G1 X105.825 Y93.224 E0.02917
G1 X105.870 Y92.933 F10800.000
G1 F1200
G1 X106.140 Y92.933 E0.00846
G1 X105.870 Y92.556 F10800.000
G1 F1200
G1 X106.793 Y92.556 E0.02894
G1 X107.446 Y92.179 F10800.000
G1 F1200
G1 X105.870 Y92.179 E0.04941
G1 X105.870 Y91.802 F10800.000
G1 F1200
G1 X108.099 Y91.802 E0.06989
G1 F8640
G1 X105.870 Y91.802 E-0.51470
G1 E-0.28530 F2100.00000
G1 Z0.800 F10800.000
G1 X106.818 Y97.458
G1 Z0.200
G1 E0.80000 F2100.00000
G1 F1200
G1 X106.793 Y97.458 E0.00079
G1 X114.335 Y105.000 E0.33441
G1 X106.793 Y112.542 E0.33441
G1 X106.818 Y112.542 E0.00080
G1 X105.870 Y112.398 F10800.000
G1 F1200
G1 X113.268 Y105.000 E0.32805
G1 X105.870 Y97.602 E0.32805
G1 X105.870 Y98.135 F10800.000
G1 F1200
G1 X112.735 Y105.000 E0.30440
G1 X105.870 Y111.865 E0.30440
G1 X105.870 Y111.332 F10800.000
G1 F1200
G1 X112.202 Y105.000 E0.28076
G1 X105.870 Y98.668 E0.28076
G1 X105.870 Y99.202 F10800.000
G1 F1200
G1 X111.668 Y105.000 E0.25711
G1 X105.870 Y110.798 E0.25711
G1 X105.870 Y110.265 F10800.000
G1 F1200
G1 X111.135 Y105.000 E0.23346
G1 X105.870 Y99.735 E0.23346
G1 X105.870 Y100.268 F10800.000
G1 F1200
G1 X110.602 Y105.000 E0.20982
G1 X105.870 Y109.732 E0.20982
G1 X105.870 Y109.199 F10800.000
G1 F1200
G1 X110.068 Y105.000 E0.18617
G1 X105.870 Y100.801 E0.18617
G1 X105.870 Y101.335 F10800.000
G1 F1200
G1 X109.535 Y105.000 E0.16253
G1 X105.870 Y108.665 E0.16253
G1 X105.870 Y108.132 F10800.000
G1 F1200
G1 X109.002 Y105.000 E0.13888
G1 X105.870 Y101.868 E0.13888
G1 X105.870 Y102.401 F10800.000
G1 F1200
G1 X108.469 Y105.000 E0.11523
G1 X105.870 Y107.599 E0.11523
G1 X105.870 Y107.065 F10800.000
G1 F1200
G1 X107.935 Y105.000 E0.09159
G1 X105.870 Y102.935 E0.09159
G1 X105.870 Y103.468 F10800.000
G1 F1200
G1 X107.402 Y105.000 E0.06794
G1 X105.870 Y106.532 E0.06794
G1 X105.870 Y105.999 F10800.000
G1 F1200
G1 X106.869 Y105.000 E0.04429
G1 X105.870 Y104.001 E0.04429
G1 X105.870 Y104.534 F10800.000
G1 F1200
G1 X106.336 Y105.000 E0.02065
G1 X105.870 Y105.466 E0.02065
G1 F8640
G1 X106.336 Y105.000 E-0.15206
G1 X105.870 Y104.534 E-0.15206
G1 E-0.49587 F2100.00000
G1 Z0.800 F10800.000
G1 X109.076 Y111.326
G1 Z0.200
G1 E0.80000 F2100.00000
G1 F1200
G1 X115.401 Y105.000 E0.28049
G1 X109.076 Y98.674 E0.28049
G1 F8640
G1 X111.403 Y101.002 E-0.76000
G1 E-0.04000 F2100.00000
G1 Z0.800 F10800.000
G1 X108.020 Y98.152
G1 Z0.200
G1 E0.80000 F2100.00000
G1 F1200
G1 X114.868 Y105.000 E0.30364
G1 X108.020 Y111.848 E0.30364
G1 F8640
G1 X110.347 Y109.520 E-0.76000
G1 E-0.04000 F2100.00000
G1 Z0.800 F10800.000
G1 X105.870 Y118.952
G1 Z0.200
G1 E0.80000 F2100.00000
G1 F1200
G1 X111.048 Y118.952 E0.16236
G1 X111.048 Y123.154 E0.13177
G1 X110.671 Y123.154 F10800.000
G1 F1200
G1 X110.671 Y119.329 E0.11994
G1 X105.870 Y119.329 E0.15054
G1 X105.870 Y119.706 F10800.000
G1 F1200
G1 X110.294 Y119.706 E0.13871
G1 X110.294 Y123.154 E0.10812
G1 X109.917 Y123.154 F10800.000
G1 F1200
G1 X109.917 Y120.083 E0.09630
G1 X105.870 Y120.083 E0.12689
G1 X105.870 Y120.460 F10800.000
G1 F1200
G1 X109.540 Y120.460 E0.11507
G1 X109.540 Y123.154 E0.08447
G1 X109.163 Y123.154 F10800.000
G1 F1200
G1 X109.163 Y120.837 E0.07265
G1 X105.870 Y120.837 E0.10324
G1 X105.870 Y121.214 F10800.000
G1 F1200
G1 X108.786 Y121.214 E0.09142
G1 X108.786 Y123.154 E0.06083
G1 X108.409 Y123.154 F10800.000
G1 F1200
G1 X108.409 Y121.591 E0.04900
G1 X105.870 Y121.591 E0.07960
G1 X105.870 Y121.969 F10800.000
G1 F1200
G1 X108.031 Y121.969 E0.06777
G1 X108.031 Y123.154 E0.03718
G1 X107.654 Y123.154 F10800.000
G1 F1200
G1 X107.654 Y122.346 E0.02536
G1 X105.870 Y122.346 E0.05595
G1 X105.870 Y122.723 F10800.000
G1 F1200
G1 X107.277 Y122.723 E0.04413
G1 X107.277 Y123.154 E0.01354
G1 X106.900 Y123.154 F10800.000
G1 F1200
