; generated by Slic3r Prusa Edition 1.42.0-beta2+linux64 on 2019-04-28 at 16:27:07

; 

; external perimeters extrusion width = 0.45mm
; perimeters extrusion width = 0.45mm
; infill extrusion width = 0.45mm
; solid infill extrusion width = 0.45mm
; top infill extrusion width = 0.40mm
; first layer extrusion width = 0.42mm

M73 P0 R143
M73 Q0 S143
M201 X1000 Y1000 Z1000 E5000 ; sets maximum accelerations, mm/sec^2
M203 X200 Y200 Z12 E120 ; sets maximum feedrates, mm/sec
M204 P1250 R1250 T1250 ; sets acceleration (P, T) and retract acceleration (R), mm/sec^2
M205 X8.00 Y8.00 Z0.40 E1.50 ; sets the jerk limits, mm/sec
M205 S0 T0 ; sets the minimum extruding and travel feed rate, mm/sec
M107
M115 U3.6.0 ; tell printer latest fw version
M83  ; extruder relative mode
M104 S215 ; set extruder temp
M140 S60 ; set bed temp
M190 S60 ; wait for bed temp
M109 S215 ; wait for extruder temp
G28 W ; home all without mesh bed level
G80 ; mesh bed leveling
G1 Y-3.0 F1000.0 ; go outside print area
G92 E0.0
G1 X60.0 E9.0  F1000.0 ; intro line
M73 Q0 S142
M73 P0 R143
G1 X100.0 E12.5  F1000.0 ; intro line
G92 E0.0
M221 S95
M900 K30 ; Filament gcode
G21 ; set units to millimeters
G90 ; use absolute coordinates
M83 ; use relative distances for extrusion
;BEFORE_LAYER_CHANGE
G92 E0.0
;0.2


G1 E-0.80000 F2100.00000
G1 Z0.600 F10800.000
;AFTER_LAYER_CHANGE
;0.2
G1 X96.317 Y84.925
G1 Z0.200
G1 E0.80000 F2100.00000
M204 S1000
G1 F1200
G1 X96.834 Y84.215 E0.02754
G1 X97.396 Y83.844 E0.02112
G1 X98.048 Y83.661 E0.02123
G1 X132.029 Y80.004 E1.07161
G1 X152.064 Y79.912 E0.62817
G1 X152.887 Y80.075 E0.02631
G1 X153.588 Y80.535 E0.02631
G1 X154.065 Y81.226 E0.02631
G1 X154.246 Y82.045 E0.02631
G1 X154.246 Y112.404 E0.95187
G1 X153.911 Y113.938 E0.04923
G1 X153.262 Y114.968 E0.03818
G1 X152.940 Y115.336 E0.01532
G1 X128.425 Y130.799 E0.90878
G1 X124.133 Y132.424 E0.14390
G1 X120.018 Y133.115 E0.13084
G1 X116.279 Y133.091 E0.11724
G1 X112.387 Y132.386 E0.12402
G1 X108.561 Y130.958 E0.12804
G1 X105.059 Y128.856 E0.12806
G1 X101.665 Y125.827 E0.14263
G1 X98.955 Y122.161 E0.14297
G1 X97.184 Y118.484 E0.12795
G1 X96.088 Y114.382 E0.13314
G1 X95.767 Y110.601 E0.11896
G1 X96.119 Y85.781 E0.77829
G1 X96.303 Y84.984 E0.02566
G1 F8640
G1 X96.834 Y84.215 E-0.21565
G1 X97.396 Y83.844 E-0.15550
G1 X98.048 Y83.661 E-0.15634
G1 X99.049 Y83.553 E-0.23251
G1 E-0.04000 F2100.00000
G1 Z0.800 F10800.000
G1 X100.955 Y108.202
G1 Z0.200
G1 E0.80000 F2100.00000
G1 F1200
G1 X101.824 Y108.368 E0.02773
G1 X102.617 Y108.888 E0.02973
G1 X103.137 Y109.681 E0.02973
G1 X103.303 Y110.550 E0.02773
G1 X103.137 Y111.419 E0.02773
G1 X102.617 Y112.211 E0.02973
G1 X101.824 Y112.732 E0.02973
G1 X100.955 Y112.898 E0.02773
G1 X100.087 Y112.732 E0.02773
G1 X99.294 Y112.211 E0.02973
G1 X98.773 Y111.419 E0.02973
G1 X98.608 Y110.550 E0.02773
G1 X98.773 Y109.681 E0.02773
G1 X99.295 Y108.887 E0.02979
G1 X100.099 Y108.366 E0.03005
G1 X100.896 Y108.213 E0.02545
G1 X100.955 Y108.586 F10800.000
G1 F1200
G1 X101.680 Y108.724 E0.02313
G1 X102.344 Y109.161 E0.02493
G1 X102.781 Y109.825 E0.02493
G1 X102.919 Y110.550 E0.02313
G1 X102.781 Y111.274 E0.02313
G1 X102.344 Y111.939 E0.02493
G1 X101.680 Y112.375 E0.02493
G1 X100.955 Y112.514 E0.02313
G1 X100.231 Y112.375 E0.02313
G1 X99.566 Y111.939 E0.02493
G1 X99.130 Y111.274 E0.02493
G1 X98.992 Y110.550 E0.02313
G1 X99.130 Y109.825 E0.02313
G1 X99.567 Y109.160 E0.02495
G1 X100.242 Y108.722 E0.02525
G1 X100.896 Y108.597 E0.02088
G1 X101.154 Y108.239 F10800.000
G1 F8640
G1 X101.680 Y108.724 E-0.18327
G1 X102.344 Y109.161 E-0.18358
G1 X102.781 Y109.825 E-0.18358
G1 X102.919 Y110.550 E-0.17032
G1 X102.887 Y110.717 E-0.03925
G1 E-0.04000 F2100.00000
G1 Z0.800 F10800.000
G1 X137.939 Y113.710
G1 Z0.200
G1 E0.80000 F2100.00000
G1 F1200
G1 X136.894 Y117.503 E0.12334
G1 X135.330 Y120.766 E0.11347
G1 X133.109 Y123.790 E0.11763
G1 X130.301 Y126.383 E0.11982
G1 X127.048 Y128.388 E0.11982
G1 X123.538 Y129.712 E0.11763
G1 X119.974 Y130.340 E0.11347
G1 X116.539 Y130.325 E0.10771
G1 X113.158 Y129.717 E0.10771
G1 X109.766 Y128.454 E0.11347
G1 X106.554 Y126.516 E0.11763
G1 X103.718 Y123.955 E0.11982
G1 X101.426 Y120.897 E0.11982
G1 X99.790 Y117.521 E0.11763
G1 X98.842 Y114.028 E0.11347
G1 X98.546 Y110.613 E0.10749
G1 X98.617 Y109.976 E0.02008
G1 X98.854 Y109.374 E0.02029
G1 X99.243 Y108.857 E0.02029
G1 X99.734 Y108.475 E0.01950
G1 X100.306 Y108.231 E0.01950
G1 X100.947 Y108.142 E0.02029
G1 X101.577 Y108.225 E0.01991
G1 X102.164 Y108.467 E0.01991
G1 X102.656 Y108.846 E0.01946
G1 X103.049 Y109.360 E0.02029
G1 X103.290 Y109.961 E0.02029
G1 X103.371 Y110.647 E0.02165
G1 X103.607 Y113.262 E0.08235
G1 X104.390 Y116.000 E0.08927
G1 X105.750 Y118.635 E0.09297
G1 X107.655 Y120.989 E0.09494
G1 X110.001 Y122.902 E0.09494
G1 X112.631 Y124.272 E0.09297
G1 X115.366 Y125.064 E0.08927
G1 X118.042 Y125.316 E0.08429
G1 X120.720 Y125.077 E0.08429
G1 X123.458 Y124.297 E0.08927
G1 X126.095 Y122.940 E0.09297
G1 X128.450 Y121.037 E0.09494
G1 X130.366 Y118.692 E0.09494
G1 X131.738 Y116.064 E0.09297
G1 X132.533 Y113.330 E0.08927
G1 X132.732 Y111.236 E0.06593
G1 X151.472 Y111.156 E0.58756
G1 X151.472 Y112.261 E0.03466
G1 X151.359 Y112.820 E0.01787
G1 X151.043 Y113.293 E0.01782
G1 X150.567 Y113.603 E0.01782
G1 X150.004 Y113.710 E0.01798
G1 X137.999 Y113.710 E0.37641
G1 X138.226 Y114.087 F10800.000
G1 F1200
G1 X137.249 Y117.636 E0.11539
G1 X135.654 Y120.961 E0.11564
G1 X133.391 Y124.042 E0.11987
G1 X130.530 Y126.684 E0.12210
G1 X127.215 Y128.728 E0.12210
G1 X123.638 Y130.077 E0.11987
G1 X120.006 Y130.717 E0.11564
G1 X116.504 Y130.702 E0.10980
G1 X113.058 Y130.082 E0.10980
G1 X109.601 Y128.795 E0.11564
G1 X106.328 Y126.820 E0.11987
G1 X103.438 Y124.210 E0.12210
G1 X101.103 Y121.094 E0.12210
G1 X99.435 Y117.654 E0.11987
G1 X98.469 Y114.094 E0.11564
G1 X98.167 Y110.608 E0.10972
G1 X98.248 Y109.885 E0.02283
G1 X98.522 Y109.188 E0.02346
G1 X98.972 Y108.590 E0.02346
G1 X99.541 Y108.147 E0.02262
G1 X100.205 Y107.865 E0.02262
G1 X100.946 Y107.762 E0.02346
G1 X101.675 Y107.858 E0.02306
G1 X102.354 Y108.138 E0.02303
G1 X102.926 Y108.577 E0.02260
G1 X103.379 Y109.172 E0.02346
G1 X103.659 Y109.867 E0.02346
G1 X103.746 Y110.607 E0.02339
G1 X103.980 Y113.193 E0.08139
G1 X104.742 Y115.860 E0.08698
G1 X106.067 Y118.428 E0.09059
G1 X107.923 Y120.721 E0.09251
G1 X110.210 Y122.586 E0.09251
G1 X112.772 Y123.920 E0.09059
G1 X115.436 Y124.692 E0.08698
G1 X118.043 Y124.938 E0.08209
G1 X120.651 Y124.705 E0.08209
G1 X123.319 Y123.945 E0.08698
G1 X125.888 Y122.622 E0.09059
G1 X128.183 Y120.768 E0.09251
G1 X130.050 Y118.484 E0.09251
G1 X131.386 Y115.922 E0.09059
G1 X132.161 Y113.259 E0.08698
G1 X132.389 Y110.861 E0.07552
G1 X151.849 Y110.777 E0.61015
G1 X151.849 Y112.299 E0.04771
G1 X151.714 Y112.967 E0.02139
G1 X151.314 Y113.567 E0.02258
G1 X150.710 Y113.960 E0.02258
G1 X150.039 Y114.087 E0.02143
G1 X138.286 Y114.087 E0.36852
G1 X137.832 Y114.017 F10800.000
G1 F8640
G1 X137.363 Y117.247 E-0.76000
G1 E-0.04000 F2100.00000
G1 Z0.800 F10800.000
G1 X151.358 Y112.038
G1 Z0.200
G1 E0.80000 F2100.00000
G1 F1200
G1 X150.762 Y111.442 E0.02668
G1 X150.226 Y111.444 E0.01693
G1 X151.160 Y112.377 E0.04174
G1 X151.093 Y112.709 E0.01071
G1 X151.037 Y112.793 E0.00316
G1 X149.691 Y111.446 E0.06021
G1 X149.155 Y111.449 E0.01693
G1 X150.813 Y113.106 E0.07410
G1 X150.487 Y113.318 E0.01229
G1 X148.620 Y111.451 E0.08348
G1 X148.084 Y111.453 E0.01693
G1 X150.045 Y113.414 E0.08768
G1 X149.520 Y113.427 E0.01660
G1 X147.549 Y111.455 E0.08815
G1 X147.013 Y111.458 E0.01693
G1 X148.983 Y113.427 E0.08805
G1 X148.445 Y113.427 E0.01700
G1 X146.478 Y111.460 E0.08795
G1 X145.943 Y111.462 E0.01693
G1 X147.907 Y113.427 E0.08785
G1 X147.369 Y113.427 E0.01700
G1 X145.407 Y111.465 E0.08775
G1 X144.872 Y111.467 E0.01693
G1 X146.832 Y113.427 E0.08765
G1 X146.294 Y113.427 E0.01700
G1 X144.336 Y111.469 E0.08754
G1 X143.801 Y111.472 E0.01693
G1 X145.756 Y113.427 E0.08744
G1 X145.218 Y113.427 E0.01700
G1 X143.265 Y111.474 E0.08734
G1 X142.730 Y111.476 E0.01693
G1 X144.681 Y113.427 E0.08724
G1 X144.143 Y113.427 E0.01700
G1 X142.194 Y111.479 E0.08714
G1 X141.659 Y111.481 E0.01693
G1 X143.605 Y113.427 E0.08703
G1 X143.068 Y113.427 E0.01700
G1 X141.123 Y111.483 E0.08693
G1 X140.588 Y111.485 E0.01693
G1 X142.530 Y113.427 E0.08683
G1 X141.992 Y113.427 E0.01700
G1 X140.052 Y111.488 E0.08673
G1 X139.517 Y111.490 E0.01693
G1 X141.454 Y113.427 E0.08663
G1 X140.917 Y113.427 E0.01700
G1 X138.982 Y111.492 E0.08653
G1 X138.446 Y111.495 E0.01693
G1 X140.379 Y113.427 E0.08642
G1 X139.841 Y113.427 E0.01700
G1 X137.911 Y111.497 E0.08632
G1 X137.375 Y111.499 E0.01693
G1 X139.303 Y113.427 E0.08622
G1 X138.766 Y113.427 E0.01700
G1 X136.840 Y111.502 E0.08612
G1 X136.304 Y111.504 E0.01693
G1 X138.228 Y113.428 E0.08602
G1 X137.723 Y113.428 E0.01596
G1 X137.716 Y113.453 E0.00085
G1 X135.769 Y111.506 E0.08707
G1 X135.233 Y111.509 E0.01693
G1 X137.600 Y113.875 E0.10582
G1 X137.484 Y114.297 E0.01383
G1 X134.698 Y111.511 E0.12458
G1 X134.162 Y111.513 E0.01693
G1 X137.368 Y114.718 E0.14333
G1 X137.252 Y115.140 E0.01383
G1 X133.627 Y111.515 E0.16208
G1 X133.091 Y111.518 E0.01693
G1 X137.136 Y115.562 E0.18083
G1 X137.019 Y115.983 E0.01383
G1 X132.952 Y111.916 E0.18189
G1 X132.905 Y112.407 E0.01560
G1 X136.903 Y116.405 E0.17879
G1 X136.787 Y116.827 E0.01383
G1 X132.858 Y112.898 E0.17568
G1 X132.811 Y113.388 E0.01557
G1 X136.671 Y117.249 E0.17262
G1 X136.629 Y117.404 E0.00508
G1 X136.518 Y117.633 E0.00806
G1 X132.690 Y113.805 E0.17120
G1 X132.568 Y114.221 E0.01372
G1 X136.344 Y117.997 E0.16883
G1 X136.170 Y118.360 E0.01275
G1 X132.447 Y114.638 E0.16645
G1 X132.326 Y115.055 E0.01372
G1 X135.995 Y118.724 E0.16408
G1 X135.821 Y119.087 E0.01275
G1 X132.205 Y115.471 E0.16170
G1 X132.084 Y115.888 E0.01372
G1 X135.647 Y119.451 E0.15933
G1 X135.473 Y119.814 E0.01275
G1 X131.942 Y116.284 E0.15787
G1 X131.758 Y116.637 E0.01260
G1 X135.298 Y120.178 E0.15832
G1 X135.124 Y120.541 E0.01275
G1 X131.573 Y116.991 E0.15878
G1 X131.389 Y117.344 E0.01260
G1 X134.908 Y120.863 E0.15736
G1 X134.680 Y121.173 E0.01216
G1 X131.204 Y117.697 E0.15542
G1 X131.020 Y118.051 E0.01260
G1 X134.452 Y121.483 E0.15348
G1 X134.225 Y121.793 E0.01216
G1 X130.836 Y118.404 E0.15155
G1 X130.651 Y118.757 E0.01260
G1 X133.997 Y122.103 E0.14961
G1 X133.769 Y122.413 E0.01216
G1 X130.424 Y119.068 E0.14957
G1 X130.182 Y119.364 E0.01208
G1 X133.541 Y122.723 E0.15020
G1 X133.314 Y123.033 E0.01216
G1 X129.941 Y119.660 E0.15083
G1 X129.699 Y119.956 E0.01208
G1 X133.086 Y123.343 E0.15146
G1 X132.849 Y123.644 E0.01211
G1 X129.457 Y120.252 E0.15170
G1 X129.215 Y120.548 E0.01208
G1 X132.570 Y123.903 E0.15001
G1 X132.290 Y124.161 E0.01203
G1 X128.973 Y120.844 E0.14832
G1 X128.731 Y121.140 E0.01208
G1 X132.011 Y124.419 E0.14663
G1 X131.731 Y124.677 E0.01203
G1 X128.453 Y121.399 E0.14660
G1 X128.155 Y121.639 E0.01209
G1 X131.452 Y124.935 E0.14740
G1 X131.172 Y125.194 E0.01203
G1 X127.858 Y121.879 E0.14820
G1 X127.560 Y122.120 E0.01209
G1 X130.892 Y125.452 E0.14900
G1 X130.613 Y125.710 E0.01203
G1 X127.263 Y122.360 E0.14980
G1 X126.965 Y122.600 E0.01209
G1 X130.333 Y125.968 E0.15060
G1 X130.130 Y126.156 E0.00876
G1 X130.039 Y126.212 E0.00336
G1 X126.668 Y122.840 E0.15076
G1 X126.370 Y123.081 E0.01209
G1 X129.707 Y126.417 E0.14918
G1 X129.374 Y126.622 E0.01236
G1 X126.039 Y123.287 E0.14914
G1 X125.684 Y123.470 E0.01263
G1 X129.041 Y126.827 E0.15014
G1 X128.708 Y127.032 E0.01236
G1 X125.329 Y123.652 E0.15113
G1 X124.974 Y123.835 E0.01263
G1 X128.376 Y127.237 E0.15213
G1 X128.043 Y127.442 E0.01236
G1 X124.618 Y124.018 E0.15313
G1 X124.263 Y124.201 E0.01263
G1 X127.710 Y127.647 E0.15413
G1 X127.378 Y127.852 E0.01236
G1 X123.908 Y124.383 E0.15512
G1 X123.552 Y124.564 E0.01265
G1 X127.045 Y128.057 E0.15619
G1 X126.923 Y128.133 E0.00453
G1 X126.676 Y128.226 E0.00836
G1 X123.133 Y124.684 E0.15840
G1 X122.715 Y124.803 E0.01376
G1 X126.285 Y128.373 E0.15965
G1 X125.895 Y128.521 E0.01320
G1 X122.296 Y124.922 E0.16091
G1 X121.878 Y125.041 E0.01376
G1 X125.504 Y128.668 E0.16216
G1 X125.114 Y128.815 E0.01320
G1 X121.459 Y125.161 E0.16342
G1 X121.040 Y125.280 E0.01376
G1 X124.723 Y128.962 E0.16468
G1 X124.333 Y129.110 E0.01320
G1 X120.595 Y125.372 E0.16714
G1 X120.101 Y125.416 E0.01567
G1 X123.942 Y129.257 E0.17175
G1 X123.552 Y129.404 E0.01320
G1 X119.608 Y125.460 E0.17637
G1 X119.114 Y125.504 E0.01567
G1 X123.110 Y129.500 E0.17867
G1 X122.653 Y129.581 E0.01468
G1 X118.620 Y125.548 E0.18030
G1 X118.127 Y125.593 E0.01567
G1 X122.195 Y129.661 E0.18193
G1 X121.738 Y129.742 E0.01468
G1 X117.550 Y125.554 E0.18726
G1 X116.957 Y125.498 E0.01885
G1 X121.281 Y129.822 E0.19335
G1 X120.824 Y129.903 E0.01468
G1 X116.363 Y125.442 E0.19945
G1 X115.770 Y125.387 E0.01885
G1 X120.366 Y129.983 E0.20555
G1 X119.902 Y130.056 E0.01487
G1 X115.138 Y125.293 E0.21300
G1 X114.381 Y125.073 E0.02493
G1 X119.362 Y130.054 E0.22272
G1 X118.822 Y130.052 E0.01707
G1 X113.624 Y124.854 E0.23243
G1 X112.866 Y124.634 E0.02493
G1 X118.282 Y130.050 E0.24215
G1 X117.742 Y130.047 E0.01707
G1 X111.509 Y123.815 E0.27868
G1 F8640
G1 X113.837 Y126.143 E-0.76000
G1 E-0.04000 F2100.00000
G1 Z0.800 F10800.000
G1 X110.387 Y123.231
G1 Z0.200
G1 E0.80000 F2100.00000
G1 F1200
G1 X117.372 Y130.216 E0.31232
G1 X116.832 Y130.213 F10800.000
G1 F1200
G1 X109.376 Y122.758 E0.33339
G1 F8640
G1 X111.704 Y125.085 E-0.76000
G1 E-0.04000 F2100.00000
G1 Z0.800 F10800.000
G1 X106.298 Y126.133
G1 Z0.200
G1 E0.80000 F2100.00000
G1 F1200
G1 X103.078 Y122.913 E0.14398
G1 F8640
G1 X105.406 Y125.240 E-0.76000
G1 E-0.04000 F2100.00000
G1 Z0.800 F10800.000
G1 X101.507 Y120.804
G1 Z0.200
G1 E0.80000 F2100.00000
G1 F1200
G1 X107.898 Y127.195 E0.28579
G1 F8640
G1 X105.571 Y124.868 E-0.76000
G1 E-0.04000 F2100.00000
G1 Z0.800 F10800.000
G1 X109.254 Y128.013
G1 Z0.200
G1 E0.80000 F2100.00000
G1 F1200
G1 X101.001 Y119.760 E0.36904
M73 Q0 S141
G1 F8640
G1 X103.328 Y122.088 E-0.76000
M73 P0 R142
G1 E-0.04000 F2100.00000
G1 Z0.800 F10800.000
G1 X100.495 Y118.716
G1 Z0.200
G1 E0.80000 F2100.00000
G1 F1200
G1 X110.318 Y128.539 E0.43922
G1 F8640
G1 X107.990 Y126.211 E-0.76000
G1 E-0.04000 F2100.00000
G1 Z0.800 F10800.000
G1 X105.947 Y119.328
G1 Z0.200
G1 E0.80000 F2100.00000
G1 F1200
G1 X98.981 Y112.363 E0.31147
G1 X99.033 Y112.952 E0.01869
G1 X116.027 Y129.946 E0.75991
G1 X115.371 Y129.828 E0.02107
G1 X99.084 Y113.540 E0.72830
G1 X99.122 Y113.979 E0.01390
G1 X99.173 Y114.168 E0.00619
G1 X114.715 Y129.710 E0.69499
G1 X114.060 Y129.592 E0.02107
G1 X99.373 Y114.906 E0.65671
G1 X99.573 Y115.644 E0.02418
G1 X113.404 Y129.474 E0.61844
G1 X113.233 Y129.443 E0.00550
G1 X112.599 Y129.207 E0.02136
G1 X99.774 Y116.382 E0.57352
G1 X99.974 Y117.120 E0.02418
G1 X111.743 Y128.888 E0.52625
G1 X110.886 Y128.569 E0.02891
G1 X99.989 Y117.673 E0.48726
G1 F8640
G1 X102.316 Y120.000 E-0.76000
G1 E-0.04000 F2100.00000
G1 Z0.800 F10800.000
G1 X105.442 Y118.286
G1 Z0.200
G1 E0.80000 F2100.00000
G1 F1200
G1 X100.197 Y113.041 E0.23453
G1 X100.862 Y113.168 E0.02139
G1 X104.474 Y116.780 E0.16154
G1 X104.126 Y116.104 E0.02404
G1 X104.041 Y115.809 E0.00970
G1 X101.343 Y113.111 E0.12065
G1 X101.795 Y113.025 E0.01454
G1 X103.826 Y115.056 E0.09083
G1 X103.611 Y114.303 E0.02476
G1 X102.158 Y112.851 E0.06496
G1 X102.483 Y112.638 E0.01228
G1 X103.396 Y113.550 E0.04082
G1 X103.328 Y113.314 E0.00776
G1 X103.292 Y112.908 E0.01289
G1 X102.807 Y112.424 E0.02165
G1 X103.025 Y112.104 E0.01224
G1 X103.425 Y112.505 E0.01789
G1 F8640
G1 X103.025 Y112.104 E-0.13068
G1 X102.807 Y112.424 E-0.08937
G1 X103.292 Y112.908 E-0.15809
G1 X103.328 Y113.314 E-0.09410
G1 X103.396 Y113.550 E-0.05668
G1 X102.688 Y112.843 E-0.23108
G1 E-0.04000 F2100.00000
G1 Z0.800 F10800.000
G1 X137.939 Y85.245
G1 Z0.200
G1 E0.80000 F2100.00000
G1 F1200
G1 X136.894 Y89.037 E0.12334
G1 X135.330 Y92.301 E0.11347
G1 X133.109 Y95.324 E0.11763
G1 X130.301 Y97.917 E0.11982
G1 X127.048 Y99.922 E0.11982
G1 X123.538 Y101.246 E0.11763
G1 X119.974 Y101.874 E0.11347
G1 X116.539 Y101.860 E0.10771
G1 X113.158 Y101.252 E0.10771
G1 X109.766 Y99.989 E0.11347
G1 X106.554 Y98.051 E0.11763
G1 X103.718 Y95.489 E0.11982
