; generated by PrusaSlicer 2.0.0+linux64 on 2019-06-17 at 20:05:22

; 

; external perimeters extrusion width = 0.45mm
; perimeters extrusion width = 0.45mm
; infill extrusion width = 0.45mm
; solid infill extrusion width = 0.45mm
; top infill extrusion width = 0.40mm
; first layer extrusion width = 0.42mm

M73 P0 R138
M73 Q0 S138
M201 X1000 Y1000 Z1000 E5000 ; sets maximum accelerations, mm/sec^2
M203 X200 Y200 Z12 E120 ; sets maximum feedrates, mm/sec
M204 P1250 R1250 T1250 ; sets acceleration (P, T) and retract acceleration (R), mm/sec^2
M205 X8.00 Y8.00 Z0.40 E1.50 ; sets the jerk limits, mm/sec
M205 S0 T0 ; sets the minimum extruding and travel feed rate, mm/sec
M107
M115 U3.7.1 ; tell printer latest fw version
G90 ; use absolute coordinates
M83 ; extruder relative mode
M104 S240 ; set extruder temp
M140 S85 ; set bed temp
M190 S85 ; wait for bed temp
M109 S240 ; wait for extruder temp
G28 W ; home all without mesh bed level
G80 ; mesh bed leveling
G1 Y-3.0 F1000.0 ; go outside print area
G92 E0.0
G1 X60.0 E9.0 F1000.0 ; intro line
M73 Q0 S138
M73 P0 R138
G1 X100.0 E12.5 F1000.0 ; intro line
G92 E0.0
M221 S95
M900 K45 ; Filament gcode
G21 ; set units to millimeters
G90 ; use absolute coordinates
M83 ; use relative distances for extrusion
;BEFORE_LAYER_CHANGE
G92 E0.0
;0.2


G1 E-0.80000 F2100.00000
G1 Z0.600 F10800.000
;AFTER_LAYER_CHANGE
;0.2
G1 X109.807 Y90.418
G1 Z0.200
G1 E0.80000 F2100.00000
M204 S1000
G1 F1200
G1 X110.596 Y89.859 E0.03034
G1 X123.642 Y84.141 E0.44660
G1 X124.147 Y83.981 E0.01660
G1 X124.673 Y83.927 E0.01660
G1 X125.586 Y84.097 E0.02912
G1 X138.816 Y89.345 E0.44626
G1 X139.657 Y89.891 E0.03144
G1 X140.225 Y90.719 E0.03149
G1 X145.801 Y103.750 E0.44440
G1 X145.995 Y104.686 E0.02997
G1 X145.953 Y105.194 E0.01598
G1 X145.812 Y105.683 E0.01597
G1 X140.574 Y118.774 E0.44207
G1 X140.044 Y119.579 E0.03022
G1 X139.255 Y120.132 E0.03022
G1 X126.360 Y125.718 E0.44063
G1 X125.384 Y125.929 E0.03131
G1 X124.438 Y125.766 E0.03010
G1 X111.340 Y120.665 E0.44073
G1 X110.497 Y120.129 E0.03131
G1 X109.938 Y119.344 E0.03022
G1 X104.214 Y106.438 E0.44266
G1 X104.055 Y105.950 E0.01610
G1 X103.996 Y105.444 E0.01598
G1 X104.156 Y104.509 E0.02973
G1 X109.265 Y91.271 E0.44492
G1 X109.492 Y90.819 E0.01586
G1 X109.770 Y90.465 E0.01410
G1 X110.081 Y90.678 F10800.000
G1 F1200
G1 X110.757 Y90.200 E0.02597
G1 X123.793 Y84.487 E0.44627
G1 X124.671 Y84.304 E0.02810
G1 X125.453 Y84.450 E0.02496
G1 X138.677 Y89.696 E0.44605
G1 X139.393 Y90.160 E0.02676
G1 X139.879 Y90.868 E0.02691
G1 X145.452 Y103.893 E0.44421
G1 X145.618 Y104.693 E0.02563
G1 X145.462 Y105.543 E0.02710
G1 X140.226 Y118.628 E0.44188
G1 X139.775 Y119.314 E0.02574
G1 X139.097 Y119.789 E0.02597
G1 X126.210 Y125.372 E0.44035
G1 X125.376 Y125.552 E0.02676
G1 X124.567 Y125.412 E0.02574
G1 X111.476 Y120.314 E0.44046
G1 X110.757 Y119.855 E0.02676
G1 X110.279 Y119.183 E0.02586
G1 X104.560 Y106.289 E0.44226
G1 X104.373 Y105.438 E0.02732
G1 X104.511 Y104.636 E0.02552
G1 X109.616 Y91.407 E0.44462
G1 X110.048 Y90.728 E0.02521
G1 F8640
G1 X110.757 Y90.200 E-0.20414
G1 X112.962 Y89.234 E-0.55586
G1 E-0.04000 F2100.00000
G1 Z0.800 F10800.000
G1 X112.449 Y92.956
G1 Z0.200
G1 E0.80000 F2100.00000
G1 F1200
G1 X124.688 Y87.592 E0.41899
G1 X137.104 Y92.518 E0.41881
G1 X140.422 Y100.271 E0.26441
G1 X108.385 Y103.487 E1.00955
G1 X112.427 Y93.012 E0.35207
G1 X112.154 Y92.673 F10800.000
G1 F1200
G1 X124.681 Y87.183 E0.42885
G1 X137.389 Y92.225 E0.42866
G1 X140.970 Y100.595 E0.28544
G1 X107.812 Y103.924 E1.04489
G1 X112.132 Y92.729 E0.37622
G1 X112.547 Y92.600 F10800.000
G1 F8640
G1 X115.143 Y91.399 E-0.76000
G1 E-0.04000 F2100.00000
G1 Z0.800 F10800.000
G1 X108.767 Y102.810
G1 Z0.200
G1 E0.80000 F2100.00000
G1 F1200
G1 X109.089 Y103.132 E0.01442
G1 X109.578 Y103.083 E0.01556
G1 X109.048 Y102.553 E0.02373
G1 X109.198 Y102.165 E0.01317
G1 X110.067 Y103.034 E0.03891
G1 X110.557 Y102.985 E0.01556
G1 X109.348 Y101.776 E0.05409
G1 X109.498 Y101.388 E0.01317
G1 X111.046 Y102.936 E0.06928
G1 X111.535 Y102.887 E0.01556
G1 X109.648 Y101.000 E0.08446
G1 X109.798 Y100.611 E0.01317
G1 X112.024 Y102.838 E0.09965
G1 X112.513 Y102.789 E0.01556
G1 X109.947 Y100.223 E0.11483
G1 X110.097 Y99.835 E0.01317
G1 X113.002 Y102.740 E0.13001
G1 X113.491 Y102.690 E0.01556
G1 X110.247 Y99.446 E0.14520
G1 X110.397 Y99.058 E0.01317
G1 X113.981 Y102.641 E0.16038
G1 X114.470 Y102.592 E0.01556
G1 X110.547 Y98.669 E0.17557
G1 X110.697 Y98.281 E0.01317
G1 X114.959 Y102.543 E0.19075
G1 X115.448 Y102.494 E0.01556
G1 X110.847 Y97.893 E0.20594
G1 X110.997 Y97.504 E0.01317
G1 X115.937 Y102.445 E0.22112
G1 X116.426 Y102.396 E0.01556
G1 X111.147 Y97.116 E0.23630
G1 X111.296 Y96.728 E0.01317
G1 X116.915 Y102.347 E0.25149
G1 X117.405 Y102.298 E0.01556
G1 X111.446 Y96.339 E0.26667
G1 X111.596 Y95.951 E0.01317
G1 X117.894 Y102.248 E0.28186
G1 X118.383 Y102.199 E0.01556
G1 X111.746 Y95.562 E0.29704
G1 X111.896 Y95.174 E0.01317
G1 X118.872 Y102.150 E0.31222
G1 X119.361 Y102.101 E0.01556
G1 X112.046 Y94.786 E0.32741
G1 X112.196 Y94.397 E0.01317
G1 X119.850 Y102.052 E0.34259
G1 X120.340 Y102.003 E0.01556
G1 X112.346 Y94.009 E0.35778
G1 X112.496 Y93.621 E0.01317
G1 X120.829 Y101.954 E0.37296
G1 X121.318 Y101.905 E0.01556
G1 X112.645 Y93.232 E0.38814
G1 X112.670 Y93.168 E0.00220
G1 X112.982 Y93.031 E0.01078
G1 X121.807 Y101.856 E0.39496
G1 X122.296 Y101.806 E0.01556
G1 X113.357 Y92.867 E0.40010
G1 X113.731 Y92.703 E0.01293
G1 X122.785 Y101.757 E0.40525
G1 X123.274 Y101.708 E0.01556
G1 X114.105 Y92.539 E0.41039
G1 X114.479 Y92.375 E0.01293
G1 X123.764 Y101.659 E0.41553
G1 X124.253 Y101.610 E0.01556
G1 X114.854 Y92.211 E0.42067
G1 X115.228 Y92.047 E0.01293
G1 X124.742 Y101.561 E0.42582
G1 X125.231 Y101.512 E0.01556
G1 X115.602 Y91.883 E0.43096
G1 X115.976 Y91.719 E0.01293
G1 X125.720 Y101.463 E0.43610
G1 X126.209 Y101.414 E0.01556
G1 X116.350 Y91.555 E0.44124
G1 X116.725 Y91.391 E0.01293
G1 X126.698 Y101.364 E0.44639
G1 X127.188 Y101.315 E0.01556
G1 X117.099 Y91.227 E0.45153
G1 X117.473 Y91.063 E0.01293
G1 X127.677 Y101.266 E0.45667
G1 X128.166 Y101.217 E0.01556
G1 X117.847 Y90.899 E0.46181
G1 X118.222 Y90.735 E0.01293
G1 X128.655 Y101.168 E0.46696
G1 X129.144 Y101.119 E0.01556
G1 X118.596 Y90.571 E0.47210
G1 X118.970 Y90.407 E0.01293
G1 X129.633 Y101.070 E0.47724
G1 X130.122 Y101.021 E0.01556
G1 X119.344 Y90.243 E0.48238
G1 X119.719 Y90.079 E0.01293
G1 X130.612 Y100.972 E0.48753
G1 X131.101 Y100.922 E0.01556
G1 X120.093 Y89.915 E0.49267
G1 X120.467 Y89.751 E0.01293
G1 X131.590 Y100.873 E0.49781
G1 X132.079 Y100.824 E0.01556
G1 X120.841 Y89.587 E0.50295
G1 X121.216 Y89.423 E0.01293
G1 X132.568 Y100.775 E0.50810
G1 X133.057 Y100.726 E0.01556
G1 X121.590 Y89.259 E0.51324
G1 X121.964 Y89.095 E0.01293
G1 X133.546 Y100.677 E0.51838
G1 X134.036 Y100.628 E0.01556
G1 X122.338 Y88.931 E0.52352
G1 X122.713 Y88.767 E0.01293
G1 X134.525 Y100.579 E0.52867
G1 X135.014 Y100.529 E0.01556
G1 X123.087 Y88.602 E0.53381
G1 X123.461 Y88.438 E0.01293
G1 X135.503 Y100.480 E0.53895
G1 X135.992 Y100.431 E0.01556
G1 X123.835 Y88.274 E0.54409
G1 X124.210 Y88.110 E0.01293
G1 X136.481 Y100.382 E0.54924
G1 X136.970 Y100.333 E0.01556
G1 X124.584 Y87.946 E0.55438
G1 X124.694 Y87.898 E0.00379
G1 X125.324 Y88.148 E0.02147
G1 X137.460 Y100.284 E0.54314
M73 Q0 S137
M73 P0 R137
G1 X137.949 Y100.235 E0.01556
G1 X126.216 Y88.502 E0.52510
G1 X127.109 Y88.856 E0.03038
G1 X138.438 Y100.186 E0.50706
G1 X138.927 Y100.137 E0.01556
G1 X128.001 Y89.210 E0.48902
G1 X128.893 Y89.564 E0.03038
G1 X139.416 Y100.087 E0.47098
G1 X139.905 Y100.038 E0.01556
G1 X129.785 Y89.918 E0.45294
G1 X130.677 Y90.272 E0.03038
G1 X139.694 Y99.289 E0.40354
G1 X139.291 Y98.348 E0.03239
G1 X131.570 Y90.626 E0.34559
G1 X132.462 Y90.980 E0.03038
G1 X138.889 Y97.407 E0.28764
G1 X138.486 Y96.466 E0.03239
G1 X133.354 Y91.334 E0.22969
G1 X134.246 Y91.688 E0.03038
G1 X138.084 Y95.525 E0.17174
G1 X137.681 Y94.584 E0.03239
G1 X135.139 Y92.042 E0.11379
G1 X136.031 Y92.396 E0.03038
G1 X137.601 Y93.966 E0.07028
;BEFORE_LAYER_CHANGE
G92 E0.0
;0.4


G1 F8640
G1 X136.031 Y92.396 E-0.51277
G1 X135.139 Y92.042 E-0.22164
G1 X135.217 Y92.120 E-0.02559
G1 E-0.04000 F2100.00000
G1 Z0.800 F10800.000
;AFTER_LAYER_CHANGE
;0.4
M104 S250 ; set temperature
M140 S90 ; set bed temperature
G1 X139.657 Y89.891
G1 Z0.400
G1 E0.80000 F2100.00000
G1 F3000
G1 X140.225 Y90.719 E0.03149
G1 X145.801 Y103.750 E0.44440
G1 X145.995 Y104.686 E0.02997
G1 X145.953 Y105.194 E0.01598
G1 X145.812 Y105.683 E0.01597
G1 X140.574 Y118.774 E0.44207
G1 X140.044 Y119.579 E0.03022
G1 X139.255 Y120.132 E0.03022
G1 X126.360 Y125.718 E0.44063
G1 X125.384 Y125.929 E0.03131
G1 X124.438 Y125.766 E0.03010
G1 X111.340 Y120.665 E0.44073
G1 X110.497 Y120.129 E0.03131
G1 X109.938 Y119.344 E0.03022
G1 X104.214 Y106.438 E0.44266
G1 X104.055 Y105.950 E0.01610
G1 X103.996 Y105.444 E0.01598
G1 X104.156 Y104.509 E0.02973
G1 X109.265 Y91.271 E0.44492
G1 X109.492 Y90.819 E0.01586
G1 X109.807 Y90.418 E0.01598
G1 X110.596 Y89.859 E0.03034
G1 X123.642 Y84.141 E0.44660
G1 X124.147 Y83.981 E0.01660
G1 X124.673 Y83.927 E0.01660
G1 X125.586 Y84.097 E0.02912
G1 X138.816 Y89.345 E0.44626
G1 X139.607 Y89.859 E0.02955
G1 F8640
G1 X140.225 Y90.719 E-0.24473
G1 X141.103 Y92.771 E-0.51527
G1 E-0.04000 F2100.00000
G1 Z1.000 F10800.000
G1 X137.230 Y92.386
G1 Z0.400
G1 E0.80000 F2100.00000
M204 S800
G1 F3600
G1 X142.517 Y104.744 E0.45499
G1 X137.550 Y117.158 E0.45260
G1 X125.323 Y122.455 E0.45104
G1 X112.901 Y117.618 E0.45124
G1 X107.474 Y105.382 E0.45307
G1 X112.319 Y92.829 E0.45546
G1 X124.685 Y87.409 E0.45701
G1 X137.174 Y92.364 E0.45479
M204 S1000
G1 X137.537 Y92.070 F10800.000
M204 S800
G1 F2100
G1 X142.958 Y104.739 E0.46643
G1 X137.866 Y117.465 E0.46398
G1 X125.331 Y122.895 E0.46238
G1 X112.597 Y117.936 E0.46259
G1 X107.033 Y105.393 E0.46446
G1 X112.000 Y92.524 E0.46692
G1 X124.677 Y86.968 E0.46850
G1 X137.481 Y92.048 E0.46627
M204 S1000
G1 X137.439 Y92.458 F10800.000
G1 F8640
G1 X138.785 Y95.070 E-0.76000
G1 E-0.04000 F2100.00000
G1 Z1.000 F10800.000
G1 X138.520 Y98.016
G1 Z0.400
G1 E0.80000 F2100.00000
M204 S1250
G1 F5813.8
G1 X139.071 Y97.466 E0.02673
G1 X138.896 Y97.057 E0.01526
G1 X138.076 Y97.877 E0.03980
G1 X137.427 Y97.942 E0.02239
G1 X138.721 Y96.648 E0.06281
G1 X138.546 Y96.239 E0.01526
G1 X136.778 Y98.007 E0.08582
G1 X136.129 Y98.072 E0.02239
G1 X138.371 Y95.830 E0.10883
G1 X138.196 Y95.421 E0.01526
G1 X135.480 Y98.137 E0.13184
G1 X134.831 Y98.202 E0.02239
G1 X138.021 Y95.012 E0.15485
G1 X137.846 Y94.604 E0.01526
G1 X134.182 Y98.268 E0.17786
G1 X133.533 Y98.333 E0.02239
G1 X137.671 Y94.195 E0.20088
G1 X137.496 Y93.786 E0.01526
G1 X132.884 Y98.398 E0.22389
G1 X132.235 Y98.463 E0.02239
G1 X137.322 Y93.377 E0.24690
G1 X137.147 Y92.968 E0.01526
G1 X131.586 Y98.528 E0.26991
G1 X130.938 Y98.593 E0.02239
G1 X136.934 Y92.597 E0.29108
G1 X136.516 Y92.431 E0.01544
G1 X130.289 Y98.658 E0.30229
G1 X129.640 Y98.724 E0.02239
G1 X136.098 Y92.265 E0.31351
G1 X135.680 Y92.100 E0.01544
G1 X128.991 Y98.789 E0.32472
G1 X128.342 Y98.854 E0.02239
G1 X135.262 Y91.934 E0.33593
G1 X134.844 Y91.768 E0.01544
G1 X127.693 Y98.919 E0.34714
G1 X127.044 Y98.984 E0.02239
G1 X134.426 Y91.602 E0.35836
G1 X134.008 Y91.436 E0.01544
G1 X126.395 Y99.049 E0.36957
G1 X125.746 Y99.115 E0.02239
G1 X133.590 Y91.270 E0.38078
G1 X133.172 Y91.105 E0.01544
G1 X125.097 Y99.180 E0.39200
G1 X124.448 Y99.245 E0.02239
G1 X132.754 Y90.939 E0.40321
G1 X132.336 Y90.773 E0.01544
G1 X123.799 Y99.310 E0.41442
G1 X123.150 Y99.375 E0.02239
G1 X131.918 Y90.607 E0.42564
G1 X131.500 Y90.441 E0.01544
G1 X122.501 Y99.440 E0.43685
G1 X121.852 Y99.506 E0.02239
G1 X131.082 Y90.276 E0.44806
G1 X130.664 Y90.110 E0.01544
G1 X121.203 Y99.571 E0.45927
G1 X120.554 Y99.636 E0.02239
G1 X130.246 Y89.944 E0.47049
G1 X129.828 Y89.778 E0.01544
G1 X119.905 Y99.701 E0.48170
G1 X119.256 Y99.766 E0.02239
G1 X129.410 Y89.612 E0.49291
G1 X128.992 Y89.446 E0.01544
G1 X118.607 Y99.831 E0.50412
G1 X117.958 Y99.897 E0.02239
G1 X128.574 Y89.281 E0.51534
G1 X128.156 Y89.115 E0.01544
G1 X117.309 Y99.962 E0.52655
G1 X116.660 Y100.027 E0.02239
G1 X127.738 Y88.949 E0.53776
G1 X127.320 Y88.783 E0.01544
G1 X116.011 Y100.092 E0.54897
G1 X115.362 Y100.157 E0.02239
G1 X126.902 Y88.617 E0.56018
G1 X126.484 Y88.451 E0.01544
G1 X114.713 Y100.222 E0.57140
G1 X114.064 Y100.287 E0.02239
G1 X126.066 Y88.286 E0.58261
G1 X125.648 Y88.120 E0.01544
G1 X113.416 Y100.353 E0.59382
G1 X112.767 Y100.418 E0.02239
G1 X125.230 Y87.954 E0.60503
G1 X124.812 Y87.788 E0.01544
G1 X112.118 Y100.483 E0.61625
G1 X111.469 Y100.548 E0.02239
G1 X123.954 Y88.063 E0.60608
G1 X122.915 Y88.518 E0.03895
G1 X110.820 Y100.613 E0.58714
G1 X110.171 Y100.678 E0.02239
G1 X121.876 Y88.974 E0.56819
G1 X120.836 Y89.429 E0.03895
G1 X109.635 Y100.630 E0.54375
G1 X110.002 Y99.680 E0.03498
G1 X119.797 Y89.885 E0.47549
G1 X118.758 Y90.340 E0.03895
G1 X110.369 Y98.729 E0.40723
G1 X110.736 Y97.778 E0.03498
G1 X117.718 Y90.795 E0.33897
G1 X116.679 Y91.251 E0.03895
G1 X111.103 Y96.828 E0.27071
G1 X111.469 Y95.877 E0.03498
G1 X115.640 Y91.706 E0.20245
G1 X114.601 Y92.162 E0.03895
G1 X111.836 Y94.926 E0.13419
G1 X112.203 Y93.975 E0.03498
G1 X113.918 Y92.261 E0.08322
M204 S1000
G1 F8640
G1 X112.203 Y93.975 E-0.55979
G1 X111.891 Y94.784 E-0.20021
G1 E-0.04000 F2100.00000
G1 Z1.000 F10800.000
G1 X139.756 Y98.604
G1 Z0.400
G1 E0.80000 F2100.00000
G1 F1800
G1 X135.066 Y98.604 E0.23742
G1 X130.646 Y99.048 E0.22489
G1 X139.730 Y99.048 E0.45989
G1 X139.920 Y99.492 E0.02444
G1 X126.227 Y99.492 E0.69326
G1 X121.808 Y99.936 E0.22486
G1 X140.110 Y99.936 E0.92660
G1 X140.300 Y100.379 E0.02444
G1 X117.388 Y100.379 E1.15998
G1 X112.968 Y100.823 E0.22489
G1 X140.490 Y100.823 E1.39336
G1 X140.680 Y101.267 E0.02444
G1 X109.407 Y101.267 E1.58325
G1 X109.236 Y101.711 E0.02408
G1 X140.870 Y101.711 E1.60153
G1 X141.059 Y102.154 E0.02444
G1 X109.064 Y102.154 E1.61982
G1 X108.893 Y102.598 E0.02408
G1 X141.249 Y102.598 E1.63810
G1 X141.439 Y103.042 E0.02444
G1 X108.722 Y103.042 E1.65638
G1 X108.550 Y103.486 E0.02408
G1 X141.629 Y103.486 E1.67467
G1 X141.819 Y103.930 E0.02444
G1 X108.379 Y103.930 E1.69295
G1 X108.208 Y104.373 E0.02408
G1 X142.009 Y104.373 E1.71123
G1 X142.169 Y104.748 E0.02064
G1 X142.142 Y104.817 E0.00376
G1 X108.037 Y104.817 E1.72663
G1 X107.865 Y105.261 E0.02408
G1 X141.964 Y105.261 E1.72631
G1 X141.787 Y105.705 E0.02420
G1 X107.969 Y105.705 E1.71208
G1 X108.166 Y106.148 E0.02458
G1 X141.609 Y106.148 E1.69313
G1 X141.431 Y106.592 E0.02420
G1 X108.362 Y106.592 E1.67418
G1 X108.559 Y107.036 E0.02458
G1 X141.254 Y107.036 E1.65522
G1 X141.076 Y107.480 E0.02420
G1 X108.756 Y107.480 E1.63627
G1 X108.953 Y107.923 E0.02458
G1 X140.899 Y107.923 E1.61732
G1 X140.721 Y108.367 E0.02420
G1 X109.150 Y108.367 E1.59836
G1 X109.347 Y108.811 E0.02458
G1 X140.544 Y108.811 E1.57941
G1 X140.366 Y109.255 E0.02420
G1 X109.543 Y109.255 E1.56046
G1 X109.740 Y109.698 E0.02458
G1 X140.189 Y109.698 E1.54150
G1 X140.011 Y110.142 E0.02420
G1 X109.937 Y110.142 E1.52255
G1 X110.134 Y110.586 E0.02458
G1 X139.833 Y110.586 E1.50360
G1 X139.656 Y111.030 E0.02420
G1 X110.331 Y111.030 E1.48464
G1 X110.527 Y111.473 E0.02458
G1 X139.478 Y111.473 E1.46569
G1 X139.301 Y111.917 E0.02420
G1 X110.724 Y111.917 E1.44674
G1 X110.921 Y112.361 E0.02458
G1 X139.123 Y112.361 E1.42779
M73 Q1 S136
M73 P1 R136
G1 X138.946 Y112.805 E0.02420
G1 X111.118 Y112.805 E1.40883
G1 X111.315 Y113.248 E0.02458
G1 X138.768 Y113.248 E1.38988
G1 X138.591 Y113.692 E0.02420
G1 X111.512 Y113.692 E1.37093
G1 X111.708 Y114.136 E0.02458
G1 X138.413 Y114.136 E1.35197
G1 X138.235 Y114.580 E0.02420
G1 X111.905 Y114.580 E1.33302
G1 X112.102 Y115.023 E0.02458
G1 X138.058 Y115.023 E1.31407
G1 X137.880 Y115.467 E0.02420
G1 X112.299 Y115.467 E1.29511
G1 X112.496 Y115.911 E0.02458
G1 X137.703 Y115.911 E1.27616
G1 X137.525 Y116.355 E0.02420
G1 X112.692 Y116.355 E1.25721
G1 X112.889 Y116.798 E0.02458
G1 X137.348 Y116.798 E1.23825
G1 X137.301 Y116.916 E0.00640
G1 X136.547 Y117.242 E0.04157
G1 X113.086 Y117.242 E1.18777
G1 X113.141 Y117.366 E0.00686
G1 X113.962 Y117.686 E0.04463
