; generated by PrusaSlicer 2.0.0+linux64 on 2019-06-18 at 13:54:47

; 

; external perimeters extrusion width = 0.60mm
; perimeters extrusion width = 0.50mm
; infill extrusion width = 0.50mm
; solid infill extrusion width = 0.50mm
; top infill extrusion width = 0.45mm
; first layer extrusion width = 0.42mm

M73 P0 R77
M73 Q0 S77
M201 X1000 Y1000 Z1000 E5000 ; sets maximum accelerations, mm/sec^2
M203 X200 Y200 Z12 E120 ; sets maximum feedrates, mm/sec
M204 P1250 R1250 T1250 ; sets acceleration (P, T) and retract acceleration (R), mm/sec^2
M205 X8.00 Y8.00 Z0.40 E1.50 ; sets the jerk limits, mm/sec
M205 S0 T0 ; sets the minimum extruding and travel feed rate, mm/sec
M107
M115 U3.7.1 ; tell printer latest fw version
G90 ; use absolute coordinates
M83 ; extruder relative mode
M104 S215 ; set extruder temp
M140 S60 ; set bed temp
M190 S60 ; wait for bed temp
M109 S215 ; wait for extruder temp
G28 W ; home all without mesh bed level
G80 ; mesh bed leveling
G1 Y-3.0 F1000.0 ; go outside print area
G92 E0.0
G1 X60.0 E9.0 F1000.0 ; intro line
M73 Q0 S77
M73 P0 R77
G1 X100.0 E12.5 F1000.0 ; intro line
G92 E0.0
M221 S95
M900 K30 ; Filament gcode
G21 ; set units to millimeters
G90 ; use absolute coordinates
M83 ; use relative distances for extrusion
;BEFORE_LAYER_CHANGE
G92 E0.0
;0.2


G1 E-0.80000 F2100.00000
G1 Z0.600 F10800.000
;AFTER_LAYER_CHANGE
;0.2
G1 X63.557 Y76.129
G1 Z0.200
G1 E0.80000 F2100.00000
M204 S1000
G1 F1200
G1 X66.648 Y73.873 E0.11996
G1 X69.947 Y71.950 E0.11975
G1 X73.308 Y70.423 E0.11574
G1 X76.848 Y69.225 E0.11716
G1 X80.325 Y68.417 E0.11194
G1 X83.652 Y67.962 E0.10530
G1 X86.899 Y67.814 E0.10189
G1 X163.007 Y67.811 E2.38632
G1 X166.348 Y67.962 E0.10489
G1 X169.781 Y68.434 E0.10865
G1 X173.237 Y69.247 E0.11131
G1 X176.615 Y70.394 E0.11186
G1 X180.181 Y72.020 E0.12288
G1 X183.355 Y73.874 E0.11525
G1 X186.383 Y76.082 E0.11750
G1 X189.375 Y78.783 E0.12639
G1 X191.875 Y81.560 E0.11715
G1 X194.124 Y84.641 E0.11962
G1 X196.084 Y88.016 E0.12237
G1 X197.582 Y91.314 E0.11357
G1 X198.779 Y94.854 E0.11716
G1 X199.570 Y98.231 E0.10873
G1 X200.040 Y101.648 E0.10816
G1 X200.192 Y104.997 E0.10510
G1 X200.047 Y108.258 E0.10236
G1 X199.571 Y111.764 E0.11093
G1 X198.782 Y115.135 E0.10856
G1 X197.553 Y118.755 E0.11987
G1 X196.035 Y122.084 E0.11470
G1 X194.127 Y125.355 E0.11874
G1 X191.876 Y128.438 E0.11968
G1 X189.372 Y131.220 E0.11736
G1 X186.356 Y133.938 E0.12732
G1 X183.349 Y136.129 E0.11664
G1 X180.053 Y138.050 E0.11963
G1 X176.689 Y139.579 E0.11586
G1 X173.152 Y140.775 E0.11705
G1 X169.675 Y141.583 E0.11194
G1 X166.348 Y142.038 E0.10530
G1 X163.094 Y142.187 E0.10212
G1 X86.993 Y142.189 E2.38609
G1 X83.575 Y142.029 E0.10729
G1 X80.226 Y141.567 E0.10601
G1 X76.862 Y140.779 E0.10833
G1 X73.392 Y139.609 E0.11483
G1 X69.917 Y138.034 E0.11962
G1 X66.621 Y136.109 E0.11966
G1 X63.471 Y133.798 E0.12251
G1 X60.701 Y131.296 E0.11704
G1 X58.199 Y128.526 E0.11703
G1 X55.872 Y125.352 E0.12339
G1 X53.947 Y122.049 E0.11986
G1 X52.420 Y118.689 E0.11574
G1 X51.246 Y115.241 E0.11419
G1 X50.430 Y111.769 E0.11183
G1 X49.961 Y108.359 E0.10793
G1 X49.808 Y105.000 E0.10544
G1 X49.960 Y101.647 E0.10522
G1 X50.430 Y98.229 E0.10819
G1 X51.263 Y94.703 E0.11359
G1 X52.420 Y91.309 E0.11243
G1 X53.966 Y87.913 E0.11699
G1 X55.871 Y84.648 E0.11851
G1 X58.133 Y81.551 E0.12025
G1 X60.701 Y78.704 E0.12022
G1 X63.513 Y76.169 E0.11870
G1 F8640
G1 X66.168 Y74.224 E-0.76000
G1 E-0.04000 F2100.00000
G1 Z0.800 F10800.000
G1 X129.919 Y95.532
G1 Z0.200
G1 E0.80000 F2100.00000
G1 F1200
G1 X131.007 Y92.333 E0.10592
G1 X132.435 Y89.195 E0.10811
G1 X134.200 Y86.169 E0.10982
G1 X136.287 Y83.310 E0.11099
G1 X138.670 Y80.667 E0.11158
G1 X141.313 Y78.284 E0.11158
G1 X144.173 Y76.197 E0.11099
G1 X147.198 Y74.432 E0.10982
G1 X150.336 Y73.004 E0.10811
G1 X153.535 Y71.916 E0.10592
G1 X156.742 Y71.162 E0.10330
G1 X159.911 Y70.727 E0.10032
G1 X163.003 Y70.588 E0.09703
G1 X165.991 Y70.722 E0.09377
G1 X169.265 Y71.162 E0.10359
G1 X172.472 Y71.916 E0.10327
G1 X175.670 Y73.004 E0.10592
G1 X178.808 Y74.432 E0.10811
G1 X181.834 Y76.197 E0.10982
G1 X184.693 Y78.284 E0.11099
G1 X187.336 Y80.667 E0.11158
G1 X189.719 Y83.310 E0.11158
G1 X191.806 Y86.169 E0.11099
G1 X193.571 Y89.195 E0.10982
G1 X194.999 Y92.333 E0.10811
G1 X196.087 Y95.532 E0.10592
G1 X196.841 Y98.739 E0.10330
G1 X197.276 Y101.908 E0.10032
G1 X197.415 Y105.000 E0.09703
G1 X197.276 Y108.092 E0.09703
G1 X196.841 Y111.261 E0.10032
G1 X196.087 Y114.468 E0.10330
G1 X194.999 Y117.667 E0.10592
G1 X193.571 Y120.805 E0.10811
G1 X191.806 Y123.831 E0.10982
G1 X189.719 Y126.690 E0.11099
G1 X187.336 Y129.333 E0.11158
G1 X184.693 Y131.716 E0.11158
G1 X181.834 Y133.803 E0.11099
G1 X178.808 Y135.568 E0.10982
G1 X175.670 Y136.996 E0.10811
G1 X172.472 Y138.084 E0.10592
G1 X169.264 Y138.838 E0.10330
G1 X166.095 Y139.273 E0.10032
G1 X163.003 Y139.412 E0.09703
G1 X159.911 Y139.273 E0.09703
G1 X156.742 Y138.838 E0.10032
G1 X153.535 Y138.084 E0.10330
G1 X150.336 Y136.996 E0.10592
G1 X147.198 Y135.568 E0.10811
G1 X144.173 Y133.803 E0.10982
G1 X141.313 Y131.716 E0.11099
G1 X138.670 Y129.333 E0.11158
G1 X136.287 Y126.690 E0.11158
G1 X134.200 Y123.831 E0.11099
G1 X132.435 Y120.805 E0.10982
G1 X131.007 Y117.667 E0.10811
G1 X129.919 Y114.468 E0.10592
G1 X129.165 Y111.261 E0.10330
G1 X128.730 Y108.092 E0.10032
G1 X128.591 Y105.000 E0.09703
G1 X128.730 Y101.908 E0.09703
G1 X129.165 Y98.739 E0.10032
G1 X129.905 Y95.590 E0.10142
G1 X129.538 Y95.504 F10800.000
G1 F1200
G1 X130.656 Y92.194 E0.10952
G1 X132.100 Y89.021 E0.10930
G1 X133.884 Y85.963 E0.11103
G1 X135.994 Y83.072 E0.11221
G1 X138.403 Y80.400 E0.11281
G1 X141.075 Y77.991 E0.11281
G1 X143.966 Y75.881 E0.11221
G1 X147.024 Y74.097 E0.11103
G1 X150.197 Y72.653 E0.10930
G1 X153.430 Y71.553 E0.10708
G1 X156.673 Y70.791 E0.10443
G1 X159.877 Y70.351 E0.10142
G1 X163.003 Y70.210 E0.09811
G1 X166.024 Y70.346 E0.09483
G1 X169.334 Y70.791 E0.10469
G1 X172.576 Y71.553 E0.10442
G1 X175.809 Y72.653 E0.10708
G1 X178.982 Y74.097 E0.10930
G1 X182.040 Y75.881 E0.11103
G1 X184.931 Y77.991 E0.11221
G1 X187.603 Y80.400 E0.11281
G1 X190.012 Y83.072 E0.11281
G1 X192.122 Y85.963 E0.11221
G1 X193.906 Y89.021 E0.11103
G1 X195.350 Y92.194 E0.10930
G1 X196.450 Y95.427 E0.10708
G1 X197.212 Y98.670 E0.10443
G1 X197.652 Y101.874 E0.10142
G1 X197.793 Y105.000 E0.09811
G1 X197.652 Y108.126 E0.09811
G1 X197.212 Y111.330 E0.10142
G1 X196.450 Y114.573 E0.10443
G1 X195.350 Y117.806 E0.10708
G1 X193.906 Y120.979 E0.10930
G1 X192.122 Y124.037 E0.11103
G1 X190.012 Y126.928 E0.11221
G1 X187.603 Y129.600 E0.11281
G1 X184.931 Y132.009 E0.11281
G1 X182.040 Y134.119 E0.11221
G1 X178.982 Y135.903 E0.11103
G1 X175.809 Y137.347 E0.10930
G1 X172.576 Y138.447 E0.10708
G1 X169.333 Y139.209 E0.10443
G1 X166.129 Y139.649 E0.10142
G1 X163.003 Y139.790 E0.09811
G1 X159.877 Y139.649 E0.09811
G1 X156.673 Y139.209 E0.10142
G1 X153.430 Y138.447 E0.10443
G1 X150.197 Y137.347 E0.10708
G1 X147.024 Y135.903 E0.10930
G1 X143.966 Y134.119 E0.11103
G1 X141.075 Y132.009 E0.11221
G1 X138.403 Y129.600 E0.11281
G1 X135.994 Y126.928 E0.11281
G1 X133.884 Y124.037 E0.11221
G1 X132.100 Y120.979 E0.11103
G1 X130.656 Y117.806 E0.10930
G1 X129.556 Y114.573 E0.10708
G1 X128.794 Y111.330 E0.10443
G1 X128.354 Y108.126 E0.10142
G1 X128.213 Y105.000 E0.09811
G1 X128.354 Y101.874 E0.09811
G1 X128.794 Y98.670 E0.10142
G1 X129.525 Y95.562 E0.10009
G1 X129.926 Y95.407 F10800.000
G1 F8640
G1 X130.573 Y92.442 E-0.76000
G1 E-0.04000 F2100.00000
G1 Z0.800 F10800.000
G1 X132.462 Y120.592
G1 Z0.200
G1 E0.80000 F2100.00000
G1 F1200
G1 X147.411 Y135.541 E0.66291
G1 F8640
G1 X145.084 Y133.213 E-0.76000
G1 E-0.04000 F2100.00000
G1 Z0.800 F10800.000
G1 X148.390 Y135.986
G1 Z0.200
G1 E0.80000 F2100.00000
G1 F1200
G1 X132.359 Y119.956 E0.71089
G1 X131.914 Y118.977 E0.03372
G1 X149.026 Y136.089 E0.75887
G1 X150.005 Y136.535 E0.03372
G1 X131.468 Y117.998 E0.82203
G1 X131.270 Y117.562 E0.01501
G1 X131.118 Y117.114 E0.01485
G1 X150.889 Y136.885 E0.87679
G1 X151.697 Y137.160 E0.02677
G1 X130.843 Y116.306 E0.92483
G1 X130.568 Y115.497 E0.02677
G1 X152.506 Y137.435 E0.97286
G1 X153.314 Y137.710 E0.02677
G1 X130.293 Y114.689 E1.02089
G1 X130.191 Y114.390 E0.00990
G1 X130.088 Y113.951 E0.01416
G1 X154.052 Y137.915 E1.06272
G1 X154.749 Y138.079 E0.02246
G1 X129.924 Y113.254 E1.10091
M73 Q1 S76
M73 P1 R76
G1 X129.760 Y112.557 E0.02246
G1 X155.447 Y138.243 E1.13909
G1 X156.144 Y138.407 E0.02246
G1 X129.596 Y111.859 E1.17728
G1 X129.438 Y111.167 E0.02226
G1 X156.836 Y138.565 E1.21499
G1 X157.454 Y138.650 E0.01957
G1 X129.353 Y110.549 E1.24617
G1 X129.268 Y109.931 E0.01957
G1 X158.072 Y138.735 E1.27735
G1 X158.690 Y138.820 E0.01957
G1 X129.183 Y109.313 E1.30853
G1 X129.098 Y108.695 E0.01957
G1 X159.308 Y138.905 E1.33971
G1 X159.927 Y138.990 E0.01957
G1 X129.013 Y108.076 E1.37089
G1 X128.987 Y107.517 E0.01756
G1 X160.486 Y139.016 E1.39686
G1 X161.045 Y139.041 E0.01753
G1 X128.962 Y106.958 E1.42274
G1 X128.937 Y106.400 E0.01753
G1 X161.603 Y139.066 E1.44862
G1 X162.162 Y139.091 E0.01753
G1 X128.912 Y105.841 E1.47451
G1 X128.887 Y105.283 E0.01753
G1 X162.720 Y139.117 E1.50039
G1 X163.255 Y139.118 E0.01677
G1 X128.885 Y104.748 E1.52416
G1 X128.908 Y104.238 E0.01602
G1 X163.765 Y139.095 E1.54578
G1 X164.275 Y139.072 E0.01602
G1 X128.931 Y103.728 E1.56739
G1 X128.954 Y103.217 E0.01602
G1 X164.786 Y139.049 E1.58900
G1 X165.296 Y139.026 E0.01602
G1 X128.977 Y102.707 E1.61062
G1 X129.000 Y102.197 E0.01602
G1 X165.807 Y139.003 E1.63223
G1 X166.297 Y138.960 E0.01543
G1 X129.043 Y101.706 E1.65206
G1 X129.107 Y101.237 E0.01484
G1 X166.766 Y138.896 E1.67000
G1 X167.235 Y138.831 E0.01484
G1 X129.172 Y100.768 E1.68794
G1 X129.236 Y100.300 E0.01484
G1 X167.704 Y138.767 E1.70588
G1 X168.172 Y138.702 E0.01484
G1 X129.301 Y99.831 E1.72381
G1 X129.365 Y99.362 E0.01484
G1 X168.641 Y138.638 E1.74175
G1 X169.110 Y138.574 E0.01484
G1 X129.429 Y98.893 E1.75969
M73 Q2 S75
M73 P2 R75
G1 X129.523 Y98.453 E0.01410
G1 X169.550 Y138.480 E1.77506
G1 X169.982 Y138.379 E0.01391
G1 X129.624 Y98.021 E1.78971
G1 X129.726 Y97.589 E0.01391
G1 X170.414 Y138.277 E1.80436
G1 X170.846 Y138.176 E0.01391
G1 X129.827 Y97.157 E1.81901
G1 X129.929 Y96.726 E0.01391
G1 X171.278 Y138.074 E1.83365
G1 X171.709 Y137.973 E0.01391
G1 X130.030 Y96.294 E1.84830
G1 X130.132 Y95.862 E0.01391
G1 X172.141 Y137.871 E1.86295
G1 X172.559 Y137.756 E0.01359
G1 X130.247 Y95.444 E1.87635
G1 X130.383 Y95.046 E0.01318
G1 X172.957 Y137.620 E1.88800
G1 X173.355 Y137.485 E0.01318
G1 X130.518 Y94.648 E1.89964
G1 X130.654 Y94.250 E0.01318
G1 X173.753 Y137.349 E1.91129
G1 X174.151 Y137.214 E0.01318
G1 X130.789 Y93.852 E1.92293
G1 X130.924 Y93.454 E0.01318
G1 X174.549 Y137.079 E1.93458
G1 X174.947 Y136.943 E0.01318
G1 X131.060 Y93.056 E1.94622
G1 X131.195 Y92.658 E0.01318
G1 X175.345 Y136.808 E1.95787
G1 X175.729 Y136.659 E0.01292
G1 X131.344 Y92.274 E1.96827
G1 X131.511 Y91.908 E0.01263
G1 X176.095 Y136.492 E1.97713
G1 X176.462 Y136.325 E0.01263
G1 X131.678 Y91.541 E1.98599
G1 X131.845 Y91.175 E0.01263
G1 X176.828 Y136.158 E1.99484
G1 X177.195 Y135.991 E0.01263
G1 X132.012 Y90.808 E2.00370
M73 Q4 S74
M73 P4 R74
G1 X132.178 Y90.442 E0.01263
G1 X177.561 Y135.825 E2.01256
G1 X177.928 Y135.658 E0.01263
G1 X132.345 Y90.075 E2.02141
G1 X132.512 Y89.709 E0.01263
G1 X178.294 Y135.491 E2.03027
G1 X178.661 Y135.324 E0.01263
G1 X132.679 Y89.342 E2.03913
G1 X132.874 Y89.004 E0.01224
G1 X178.999 Y135.129 E2.04547
G1 X179.336 Y134.933 E0.01223
G1 X133.070 Y88.667 E2.05170
G1 X133.267 Y88.330 E0.01223
G1 X179.673 Y134.736 E2.05792
G1 X180.009 Y134.540 E0.01223
G1 X133.463 Y87.994 E2.06414
G1 X133.660 Y87.657 E0.01223
G1 X180.346 Y134.343 E2.07037
G1 X180.683 Y134.147 E0.01223
G1 X133.856 Y87.320 E2.07659
G1 X134.053 Y86.983 E0.01223
G1 X181.020 Y133.950 E2.08281
G1 X181.357 Y133.754 E0.01223
G1 X134.249 Y86.646 E2.08903
G1 X134.447 Y86.311 E0.01221
G1 X181.692 Y133.556 E2.09514
G1 X182.001 Y133.331 E0.01197
G1 X134.672 Y86.002 E2.09884
G1 X134.897 Y85.694 E0.01197
G1 X182.309 Y133.106 E2.10253
G1 X182.617 Y132.881 E0.01197
G1 X135.122 Y85.386 E2.10622
G1 X135.347 Y85.077 E0.01197
G1 X182.926 Y132.656 E2.10992
G1 X183.234 Y132.431 E0.01197
G1 X135.572 Y84.769 E2.11361
G1 X135.797 Y84.461 E0.01197
G1 X183.542 Y132.206 E2.11731
M73 Q5 S73
M73 P5 R73
G1 X183.850 Y131.981 E0.01197
G1 X136.022 Y84.153 E2.12100
G1 X136.247 Y83.844 E0.01197
G1 X184.159 Y131.756 E2.12469
G1 X184.467 Y131.531 E0.01197
G1 X136.472 Y83.536 E2.12839
G1 X136.721 Y83.251 E0.01185
G1 X184.752 Y131.282 E2.12999
G1 X185.032 Y131.029 E0.01184
G1 X136.974 Y82.971 E2.13121
G1 X137.227 Y82.690 E0.01184
G1 X185.313 Y130.776 E2.13244
G1 X185.593 Y130.524 E0.01184
G1 X137.479 Y82.410 E2.13366
G1 X137.732 Y82.129 E0.01184
G1 X185.874 Y130.271 E2.13489
G1 X186.154 Y130.018 E0.01184
G1 X137.985 Y81.849 E2.13611
G1 X138.238 Y81.568 E0.01184
G1 X186.435 Y129.765 E2.13734
G1 X186.715 Y129.512 E0.01184
G1 X138.491 Y81.288 E2.13856
G1 X138.744 Y81.007 E0.01184
G1 X186.996 Y129.259 E2.13979
G1 X187.262 Y128.993 E0.01183
G1 X139.010 Y80.741 E2.13979
G1 X139.291 Y80.488 E0.01184
G1 X187.515 Y128.712 E2.13856
G1 X187.768 Y128.432 E0.01184
G1 X139.571 Y80.235 E2.13734
G1 X139.852 Y79.982 E0.01184
G1 X188.021 Y128.151 E2.13611
G1 X188.274 Y127.871 E0.01184
G1 X140.132 Y79.729 E2.13489
G1 X140.413 Y79.476 E0.01184
G1 X188.527 Y127.590 E2.13366
M73 Q6 S72
M73 P6 R72
G1 X188.779 Y127.310 E0.01184
G1 X140.693 Y79.224 E2.13244
G1 X140.974 Y78.971 E0.01184
G1 X189.032 Y127.029 E2.13121
G1 X189.285 Y126.749 E0.01184
G1 X141.254 Y78.718 E2.12999
G1 X141.539 Y78.469 E0.01185
G1 X189.534 Y126.464 E2.12839
G1 X189.759 Y126.156 E0.01197
G1 X141.847 Y78.244 E2.12469
G1 X142.156 Y78.019 E0.01197
G1 X189.984 Y125.848 E2.12100
G1 X190.209 Y125.539 E0.01197
G1 X142.464 Y77.794 E2.11731
G1 X142.772 Y77.569 E0.01197
G1 X190.434 Y125.231 E2.11361
G1 X190.659 Y124.923 E0.01197
G1 X143.080 Y77.344 E2.10992
G1 X143.389 Y77.119 E0.01197
G1 X190.884 Y124.614 E2.10623
G1 X191.109 Y124.306 E0.01197
G1 X143.697 Y76.894 E2.10253
G1 X144.005 Y76.669 E0.01197
G1 X191.334 Y123.998 E2.09884
G1 X191.559 Y123.689 E0.01197
G1 X144.314 Y76.444 E2.09514
G1 X144.649 Y76.246 E0.01221
G1 X191.757 Y123.354 E2.08904
G1 X191.953 Y123.017 E0.01223
G1 X144.986 Y76.050 E2.08281
G1 X145.323 Y75.853 E0.01223
G1 X192.150 Y122.680 E2.07659
G1 X192.346 Y122.343 E0.01223
G1 X145.660 Y75.657 E2.07037
G1 X145.997 Y75.460 E0.01223
G1 X192.543 Y122.007 E2.06414
M73 Q8 S71
M73 P8 R71
G1 X192.739 Y121.670 E0.01223
G1 X146.333 Y75.264 E2.05792
G1 X146.670 Y75.067 E0.01223
G1 X192.936 Y121.333 E2.05170
G1 X193.132 Y120.996 E0.01223
G1 X147.007 Y74.871 E2.04547
G1 X147.345 Y74.676 E0.01224
G1 X193.327 Y120.658 E2.03913
G1 X193.494 Y120.291 E0.01263
G1 X147.712 Y74.509 E2.03027
G1 X148.078 Y74.342 E0.01263
G1 X193.661 Y119.925 E2.02141
G1 X193.828 Y119.558 E0.01263
G1 X148.445 Y74.175 E2.01256
G1 X148.811 Y74.009 E0.01263
G1 X193.994 Y119.192 E2.00370
G1 X194.161 Y118.825 E0.01263
G1 X149.178 Y73.842 E1.99484
G1 X149.544 Y73.675 E0.01263
G1 X194.328 Y118.459 E1.98599
G1 X194.495 Y118.092 E0.01263
G1 X149.911 Y73.508 E1.97713
G1 X150.277 Y73.341 E0.01263
G1 X194.662 Y117.726 E1.96827
G1 X194.811 Y117.342 E0.01292
G1 X150.661 Y73.192 E1.95787
G1 X151.059 Y73.057 E0.01318
G1 X194.946 Y116.944 E1.94622
G1 X195.082 Y116.546 E0.01318
G1 X151.457 Y72.921 E1.93458
G1 X151.855 Y72.786 E0.01318
G1 X195.217 Y116.148 E1.92293
G1 X195.352 Y115.750 E0.01318
G1 X152.253 Y72.651 E1.91129
G1 X152.651 Y72.515 E0.01318
G1 X195.488 Y115.352 E1.89964
G1 X195.623 Y114.954 E0.01318
G1 X153.049 Y72.380 E1.88800
M73 Q9 S70
M73 P9 R70
G1 X153.447 Y72.244 E0.01318
G1 X195.759 Y114.556 E1.87635
G1 X195.874 Y114.138 E0.01359
G1 X153.865 Y72.129 E1.86295
G1 X154.297 Y72.027 E0.01391
G1 X195.976 Y113.706 E1.84830
G1 X196.077 Y113.275 E0.01391
G1 X154.728 Y71.926 E1.83366
G1 X155.160 Y71.824 E0.01391
G1 X196.179 Y112.843 E1.81901
G1 X196.280 Y112.411 E0.01391
G1 X155.592 Y71.723 E1.80436
G1 X156.024 Y71.621 E0.01391
G1 X196.382 Y111.979 E1.78971
G1 X196.483 Y111.547 E0.01391
G1 X156.456 Y71.520 E1.77506
