; generated by PrusaSlicer 2.0.0+linux64 on 2019-06-18 at 13:02:16

; 

; external perimeters extrusion width = 0.45mm
; perimeters extrusion width = 0.45mm
; infill extrusion width = 0.45mm
; solid infill extrusion width = 0.45mm
; top infill extrusion width = 0.40mm
; first layer extrusion width = 0.42mm

M73 P0 R10
M73 Q0 S10
M201 X1000 Y1000 Z1000 E5000 ; sets maximum accelerations, mm/sec^2
M203 X200 Y200 Z12 E120 ; sets maximum feedrates, mm/sec
M204 P1250 R1250 T1250 ; sets acceleration (P, T) and retract acceleration (R), mm/sec^2
M205 X8.00 Y8.00 Z0.40 E1.50 ; sets the jerk limits, mm/sec
M205 S0 T0 ; sets the minimum extruding and travel feed rate, mm/sec
M107
M115 U3.7.1 ; tell printer latest fw version
G90 ; use absolute coordinates
M83 ; extruder relative mode
M104 S215 ; set extruder temp
M140 S60 ; set bed temp
M190 S60 ; wait for bed temp
M109 S215 ; wait for extruder temp
G28 W ; home all without mesh bed level
G80 ; mesh bed leveling
G1 Y-3.0 F1000.0 ; go outside print area
G92 E0.0
G1 X60.0 E9.0 F1000.0 ; intro line
M73 Q0 S10
M73 P0 R10
G1 X100.0 E12.5 F1000.0 ; intro line
G92 E0.0
M221 S95
M900 K30 ; Filament gcode
G21 ; set units to millimeters
G90 ; use absolute coordinates
M83 ; use relative distances for extrusion
;BEFORE_LAYER_CHANGE
G92 E0.0
;0.2


G1 E-0.80000 F2100.00000
G1 Z0.600 F10800.000
;AFTER_LAYER_CHANGE
;0.2
G1 X118.756 Y100.507
G1 Z0.200
G1 E0.80000 F2100.00000
M204 S1000
G1 F900
G1 X119.741 Y99.389 E0.04671
G1 X120.599 Y98.693 E0.03465
G1 X121.987 Y97.924 E0.04975
G1 X123.424 Y97.471 E0.04725
G1 X125.003 Y97.307 E0.04976
G1 X126.594 Y97.474 E0.05016
G1 X128.104 Y97.962 E0.04976
G1 X129.496 Y98.758 E0.05029
G1 X130.611 Y99.741 E0.04658
G1 X131.307 Y100.599 E0.03465
G1 X132.075 Y101.983 E0.04962
G1 X132.529 Y103.424 E0.04738
G1 X132.693 Y104.999 E0.04963
G1 X132.529 Y106.577 E0.04976
G1 X132.076 Y108.014 E0.04725
G1 X131.306 Y109.402 E0.04975
G1 X130.611 Y110.259 E0.03461
G1 X129.495 Y111.242 E0.04662
G1 X128.103 Y112.039 E0.05029
G1 X126.593 Y112.526 E0.04976
G1 X125.002 Y112.693 E0.05016
G1 X123.423 Y112.529 E0.04976
G1 X121.986 Y112.076 E0.04725
G1 X120.598 Y111.306 E0.04975
G1 X119.741 Y110.611 E0.03461
G1 X118.758 Y109.495 E0.04662
G1 X117.961 Y108.103 E0.05029
G1 X117.474 Y106.593 E0.04976
G1 X117.307 Y105.001 E0.05016
G1 X117.474 Y103.406 E0.05029
G1 X117.960 Y101.900 E0.04963
G1 X118.726 Y100.559 E0.04841
G1 X119.052 Y100.746 F10800.000
G1 F900
G1 X120.007 Y99.656 E0.04545
G1 X120.808 Y99.007 E0.03230
G1 X122.127 Y98.274 E0.04732
G1 X123.499 Y97.840 E0.04511
G1 X125.004 Y97.684 E0.04746
G1 X126.517 Y97.843 E0.04771
G1 X127.954 Y98.307 E0.04734
G1 X129.278 Y99.066 E0.04783
G1 X130.344 Y100.007 E0.04461
G1 X130.993 Y100.808 E0.03230
G1 X131.726 Y102.127 E0.04732
G1 X132.160 Y103.499 E0.04511
G1 X132.316 Y105.000 E0.04734
G1 X132.157 Y106.517 E0.04783
G1 X131.693 Y107.954 E0.04734
G1 X130.934 Y109.278 E0.04783
G1 X129.993 Y110.344 E0.04461
G1 X129.192 Y110.993 E0.03230
G1 X127.873 Y111.726 E0.04732
G1 X126.501 Y112.160 E0.04511
G1 X125.000 Y112.316 E0.04734
G1 X123.483 Y112.157 E0.04783
G1 X122.046 Y111.693 E0.04734
G1 X120.722 Y110.934 E0.04783
G1 X119.656 Y109.993 E0.04461
G1 X119.007 Y109.192 E0.03230
G1 X118.274 Y107.873 E0.04732
G1 X117.840 Y106.501 E0.04511
G1 X117.684 Y105.000 E0.04734
G1 X117.843 Y103.483 E0.04783
G1 X118.307 Y102.046 E0.04734
G1 X119.022 Y100.798 E0.04509
G1 X119.348 Y100.985 F10800.000
G1 F900
G1 X120.274 Y99.923 E0.04419
G1 X121.014 Y99.323 E0.02985
G1 X122.268 Y98.624 E0.04501
G1 X123.570 Y98.210 E0.04285
G1 X125.002 Y98.061 E0.04514
G1 X126.441 Y98.213 E0.04537
G1 X127.808 Y98.655 E0.04502
G1 X129.062 Y99.375 E0.04537
G1 X130.077 Y100.274 E0.04251
G1 X130.677 Y101.014 E0.02985
G1 X131.376 Y102.268 E0.04501
G1 X131.790 Y103.570 E0.04285
G1 X131.939 Y104.999 E0.04503
G1 X131.790 Y106.427 E0.04502
G1 X131.376 Y107.733 E0.04297
G1 X130.676 Y108.987 E0.04501
G1 X130.077 Y109.726 E0.02982
G1 X129.062 Y110.625 E0.04254
G1 X127.807 Y111.346 E0.04537
G1 X126.440 Y111.787 E0.04503
G1 X125.001 Y111.939 E0.04537
G1 X123.573 Y111.790 E0.04503
G1 X122.267 Y111.376 E0.04297
G1 X121.013 Y110.676 E0.04501
G1 X120.274 Y110.077 E0.02982
G1 X119.375 Y109.062 E0.04254
G1 X118.654 Y107.807 E0.04537
G1 X118.213 Y106.440 E0.04503
G1 X118.061 Y105.001 E0.04537
G1 X118.212 Y103.562 E0.04537
G1 X118.653 Y102.196 E0.04503
G1 X119.318 Y101.037 E0.04189
G1 F8640
G1 X120.274 Y99.923 E-0.33901
G1 X121.014 Y99.323 E-0.21986
G1 X121.775 Y98.899 E-0.20113
G1 E-0.04000 F2100.00000
G1 Z0.800 F10800.000
G1 X122.124 Y103.174
G1 Z0.200
G1 E0.80000 F2100.00000
G1 F900
G1 X122.580 Y102.602 E0.02292
G1 X122.779 Y102.607 E0.00626
G1 X122.790 Y102.407 E0.00626
G1 X123.394 Y101.996 E0.02292
G1 X123.583 Y102.059 E0.00626
G1 X123.652 Y101.871 E0.00626
G1 X124.351 Y101.656 E0.02292
G1 X124.513 Y101.772 E0.00626
G1 X124.635 Y101.613 E0.00626
G1 X125.365 Y101.613 E0.02292
G1 X125.487 Y101.772 E0.00626
G1 X125.649 Y101.656 E0.00626
G1 X126.348 Y101.871 E0.02292
G1 X126.417 Y102.059 E0.00626
G1 X126.606 Y101.996 E0.00626
G1 X127.210 Y102.407 E0.02292
G1 X127.221 Y102.607 E0.00626
G1 X127.420 Y102.602 E0.00626
G1 X127.876 Y103.174 E0.02292
G1 X127.827 Y103.368 E0.00626
G1 X128.019 Y103.422 E0.00626
G1 X128.286 Y104.103 E0.02292
G1 X128.183 Y104.274 E0.00626
G1 X128.350 Y104.382 E0.00626
G1 X128.405 Y105.111 E0.02292
G1 X128.256 Y105.244 E0.00626
G1 X128.383 Y105.397 E0.00626
G1 X128.221 Y106.110 E0.02292
G1 X128.039 Y106.193 E0.00626
G1 X128.116 Y106.377 E0.00626
G1 X127.751 Y107.010 E0.02292
G1 X127.553 Y107.036 E0.00626
G1 X127.572 Y107.234 E0.00626
G1 X127.036 Y107.731 E0.02292
G1 X126.839 Y107.698 E0.00626
G1 X126.799 Y107.893 E0.00626
G1 X126.140 Y108.210 E0.02292
G1 X125.962 Y108.120 E0.00626
G1 X125.866 Y108.295 E0.00626
G1 X125.143 Y108.404 E0.02292
G1 X125.000 Y108.265 E0.00626
G1 X124.857 Y108.404 E0.00626
G1 X124.134 Y108.295 E0.02292
G1 X124.038 Y108.120 E0.00626
G1 X123.860 Y108.210 E0.00626
G1 X123.201 Y107.893 E0.02292
G1 X123.161 Y107.698 E0.00626
G1 X122.964 Y107.731 E0.00626
G1 X122.428 Y107.234 E0.02292
G1 X122.447 Y107.036 E0.00626
G1 X122.249 Y107.010 E0.00626
G1 X121.884 Y106.377 E0.02292
G1 X121.961 Y106.193 E0.00626
G1 X121.779 Y106.110 E0.00626
G1 X121.617 Y105.397 E0.02292
G1 X121.744 Y105.244 E0.00626
G1 X121.595 Y105.111 E0.00626
G1 X121.650 Y104.382 E0.02292
G1 X121.817 Y104.274 E0.00626
G1 X121.714 Y104.103 E0.00626
G1 X121.981 Y103.422 E0.02292
G1 X122.173 Y103.368 E0.00626
G1 X122.139 Y103.232 E0.00438
G1 X122.535 Y103.263 F10800.000
G1 F900
G1 X122.758 Y102.983 E0.01122
G1 X123.136 Y102.991 E0.01186
G1 X123.157 Y102.614 E0.01186
G1 X123.452 Y102.412 E0.01122
G1 X123.811 Y102.531 E0.01186
G1 X123.942 Y102.176 E0.01186
G1 X124.284 Y102.071 E0.01122
G1 X124.592 Y102.291 E0.01186
G1 X124.821 Y101.990 E0.01186
G1 X125.179 Y101.990 E0.01122
G1 X125.408 Y102.291 E0.01186
G1 X125.716 Y102.071 E0.01186
G1 X126.058 Y102.176 E0.01122
G1 X126.189 Y102.531 E0.01186
G1 X126.548 Y102.412 E0.01186
G1 X126.843 Y102.614 E0.01122
G1 X126.864 Y102.991 E0.01186
G1 X127.242 Y102.983 E0.01186
G1 X127.465 Y103.263 E0.01122
G1 X127.373 Y103.630 E0.01186
G1 X127.737 Y103.734 E0.01186
G1 X127.867 Y104.067 E0.01122
G1 X127.671 Y104.390 E0.01186
G1 X127.988 Y104.597 E0.01186
G1 X128.015 Y104.953 E0.01122
G1 X127.732 Y105.205 E0.01186
G1 X127.974 Y105.495 E0.01186
G1 X127.895 Y105.844 E0.01122
G1 X127.551 Y106.001 E0.01186
G1 X127.696 Y106.350 E0.01186
G1 X127.517 Y106.660 E0.01122
G1 X127.142 Y106.708 E0.01186
G1 X127.178 Y107.085 E0.01186
G1 X126.916 Y107.328 E0.01122
G1 X126.543 Y107.264 E0.01186
G1 X126.467 Y107.634 E0.01186
G1 X126.145 Y107.790 E0.01122
G1 X125.808 Y107.618 E0.01186
G1 X125.626 Y107.950 E0.01186
G1 X125.272 Y108.003 E0.01122
G1 X125.000 Y107.740 E0.01186
G1 X124.728 Y108.003 E0.01186
G1 X124.374 Y107.950 E0.01122
G1 X124.192 Y107.618 E0.01186
G1 X123.855 Y107.790 E0.01186
G1 X123.533 Y107.634 E0.01122
G1 X123.457 Y107.264 E0.01186
G1 X123.084 Y107.328 E0.01186
G1 X122.822 Y107.085 E0.01122
G1 X122.858 Y106.708 E0.01186
G1 X122.483 Y106.660 E0.01186
G1 X122.304 Y106.350 E0.01122
G1 X122.449 Y106.001 E0.01186
G1 X122.105 Y105.844 E0.01186
G1 X122.026 Y105.495 E0.01122
G1 X122.268 Y105.205 E0.01186
G1 X121.985 Y104.953 E0.01186
G1 X122.012 Y104.597 E0.01122
G1 X122.329 Y104.390 E0.01186
G1 X122.133 Y104.067 E0.01186
G1 X122.263 Y103.734 E0.01122
G1 X122.627 Y103.630 E0.01186
G1 X122.550 Y103.321 E0.00998
G1 X122.388 Y102.937 F10800.000
G1 F8640
G1 X122.758 Y102.983 E-0.09168
G1 X123.136 Y102.991 E-0.08733
G1 X123.157 Y102.614 E-0.08733
G1 X123.452 Y102.412 E-0.08261
G1 X123.811 Y102.531 E-0.08733
G1 X123.942 Y102.176 E-0.08733
G1 X124.284 Y102.071 E-0.08262
G1 X124.592 Y102.291 E-0.08734
G1 X124.766 Y102.062 E-0.06642
G1 E-0.04000 F2100.00000
G1 Z0.800 F10800.000
G1 X121.554 Y102.675
G1 Z0.200
G1 E0.80000 F2100.00000
G1 F900
G1 X121.907 Y102.215 E0.01817
G1 X122.215 Y101.907 E0.01366
G1 X122.554 Y101.633 E0.01366
G1 X122.919 Y101.396 E0.01366
G1 X123.307 Y101.198 E0.01366
G1 X123.714 Y101.042 E0.01366
G1 X124.135 Y100.929 E0.01366
G1 X124.564 Y100.861 E0.01363
G1 X125.016 Y100.839 E0.01417
G1 X125.435 Y100.861 E0.01317
G1 X125.865 Y100.929 E0.01366
G1 X126.286 Y101.042 E0.01366
G1 X126.693 Y101.198 E0.01366
G1 X127.081 Y101.396 E0.01366
G1 X127.446 Y101.633 E0.01366
G1 X127.785 Y101.907 E0.01366
G1 X128.093 Y102.215 E0.01366
G1 X128.367 Y102.554 E0.01366
G1 X128.604 Y102.919 E0.01366
G1 X128.802 Y103.307 E0.01366
G1 X128.958 Y103.714 E0.01366
G1 X129.071 Y104.135 E0.01366
G1 X129.137 Y104.550 E0.01317
G1 X129.162 Y105.001 E0.01417
G1 X129.139 Y105.435 E0.01363
G1 X129.071 Y105.865 E0.01366
G1 X128.958 Y106.286 E0.01366
G1 X128.802 Y106.693 E0.01366
G1 X128.604 Y107.081 E0.01366
G1 X128.367 Y107.446 E0.01366
G1 X128.093 Y107.785 E0.01366
G1 X127.785 Y108.093 E0.01366
G1 X127.446 Y108.367 E0.01366
G1 X127.081 Y108.604 E0.01366
G1 X126.693 Y108.802 E0.01366
G1 X126.286 Y108.958 E0.01366
G1 X125.865 Y109.071 E0.01366
G1 X125.435 Y109.139 E0.01366
G1 X125.001 Y109.162 E0.01363
G1 X124.550 Y109.137 E0.01417
G1 X124.135 Y109.071 E0.01317
G1 X123.714 Y108.958 E0.01366
G1 X123.307 Y108.802 E0.01366
G1 X122.919 Y108.604 E0.01366
G1 X122.554 Y108.367 E0.01366
G1 X122.215 Y108.093 E0.01366
G1 X121.907 Y107.785 E0.01366
G1 X121.633 Y107.446 E0.01366
G1 X121.396 Y107.081 E0.01366
G1 X121.198 Y106.693 E0.01366
G1 X121.042 Y106.286 E0.01366
G1 X120.929 Y105.865 E0.01366
G1 X120.861 Y105.435 E0.01366
G1 X120.838 Y105.000 E0.01366
G1 X120.861 Y104.565 E0.01366
G1 X120.929 Y104.135 E0.01366
G1 X121.042 Y103.714 E0.01366
G1 X121.198 Y103.307 E0.01366
G1 X121.396 Y102.919 E0.01366
G1 X121.521 Y102.725 E0.00725
G1 X121.327 Y102.332 F10800.000
G1 F900
G1 X121.626 Y101.962 E0.01490
G1 X121.962 Y101.626 E0.01490
G1 X122.332 Y101.327 E0.01490
G1 X122.730 Y101.068 E0.01490
G1 X123.154 Y100.853 E0.01490
G1 X123.597 Y100.682 E0.01490
G1 X124.056 Y100.559 E0.01490
G1 X124.525 Y100.485 E0.01489
G1 X125.016 Y100.461 E0.01541
G1 X125.475 Y100.485 E0.01439
G1 X125.944 Y100.559 E0.01490
G1 X126.403 Y100.682 E0.01490
G1 X126.846 Y100.853 E0.01490
G1 X127.270 Y101.068 E0.01490
G1 X127.668 Y101.327 E0.01490
G1 X128.038 Y101.626 E0.01490
G1 X128.374 Y101.962 E0.01490
G1 X128.673 Y102.332 E0.01490
G1 X128.932 Y102.730 E0.01490
G1 X129.147 Y103.154 E0.01490
G1 X129.318 Y103.597 E0.01490
G1 X129.441 Y104.056 E0.01490
G1 X129.512 Y104.510 E0.01439
G1 X129.540 Y105.000 E0.01541
G1 X129.515 Y105.475 E0.01489
G1 X129.441 Y105.944 E0.01490
G1 X129.318 Y106.403 E0.01490
G1 X129.147 Y106.846 E0.01490
G1 X128.932 Y107.270 E0.01490
G1 X128.673 Y107.668 E0.01490
G1 X128.374 Y108.038 E0.01490
G1 X128.038 Y108.374 E0.01490
G1 X127.668 Y108.673 E0.01490
G1 X127.270 Y108.932 E0.01490
G1 X126.846 Y109.147 E0.01490
G1 X126.403 Y109.318 E0.01490
G1 X125.944 Y109.441 E0.01490
G1 X125.475 Y109.515 E0.01490
G1 X125.000 Y109.540 E0.01489
G1 X124.510 Y109.512 E0.01541
G1 X124.056 Y109.441 E0.01439
G1 X123.597 Y109.318 E0.01490
G1 X123.154 Y109.147 E0.01490
G1 X122.730 Y108.932 E0.01490
G1 X122.332 Y108.673 E0.01490
G1 X121.962 Y108.374 E0.01490
G1 X121.626 Y108.038 E0.01490
G1 X121.327 Y107.668 E0.01490
G1 X121.068 Y107.270 E0.01490
G1 X120.853 Y106.846 E0.01490
G1 X120.682 Y106.403 E0.01490
G1 X120.559 Y105.944 E0.01490
G1 X120.485 Y105.475 E0.01490
G1 X120.460 Y105.000 E0.01490
G1 X120.485 Y104.525 E0.01490
G1 X120.559 Y104.056 E0.01490
G1 X120.682 Y103.597 E0.01490
G1 X120.853 Y103.154 E0.01490
G1 X121.068 Y102.730 E0.01490
G1 X121.295 Y102.382 E0.01302
G1 X121.725 Y102.373 F10800.000
G1 X121.980 Y102.305
G1 F900
G1 X122.365 Y102.690 E0.02033
G1 X122.497 Y102.298 F10800.000
G1 F900
G1 X122.303 Y102.086 E0.00225
G1 X122.904 Y102.193 F10800.000
G1 F900
G1 X122.639 Y101.927 E0.01301
G1 X122.720 Y101.862 E0.00361
G1 X122.989 Y101.687 E0.01114
G1 X123.255 Y101.953 E0.01306
G1 X123.350 Y101.566 F10800.000
G1 F900
G1 X123.283 Y101.421 E0.00093
G1 X123.664 Y101.182 F10800.000
G1 F900
G1 X123.962 Y101.480 E0.01462
G1 X124.401 Y101.344 E0.01594
G1 X124.455 Y101.382 E0.00228
G1 X124.267 Y101.194 E0.00923
G1 X124.593 Y101.143 E0.01146
G1 X124.796 Y101.133 E0.00704
G1 X124.993 Y101.330 E0.00969
G1 X125.505 Y101.330 E0.01778
G1 X125.545 Y101.382 E0.00228
G1 X125.598 Y101.345 E0.00225
G1 X125.395 Y101.142 E0.00996
G1 X125.806 Y101.206 E0.01445
G1 X126.138 Y101.295 E0.01191
G1 X126.908 Y102.065 E0.03779
G1 X126.650 Y101.566 F10800.000
G1 F900
G1 X126.717 Y101.421 E0.00093
G1 X126.888 Y101.455 F10800.000
G1 F900
G1 X127.484 Y102.050 E0.02922
G1 X127.697 Y102.086 F10800.000
G1 F900
G1 X127.503 Y102.298 E0.00225
G1 X127.737 Y102.312 F10800.000
G1 F900
G1 X128.304 Y102.879 E0.03017
G1 X128.277 Y103.108 F10800.000
G1 F900
G1 X128.157 Y103.177 E0.00087
G1 X128.277 Y103.108 F10800.000
G1 F900
G1 X128.397 Y103.039 E0.00117
G1 X128.464 Y103.059 E0.00059
G1 F8640
G1 X128.397 Y103.039 E-0.01620
G1 X128.277 Y103.108 E-0.03201
G1 E-0.75179 F2100.00000
G1 Z0.800 F10800.000
G1 X128.592 Y104.183
G1 Z0.200
G1 E0.80000 F2100.00000
G1 F900
G1 X128.872 Y104.121 E0.00224
G1 X128.478 Y104.575 F10800.000
G1 F900
G1 X129.042 Y105.138 E0.02598
G1 X128.957 Y105.302 F10800.000
G1 F900
G1 X128.798 Y105.288 E0.00094
G1 X128.892 Y106.097 F10800.000
G1 F900
G1 X128.584 Y105.790 E0.01419
G1 X128.481 Y106.241 E0.01509
G1 X128.620 Y106.380 E0.00639
G1 X128.449 Y106.763 E0.01369
G1 X128.304 Y106.618 E0.00671
G1 X128.101 Y106.969 E0.01323
G1 X128.246 Y107.114 E0.00669
G1 X128.138 Y107.280 E0.00644
G1 X128.012 Y107.435 E0.00652
G1 X127.861 Y107.284 E0.00699
G1 X127.867 Y107.346 E0.00205
G1 X127.608 Y107.586 E0.01148
G1 X127.750 Y107.728 E0.00654
G1 X127.460 Y107.992 E0.01279
G1 X127.201 Y107.733 E0.01196
G1 X127.147 Y108.143 F10800.000
G1 F900
G1 X127.241 Y108.276 E0.00096
G1 X126.919 Y108.560 F10800.000
G1 F900
G1 X126.515 Y108.156 E0.01865
G1 X126.089 Y108.519 F10800.000
G1 F900
G1 X126.175 Y108.793 E0.00224
G1 F8640
G1 X126.089 Y108.519 E-0.06633
G1 E-0.73367 F2100.00000
G1 Z0.800 F10800.000
G1 X125.050 Y108.971
G1 Z0.200
G1 E0.80000 F2100.00000
G1 F900
G1 X124.995 Y108.918 E0.00071
G1 X124.995 Y108.770 E0.00135
G1
G1 X124.995 Y108.623 E0.00099
G1
G1 X124.994 Y108.533 E0.00038
G1 X124.996 Y108.584 F10800.000
G1 F900
G1 X124.985 Y108.972 E0.00244
G1 F8640
G1 X124.996 Y108.584 E-0.08980
G1 E-0.71020 F2100.00000
G1 Z0.800 F10800.000
G1 X123.912 Y108.519
G1 Z0.200
G1 E0.80000 F2100.00000
G1 F900
G1 X123.825 Y108.793 E0.00224
G1 X123.704 Y108.573 F10800.000
G1 F900
G1 X122.975 Y107.844 E0.03538
G1 X122.853 Y108.143 F10800.000
G1 F900
G1 X122.759 Y108.276 E0.00096
G1 X122.663 Y108.116 F10800.000
G1 F900
G1 X121.413 Y106.866 E0.06069
G1 X122.089 Y106.959 F10800.000
G1 F900
G1 X121.304 Y106.174 E0.03809
G1 X121.206 Y105.806 E0.01304
G1 X121.178 Y105.631 E0.00608
G1 X121.332 Y105.617 E0.00529
G1 X121.616 Y105.901 E0.01378
G1 X121.572 Y105.274 F10800.000
G1 F900
G1 X120.968 Y104.671 E0.02929
G1 X121.128 Y104.121 F10800.000
G1 F900
G1 X121.408 Y104.183 E0.00224
G1 X121.587 Y104.037 F10800.000
G1 F900
G1 X121.322 Y103.772 E0.01408
G1 X121.449 Y103.441 E0.01335
