; generated by PrusaSlicer 2.0.0+linux64 on 2019-06-21 at 15:10:17

; 

; external perimeters extrusion width = 0.45mm
; perimeters extrusion width = 0.45mm
; infill extrusion width = 0.45mm
; solid infill extrusion width = 0.45mm
; top infill extrusion width = 0.40mm
; first layer extrusion width = 0.42mm

M73 P0 R14
M73 Q0 S14
M201 X1000 Y1000 Z1000 E5000 ; sets maximum accelerations, mm/sec^2
M203 X200 Y200 Z12 E120 ; sets maximum feedrates, mm/sec
M204 P1250 R1250 T1250 ; sets acceleration (P, T) and retract acceleration (R), mm/sec^2
M205 X8.00 Y8.00 Z0.40 E1.50 ; sets the jerk limits, mm/sec
M205 S0 T0 ; sets the minimum extruding and travel feed rate, mm/sec
M107
M115 U3.7.1 ; tell printer latest fw version
G90 ; use absolute coordinates
M83 ; extruder relative mode
M104 S215 ; set extruder temp
M140 S60 ; set bed temp
M190 S60 ; wait for bed temp
M109 S215 ; wait for extruder temp
G28 W ; home all without mesh bed level
G80 ; mesh bed leveling
G1 Y-3.0 F1000.0 ; go outside print area
G92 E0.0
G1 X60.0 E9.0 F1000.0 ; intro line
M73 Q0 S14
M73 P0 R14
G1 X100.0 E12.5 F1000.0 ; intro line
G92 E0.0
M221 S95
M900 K30 ; Filament gcode
G21 ; set units to millimeters
G90 ; use absolute coordinates
M83 ; use relative distances for extrusion
;BEFORE_LAYER_CHANGE
G92 E0.0
;0.2


G1 E-0.80000 F2100.00000
G1 Z0.600 F10800.000
;AFTER_LAYER_CHANGE
;0.2
G1 X109.321 Y101.095
G1 Z0.200
G1 E0.80000 F2100.00000
M204 S1000
G1 F1200
G1 X110.165 Y99.676 E0.05178
G1 X121.466 Y88.366 E0.50130
G1 X121.910 Y88.011 E0.01783
G1 X122.968 Y87.418 E0.03800
G1 X124.606 Y87.115 E0.05223
G1 X126.188 Y87.400 E0.05041
G1 X127.608 Y88.244 E0.05178
G1 X138.917 Y99.545 E0.50130
G1 X139.272 Y99.989 E0.01783
G1 X139.865 Y101.047 E0.03800
G1 X140.168 Y102.681 E0.05211
G1 X139.865 Y104.315 E0.05212
G1 X139.273 Y105.372 E0.03799
G1 X138.917 Y105.817 E0.01784
G1 X127.605 Y117.120 E0.50141
G1 X126.188 Y117.962 E0.05166
G1 X124.602 Y118.247 E0.05052
G1 X122.968 Y117.944 E0.05212
G1 X121.911 Y117.352 E0.03799
G1 X121.466 Y116.996 E0.01784
G1 X110.163 Y105.684 E0.50141
G1 X109.321 Y104.267 E0.05166
G1 X109.037 Y102.681 E0.05052
G1 X109.310 Y101.154 E0.04865
G1 X109.675 Y101.224 F10800.000
G1 F1200
G1 X110.457 Y99.915 E0.04779
G1 X121.733 Y88.632 E0.50014
G1 X122.118 Y88.326 E0.01544
G1 X123.110 Y87.768 E0.03569
G1 X124.604 Y87.492 E0.04764
G1 X126.060 Y87.754 E0.04637
G1 X127.368 Y88.536 E0.04779
G1 X138.651 Y99.812 E0.50014
G1 X138.957 Y100.197 E0.01544
G1 X139.515 Y101.189 E0.03569
G1 X139.791 Y102.683 E0.04764
G1 X139.529 Y104.139 E0.04637
G1 X138.747 Y105.447 E0.04778
G1 X127.471 Y116.730 E0.50014
G1 X127.086 Y117.036 E0.01544
G1 X126.094 Y117.594 E0.03569
G1 X124.600 Y117.870 E0.04764
G1 X123.145 Y117.608 E0.04637
G1 X121.836 Y116.826 E0.04778
G1 X110.554 Y105.550 E0.50014
G1 X110.247 Y105.165 E0.01544
G1 X109.689 Y104.173 E0.03569
G1 X109.414 Y102.679 E0.04764
G1 X109.665 Y101.283 E0.04449
G1 F8640
G1 X110.457 Y99.915 E-0.36490
G1 X111.666 Y98.705 E-0.39510
G1 E-0.04000 F2100.00000
G1 Z0.800 F10800.000
G1 X123.799 Y112.878
G1 Z0.200
G1 E0.80000 F2100.00000
G1 F1200
G1 X124.602 Y112.546 E0.02725
G1 X125.405 Y112.878 E0.02725
G1 X125.738 Y113.681 E0.02725
G1 X125.405 Y114.484 E0.02725
G1 X124.602 Y114.816 E0.02725
G1 X123.799 Y114.484 E0.02725
G1 X123.467 Y113.681 E0.02725
G1 X123.776 Y112.934 E0.02537
G1 X124.088 Y113.167 F10800.000
G1 F1200
G1 X124.602 Y112.954 E0.01745
G1 X125.116 Y113.167 E0.01745
G1 X125.329 Y113.681 E0.01745
G1 X125.116 Y114.195 E0.01745
G1 X124.602 Y114.408 E0.01745
G1 X124.088 Y114.195 E0.01745
G1 X123.875 Y113.681 E0.01745
G1 X124.065 Y113.222 E0.01557
G1 X123.984 Y112.780 F10800.000
G1 F8640
G1 X124.602 Y112.954 E-0.13867
G1 X125.116 Y113.167 E-0.12853
G1 X125.329 Y113.681 E-0.12853
G1 X125.116 Y114.195 E-0.12853
G1 X124.602 Y114.408 E-0.12853
G1 X124.173 Y114.231 E-0.10719
G1 E-0.04000 F2100.00000
G1 Z0.800 F10800.000
G1 X124.464 Y112.259
G1 Z0.200
G1 E0.80000 F2100.00000
G1 F1200
G1 X123.799 Y111.984 E0.02255
G1 X123.467 Y111.181 E0.02725
G1 X123.799 Y110.378 E0.02725
G1 X124.602 Y110.046 E0.02725
G1 X125.405 Y110.378 E0.02725
G1 X125.738 Y111.181 E0.02725
G1 X125.405 Y111.984 E0.02725
G1 X124.602 Y112.316 E0.02725
G1 X124.519 Y112.282 E0.00281
G1 X124.602 Y111.908 F10800.000
G1 F1200
G1 X124.088 Y111.695 E0.01745
G1 X123.875 Y111.181 E0.01745
G1 X124.088 Y110.667 E0.01745
G1 X124.602 Y110.454 E0.01745
G1 X125.116 Y110.667 E0.01745
G1 X125.329 Y111.181 E0.01745
G1 X125.116 Y111.695 E0.01745
G1 X124.658 Y111.885 E0.01557
G1 X124.402 Y112.255 F10800.000
G1 F8640
G1 X124.088 Y111.695 E-0.13868
G1 X123.875 Y111.181 E-0.12853
G1 X124.088 Y110.667 E-0.12853
G1 X124.602 Y110.454 E-0.12853
G1 X125.116 Y110.667 E-0.12853
G1 X125.294 Y111.096 E-0.10719
G1 E-0.04000 F2100.00000
G1 Z0.800 F10800.000
G1 X124.602 Y109.816
G1 Z0.200
G1 E0.80000 F2100.00000
G1 F1200
G1 X123.799 Y109.484 E0.02725
G1 X123.467 Y108.681 E0.02725
G1 X123.799 Y107.878 E0.02725
G1 X124.602 Y107.546 E0.02725
G1 X125.405 Y107.878 E0.02725
G1 X125.738 Y108.681 E0.02725
G1 X125.405 Y109.484 E0.02725
G1 X124.658 Y109.794 E0.02537
G1 X124.602 Y109.408 F10800.000
G1 F1200
G1 X124.088 Y109.195 E0.01745
G1 X123.875 Y108.681 E0.01745
G1 X124.088 Y108.167 E0.01745
G1 X124.602 Y107.954 E0.01745
G1 X125.116 Y108.167 E0.01745
G1 X125.329 Y108.681 E0.01745
G1 X125.116 Y109.195 E0.01745
G1 X124.658 Y109.385 E0.01557
G1 X124.402 Y109.755 F10800.000
G1 F8640
G1 X124.088 Y109.195 E-0.13868
G1 X123.875 Y108.681 E-0.12853
G1 X124.088 Y108.167 E-0.12853
G1 X124.602 Y107.954 E-0.12853
G1 X125.116 Y108.167 E-0.12853
G1 X125.294 Y108.596 E-0.10719
G1 E-0.04000 F2100.00000
G1 Z0.800 F10800.000
G1 X124.602 Y104.316
G1 Z0.200
G1 E0.80000 F2100.00000
G1 F1200
G1 X123.446 Y103.837 E0.03925
G1 X122.967 Y102.681 E0.03925
G1 X123.446 Y101.525 E0.03925
G1 X124.602 Y101.046 E0.03925
G1 X125.759 Y101.525 E0.03925
G1 X126.238 Y102.681 E0.03925
G1 X125.759 Y103.837 E0.03925
G1 X124.658 Y104.294 E0.03737
G1 X124.602 Y103.908 F10800.000
G1 F1200
G1 X123.734 Y103.549 E0.02945
G1 X123.375 Y102.681 E0.02945
G1 X123.734 Y101.813 E0.02945
G1 X124.602 Y101.454 E0.02945
G1 X125.470 Y101.813 E0.02945
G1 X125.829 Y102.681 E0.02945
G1 X125.470 Y103.549 E0.02945
G1 X124.658 Y103.885 E0.02757
G1 X124.402 Y104.255 F10800.000
G1 F8640
G1 X123.734 Y103.549 E-0.22690
G1 X123.375 Y102.681 E-0.21690
G1 X123.734 Y101.813 E-0.21690
G1 X124.132 Y101.649 E-0.09931
G1 E-0.04000 F2100.00000
G1 Z0.800 F10800.000
G1 X124.602 Y97.816
G1 Z0.200
G1 E0.80000 F2100.00000
G1 F1200
G1 X123.799 Y97.484 E0.02725
G1 X123.467 Y96.681 E0.02725
G1 X123.799 Y95.878 E0.02725
G1 X124.602 Y95.546 E0.02725
G1 X125.405 Y95.878 E0.02725
G1 X125.738 Y96.681 E0.02725
G1 X125.405 Y97.484 E0.02725
G1 X124.658 Y97.794 E0.02537
G1 X124.602 Y97.408 F10800.000
G1 F1200
G1 X124.088 Y97.195 E0.01745
G1 X123.875 Y96.681 E0.01745
G1 X124.088 Y96.167 E0.01745
G1 X124.602 Y95.954 E0.01745
G1 X125.116 Y96.167 E0.01745
G1 X125.329 Y96.681 E0.01745
G1 X125.116 Y97.195 E0.01745
G1 X124.658 Y97.385 E0.01557
G1 X124.402 Y97.755 F10800.000
G1 F8640
G1 X124.088 Y97.195 E-0.13868
G1 X123.875 Y96.681 E-0.12853
G1 X124.088 Y96.167 E-0.12853
G1 X124.602 Y95.954 E-0.12853
G1 X125.116 Y96.167 E-0.12853
G1 X125.294 Y96.596 E-0.10719
G1 E-0.04000 F2100.00000
G1 Z0.800 F10800.000
G1 X124.602 Y95.316
G1 Z0.200
G1 E0.80000 F2100.00000
G1 F1200
G1 X123.799 Y94.984 E0.02725
G1 X123.467 Y94.181 E0.02725
G1 X123.799 Y93.378 E0.02725
G1 X124.602 Y93.046 E0.02725
G1 X125.405 Y93.378 E0.02725
G1 X125.738 Y94.181 E0.02725
G1 X125.405 Y94.984 E0.02725
G1 X124.658 Y95.294 E0.02537
G1 X124.602 Y94.908 F10800.000
G1 F1200
G1 X124.088 Y94.695 E0.01745
G1 X123.875 Y94.181 E0.01745
G1 X124.088 Y93.667 E0.01745
G1 X124.602 Y93.454 E0.01745
G1 X125.116 Y93.667 E0.01745
G1 X125.329 Y94.181 E0.01745
G1 X125.116 Y94.695 E0.01745
G1 X124.658 Y94.885 E0.01557
G1 X124.402 Y95.255 F10800.000
G1 F8640
G1 X124.088 Y94.695 E-0.13868
G1 X123.875 Y94.181 E-0.12853
G1 X124.088 Y93.667 E-0.12853
G1 X124.602 Y93.454 E-0.12853
G1 X125.116 Y93.667 E-0.12853
G1 X125.294 Y94.096 E-0.10719
G1 E-0.04000 F2100.00000
G1 Z0.800 F10800.000
G1 X124.602 Y92.816
G1 Z0.200
G1 E0.80000 F2100.00000
G1 F1200
G1 X123.799 Y92.484 E0.02725
G1 X123.467 Y91.681 E0.02725
G1 X123.799 Y90.878 E0.02725
G1 X124.602 Y90.546 E0.02725
G1 X125.405 Y90.878 E0.02725
G1 X125.738 Y91.681 E0.02725
G1 X125.405 Y92.484 E0.02725
G1 X124.658 Y92.794 E0.02537
G1 X124.602 Y92.408 F10800.000
G1 F1200
G1 X124.088 Y92.195 E0.01745
G1 X123.875 Y91.681 E0.01745
G1 X124.088 Y91.167 E0.01745
G1 X124.602 Y90.954 E0.01745
G1 X125.116 Y91.167 E0.01745
G1 X125.329 Y91.681 E0.01745
G1 X125.116 Y92.195 E0.01745
G1 X124.658 Y92.385 E0.01557
G1 X124.402 Y92.755 F10800.000
G1 F8640
G1 X124.088 Y92.195 E-0.13868
G1 X123.875 Y91.681 E-0.12853
G1 X124.088 Y91.167 E-0.12853
G1 X124.602 Y90.954 E-0.12853
G1 X125.116 Y91.167 E-0.12853
G1 X125.294 Y91.596 E-0.10719
G1 E-0.04000 F2100.00000
G1 Z0.800 F10800.000
G1 X129.799 Y101.878
G1 Z0.200
G1 E0.80000 F2100.00000
G1 F1200
G1 X130.602 Y101.546 E0.02725
G1 X131.405 Y101.878 E0.02725
G1 X131.738 Y102.681 E0.02725
G1 X131.405 Y103.484 E0.02725
G1 X130.602 Y103.816 E0.02725
G1 X129.799 Y103.484 E0.02725
G1 X129.467 Y102.681 E0.02725
G1 X129.776 Y101.934 E0.02537
G1 X130.088 Y102.167 F10800.000
G1 F1200
G1 X130.602 Y101.954 E0.01745
G1 X131.116 Y102.167 E0.01745
G1 X131.329 Y102.681 E0.01745
G1 X131.116 Y103.195 E0.01745
G1 X130.602 Y103.408 E0.01745
G1 X130.088 Y103.195 E0.01745
G1 X129.875 Y102.681 E0.01745
G1 X130.065 Y102.222 E0.01557
G1 X129.984 Y101.780 F10800.000
G1 F8640
G1 X130.602 Y101.954 E-0.13867
G1 X131.116 Y102.167 E-0.12853
G1 X131.329 Y102.681 E-0.12853
G1 X131.116 Y103.195 E-0.12853
G1 X130.602 Y103.408 E-0.12853
G1 X130.173 Y103.231 E-0.10719
G1 E-0.04000 F2100.00000
G1 Z0.800 F10800.000
G1 X131.967 Y102.681
G1 Z0.200
G1 E0.80000 F2100.00000
G1 F1200
G1 X132.299 Y101.878 E0.02725
G1 X133.102 Y101.546 E0.02725
G1 X133.905 Y101.878 E0.02725
G1 X134.238 Y102.681 E0.02725
G1 X133.905 Y103.484 E0.02725
G1 X133.102 Y103.816 E0.02725
G1 X132.299 Y103.484 E0.02725
G1 X131.990 Y102.736 E0.02537
G1 X132.375 Y102.681 F10800.000
G1 F1200
G1 X132.588 Y102.167 E0.01745
G1 X133.102 Y101.954 E0.01745
G1 X133.616 Y102.167 E0.01745
G1 X133.829 Y102.681 E0.01745
G1 X133.616 Y103.195 E0.01745
G1 X133.102 Y103.408 E0.01745
G1 X132.588 Y103.195 E0.01745
G1 X132.398 Y102.736 E0.01557
G1 X132.028 Y102.481 F10800.000
G1 F8640
G1 X132.588 Y102.167 E-0.13868
G1 X133.102 Y101.954 E-0.12853
G1 X133.616 Y102.167 E-0.12853
G1 X133.829 Y102.681 E-0.12853
G1 X133.616 Y103.195 E-0.12853
G1 X133.188 Y103.373 E-0.10719
G1 E-0.04000 F2100.00000
G1 Z0.800 F10800.000
G1 X134.467 Y102.681
G1 Z0.200
G1 E0.80000 F2100.00000
G1 F1200
G1 X134.799 Y101.878 E0.02725
G1 X135.602 Y101.546 E0.02725
G1 X136.405 Y101.878 E0.02725
G1 X136.738 Y102.681 E0.02725
G1 X136.405 Y103.484 E0.02725
G1 X135.602 Y103.816 E0.02725
G1 X134.799 Y103.484 E0.02725
G1 X134.490 Y102.736 E0.02537
G1 X134.875 Y102.681 F10800.000
G1 F1200
G1 X135.088 Y102.167 E0.01745
G1 X135.602 Y101.954 E0.01745
G1 X136.116 Y102.167 E0.01745
G1 X136.329 Y102.681 E0.01745
G1 X136.116 Y103.195 E0.01745
G1 X135.602 Y103.408 E0.01745
G1 X135.088 Y103.195 E0.01745
G1 X134.898 Y102.736 E0.01557
G1 X134.528 Y102.481 F10800.000
G1 F8640
G1 X135.088 Y102.167 E-0.13868
G1 X135.602 Y101.954 E-0.12853
G1 X136.116 Y102.167 E-0.12853
G1 X136.329 Y102.681 E-0.12853
G1 X136.116 Y103.195 E-0.12853
G1 X135.688 Y103.373 E-0.10719
G1 E-0.04000 F2100.00000
G1 Z0.800 F10800.000
G1 X119.738 Y102.681
G1 Z0.200
G1 E0.80000 F2100.00000
G1 F1200
G1 X119.405 Y103.484 E0.02725
G1 X118.602 Y103.816 E0.02725
G1 X117.799 Y103.484 E0.02725
G1 X117.467 Y102.681 E0.02725
G1 X117.799 Y101.878 E0.02725
G1 X118.602 Y101.546 E0.02725
G1 X119.405 Y101.878 E0.02725
G1 X119.715 Y102.626 E0.02537
G1 X119.329 Y102.681 F10800.000
G1 F1200
G1 X119.116 Y103.195 E0.01745
G1 X118.602 Y103.408 E0.01745
G1 X118.088 Y103.195 E0.01745
G1 X117.875 Y102.681 E0.01745
G1 X118.088 Y102.167 E0.01745
G1 X118.602 Y101.954 E0.01745
G1 X119.116 Y102.167 E0.01745
G1 X119.306 Y102.626 E0.01557
G1 X119.676 Y102.881 F10800.000
G1 F8640
G1 X119.116 Y103.195 E-0.13868
G1 X118.602 Y103.408 E-0.12853
G1 X118.088 Y103.195 E-0.12853
G1 X117.875 Y102.681 E-0.12853
G1 X118.088 Y102.167 E-0.12853
G1 X118.517 Y101.989 E-0.10719
G1 E-0.04000 F2100.00000
G1 Z0.800 F10800.000
G1 X117.238 Y102.681
G1 Z0.200
G1 E0.80000 F2100.00000
G1 F1200
G1 X116.905 Y103.484 E0.02725
G1 X116.102 Y103.816 E0.02725
G1 X115.299 Y103.484 E0.02725
G1 X114.967 Y102.681 E0.02725
G1 X115.299 Y101.878 E0.02725
G1 X116.102 Y101.546 E0.02725
G1 X116.905 Y101.878 E0.02725
G1 X117.215 Y102.626 E0.02537
G1 X116.829 Y102.681 F10800.000
G1 F1200
G1 X116.616 Y103.195 E0.01745
G1 X116.102 Y103.408 E0.01745
G1 X115.588 Y103.195 E0.01745
G1 X115.375 Y102.681 E0.01745
G1 X115.588 Y102.167 E0.01745
G1 X116.102 Y101.954 E0.01745
G1 X116.616 Y102.167 E0.01745
G1 X116.806 Y102.626 E0.01557
G1 X117.176 Y102.881 F10800.000
G1 F8640
G1 X116.616 Y103.195 E-0.13868
G1 X116.102 Y103.408 E-0.12853
G1 X115.588 Y103.195 E-0.12853
G1 X115.375 Y102.681 E-0.12853
G1 X115.588 Y102.167 E-0.12853
G1 X116.017 Y101.989 E-0.10719
G1 E-0.04000 F2100.00000
G1 Z0.800 F10800.000
G1 X114.738 Y102.681
G1 Z0.200
G1 E0.80000 F2100.00000
G1 F1200
G1 X114.405 Y103.484 E0.02725
G1 X113.602 Y103.816 E0.02725
G1 X112.799 Y103.484 E0.02725
G1 X112.467 Y102.681 E0.02725
G1 X112.799 Y101.878 E0.02725
G1 X113.602 Y101.546 E0.02725
G1 X114.405 Y101.878 E0.02725
G1 X114.715 Y102.626 E0.02537
G1 X114.329 Y102.681 F10800.000
G1 F1200
G1 X114.116 Y103.195 E0.01745
G1 X113.602 Y103.408 E0.01745
G1 X113.088 Y103.195 E0.01745
G1 X112.875 Y102.681 E0.01745
G1 X113.088 Y102.167 E0.01745
G1 X113.602 Y101.954 E0.01745
G1 X114.116 Y102.167 E0.01745
G1 X114.306 Y102.626 E0.01557
G1 X114.676 Y102.881 F10800.000
G1 F8640
G1 X114.116 Y103.195 E-0.13868
G1 X113.602 Y103.408 E-0.12853
G1 X113.088 Y103.195 E-0.12853
G1 X112.875 Y102.681 E-0.12853
G1 X113.088 Y102.167 E-0.12853
G1 X113.517 Y101.989 E-0.10719
G1 E-0.04000 F2100.00000
G1 Z0.800 F10800.000
G1 X121.821 Y99.900
G1 Z0.200
G1 E0.80000 F2100.00000
G1 F1200
G1 X122.237 Y99.052 E0.02962
G1 X123.194 Y91.553 E0.23702
G1 X123.353 Y91.042 E0.01680
G1 X123.675 Y90.628 E0.01643
G1 X124.126 Y90.361 E0.01643
G1 X124.602 Y90.277 E0.01516
G1 X125.049 Y90.356 E0.01422
G1 X125.532 Y90.632 E0.01745
G1 X125.851 Y91.042 E0.01628
G1 X126.010 Y91.553 E0.01680
G1 X126.967 Y99.052 E0.23702
G1 X127.383 Y99.900 E0.02962
G1 X128.231 Y100.316 E0.02962
G1 X135.730 Y101.273 E0.23702
G1 X136.242 Y101.432 E0.01680
G1 X136.655 Y101.754 E0.01643
G1 X136.922 Y102.205 E0.01643
G1 X137.006 Y102.681 E0.01516
G1 X136.922 Y103.157 E0.01516
G1 X136.655 Y103.608 E0.01643
G1 X136.242 Y103.930 E0.01643
G1 X135.730 Y104.089 E0.01680
G1 X128.231 Y105.046 E0.23702
G1 X127.383 Y105.462 E0.02962
G1 X126.967 Y106.310 E0.02962
G1 X126.010 Y113.809 E0.23702
G1 X125.851 Y114.320 E0.01680
G1 X125.529 Y114.734 E0.01643
G1 X125.078 Y115.001 E0.01643
G1 X124.602 Y115.085 E0.01516
G1 X124.126 Y115.001 E0.01516
G1 X123.675 Y114.734 E0.01643
G1 X123.353 Y114.320 E0.01643
G1 X123.194 Y113.809 E0.01680
G1 X122.237 Y106.310 E0.23702
G1 X121.821 Y105.462 E0.02962
G1 X120.973 Y105.046 E0.02962
G1 X113.474 Y104.089 E0.23702
G1 X112.963 Y103.930 E0.01680
G1 X112.549 Y103.608 E0.01643
G1 X112.282 Y103.157 E0.01643
G1 X112.198 Y102.681 E0.01516
G1 X112.282 Y102.205 E0.01516
G1 X112.549 Y101.754 E0.01643
G1 X112.963 Y101.432 E0.01643
G1 X113.474 Y101.273 E0.01680
G1 X120.973 Y100.316 E0.23702
G1 X121.767 Y99.926 E0.02774
G1 X121.539 Y99.618 F10800.000
G1 F1200
G1 X121.871 Y98.942 E0.02362
G1 X122.824 Y91.473 E0.23609
G1 X123.013 Y90.864 E0.01999
G1 X123.422 Y90.340 E0.02082
G1 X123.993 Y90.002 E0.02082
G1 X124.602 Y89.894 E0.01940
G1 X125.179 Y89.996 E0.01837
G1 X125.784 Y90.342 E0.02184
G1 X126.191 Y90.864 E0.02076
G1 X126.380 Y91.473 E0.01999
G1 X127.333 Y98.942 E0.23609
G1 X127.665 Y99.618 E0.02362
G1 X128.341 Y99.950 E0.02362
