; generated by PrusaSlicer 2.0.0+linux64 on 2019-06-21 at 15:37:12

; 

; external perimeters extrusion width = 0.45mm
; perimeters extrusion width = 0.45mm
; infill extrusion width = 0.45mm
; solid infill extrusion width = 0.45mm
; top infill extrusion width = 0.40mm
; first layer extrusion width = 0.42mm

M73 P0 R18
M73 Q0 S18
M201 X1000 Y1000 Z1000 E5000 ; sets maximum accelerations, mm/sec^2
M203 X200 Y200 Z12 E120 ; sets maximum feedrates, mm/sec
M204 P1250 R1250 T1250 ; sets acceleration (P, T) and retract acceleration (R), mm/sec^2
M205 X8.00 Y8.00 Z0.40 E1.50 ; sets the jerk limits, mm/sec
M205 S0 T0 ; sets the minimum extruding and travel feed rate, mm/sec
M107
M115 U3.7.1 ; tell printer latest fw version
G90 ; use absolute coordinates
M83 ; extruder relative mode
M104 S215 ; set extruder temp
M140 S60 ; set bed temp
M190 S60 ; wait for bed temp
M109 S215 ; wait for extruder temp
G28 W ; home all without mesh bed level
G80 ; mesh bed leveling
G1 Y-3.0 F1000.0 ; go outside print area
G92 E0.0
G1 X60.0 E9.0 F1000.0 ; intro line
M73 Q0 S18
M73 P0 R18
G1 X100.0 E12.5 F1000.0 ; intro line
G92 E0.0
M221 S95
M900 K30 ; Filament gcode
G21 ; set units to millimeters
G90 ; use absolute coordinates
M83 ; use relative distances for extrusion
;BEFORE_LAYER_CHANGE
G92 E0.0
;0.2


G1 E-0.80000 F2100.00000
G1 Z0.600 F10800.000
;AFTER_LAYER_CHANGE
;0.2
G1 X100.781 Y96.075
G1 Z0.200
G1 E0.80000 F2100.00000
M204 S1000
G1 F1200
G1 X100.934 Y94.893 E0.03736
G1 X101.152 Y94.263 E0.02089
G1 X101.834 Y93.188 E0.03994
G1 X113.202 Y81.821 E0.50404
G1 X114.513 Y81.040 E0.04785
G1 X115.969 Y80.779 E0.04640
G1 X117.449 Y81.050 E0.04715
G1 X118.806 Y81.889 E0.05003
G1 X148.094 Y111.176 E1.29868
G1 X148.388 Y111.549 E0.01487
G1 X148.941 Y112.527 E0.03523
G1 X149.202 Y113.743 E0.03900
G1 X149.190 Y114.399 E0.02055
G1 X148.937 Y115.548 E0.03691
G1 X148.230 Y116.737 E0.04338
G1 X136.871 Y128.112 E0.50403
G1 X135.538 Y128.941 E0.04919
G1 X134.137 Y129.219 E0.04481
G1 X132.955 Y129.065 E0.03736
G1 X132.322 Y128.845 E0.02100
G1 X131.237 Y128.151 E0.04039
G1 X101.906 Y98.824 E1.30051
G1 X101.612 Y98.451 E0.01487
G1 X101.059 Y97.473 E0.03523
G1 X100.793 Y96.134 E0.04281
G1 F8640
G1 X100.934 Y94.893 E-0.28829
G1 X101.152 Y94.263 E-0.15384
G1 X101.834 Y93.188 E-0.29417
G1 X101.907 Y93.115 E-0.02371
G1 E-0.04000 F2100.00000
G1 Z0.800 F10800.000
G1 X133.230 Y124.230
G1 Z0.200
G1 E0.80000 F2100.00000
G1 F1200
G1 X134.033 Y123.897 E0.02725
G1 X134.836 Y124.230 E0.02725
G1 X135.168 Y125.033 E0.02725
G1 X134.836 Y125.836 E0.02725
G1 X134.033 Y126.168 E0.02725
G1 X133.230 Y125.836 E0.02725
G1 X132.897 Y125.033 E0.02725
G1 X133.207 Y124.285 E0.02537
G1 X133.518 Y124.518 F10800.000
G1 F1200
G1 X134.033 Y124.305 E0.01745
G1 X134.547 Y124.518 E0.01745
G1 X134.760 Y125.033 E0.01745
G1 X134.547 Y125.547 E0.01745
G1 X134.033 Y125.760 E0.01745
G1 X133.518 Y125.547 E0.01745
G1 X133.305 Y125.033 E0.01745
G1 X133.495 Y124.574 E0.01557
G1 X133.415 Y124.132 F10800.000
G1 F8640
G1 X134.033 Y124.305 E-0.13867
G1 X134.547 Y124.518 E-0.12853
G1 X134.760 Y125.033 E-0.12853
G1 X134.547 Y125.547 E-0.12853
G1 X134.033 Y125.760 E-0.12853
G1 X133.604 Y125.582 E-0.10719
G1 E-0.04000 F2100.00000
G1 Z0.800 F10800.000
G1 X133.894 Y123.611
G1 Z0.200
G1 E0.80000 F2100.00000
G1 F1200
G1 X133.230 Y123.336 E0.02255
G1 X132.897 Y122.533 E0.02725
G1 X133.230 Y121.730 E0.02725
G1 X134.033 Y121.397 E0.02725
G1 X134.836 Y121.730 E0.02725
G1 X135.168 Y122.533 E0.02725
G1 X134.836 Y123.336 E0.02725
G1 X134.033 Y123.668 E0.02725
G1 X133.950 Y123.634 E0.00281
G1 X134.033 Y123.260 F10800.000
G1 F1200
G1 X133.518 Y123.047 E0.01745
G1 X133.305 Y122.533 E0.01745
G1 X133.518 Y122.018 E0.01745
G1 X134.033 Y121.805 E0.01745
G1 X134.547 Y122.018 E0.01745
G1 X134.760 Y122.533 E0.01745
G1 X134.547 Y123.047 E0.01745
G1 X134.088 Y123.237 E0.01557
G1 X133.833 Y123.606 F10800.000
G1 F8640
G1 X133.518 Y123.047 E-0.13868
G1 X133.305 Y122.533 E-0.12853
G1 X133.518 Y122.018 E-0.12853
G1 X134.033 Y121.805 E-0.12853
G1 X134.547 Y122.018 E-0.12853
G1 X134.725 Y122.447 E-0.10719
G1 E-0.04000 F2100.00000
G1 Z0.800 F10800.000
G1 X134.033 Y121.168
G1 Z0.200
G1 E0.80000 F2100.00000
G1 F1200
G1 X133.230 Y120.836 E0.02725
G1 X132.897 Y120.033 E0.02725
G1 X133.230 Y119.230 E0.02725
G1 X134.033 Y118.897 E0.02725
G1 X134.836 Y119.230 E0.02725
G1 X135.168 Y120.033 E0.02725
G1 X134.836 Y120.836 E0.02725
G1 X134.088 Y121.145 E0.02537
G1 X134.033 Y120.760 F10800.000
G1 F1200
G1 X133.518 Y120.547 E0.01745
G1 X133.305 Y120.033 E0.01745
G1 X133.518 Y119.518 E0.01745
G1 X134.033 Y119.305 E0.01745
G1 X134.547 Y119.518 E0.01745
G1 X134.760 Y120.033 E0.01745
G1 X134.547 Y120.547 E0.01745
G1 X134.088 Y120.737 E0.01557
G1 X133.833 Y121.106 F10800.000
G1 F8640
G1 X133.518 Y120.547 E-0.13868
G1 X133.305 Y120.033 E-0.12853
G1 X133.518 Y119.518 E-0.12853
G1 X134.033 Y119.305 E-0.12853
G1 X134.547 Y119.518 E-0.12853
G1 X134.725 Y119.947 E-0.10719
G1 E-0.04000 F2100.00000
G1 Z0.800 F10800.000
G1 X134.033 Y115.668
G1 Z0.200
G1 E0.80000 F2100.00000
G1 F1200
G1 X132.876 Y115.189 E0.03925
G1 X132.397 Y114.033 E0.03925
G1 X132.876 Y112.876 E0.03925
G1 X134.033 Y112.397 E0.03925
G1 X135.189 Y112.876 E0.03925
G1 X135.668 Y114.033 E0.03925
G1 X135.189 Y115.189 E0.03925
G1 X134.088 Y115.645 E0.03737
G1 X134.033 Y115.260 F10800.000
G1 F1200
G1 X133.165 Y114.901 E0.02945
G1 X132.805 Y114.033 E0.02945
G1 X133.165 Y113.165 E0.02945
G1 X134.033 Y112.805 E0.02945
G1 X134.901 Y113.165 E0.02945
G1 X135.260 Y114.033 E0.02945
G1 X134.901 Y114.901 E0.02945
G1 X134.088 Y115.237 E0.02757
G1 X133.833 Y115.606 F10800.000
G1 F8640
G1 X133.165 Y114.901 E-0.22690
G1 X132.805 Y114.033 E-0.21690
G1 X133.165 Y113.165 E-0.21690
G1 X133.562 Y113.000 E-0.09931
G1 E-0.04000 F2100.00000
G1 Z0.800 F10800.000
G1 X134.033 Y109.168
G1 Z0.200
G1 E0.80000 F2100.00000
G1 F1200
G1 X133.230 Y108.836 E0.02725
G1 X132.897 Y108.033 E0.02725
G1 X133.230 Y107.230 E0.02725
G1 X134.033 Y106.897 E0.02725
G1 X134.836 Y107.230 E0.02725
G1 X135.168 Y108.033 E0.02725
G1 X134.836 Y108.836 E0.02725
G1 X134.088 Y109.145 E0.02537
G1 X134.033 Y108.760 F10800.000
G1 F1200
G1 X133.518 Y108.547 E0.01745
G1 X133.305 Y108.033 E0.01745
G1 X133.518 Y107.518 E0.01745
G1 X134.033 Y107.305 E0.01745
G1 X134.547 Y107.518 E0.01745
G1 X134.760 Y108.033 E0.01745
G1 X134.547 Y108.547 E0.01745
G1 X134.088 Y108.737 E0.01557
G1 X133.833 Y109.106 F10800.000
G1 F8640
G1 X133.518 Y108.547 E-0.13868
G1 X133.305 Y108.033 E-0.12853
G1 X133.518 Y107.518 E-0.12853
G1 X134.033 Y107.305 E-0.12853
G1 X134.547 Y107.518 E-0.12853
G1 X134.725 Y107.947 E-0.10719
G1 E-0.04000 F2100.00000
G1 Z0.800 F10800.000
G1 X134.033 Y106.668
G1 Z0.200
G1 E0.80000 F2100.00000
G1 F1200
G1 X133.230 Y106.336 E0.02725
G1 X132.897 Y105.533 E0.02725
G1 X133.230 Y104.730 E0.02725
G1 X134.033 Y104.397 E0.02725
G1 X134.836 Y104.730 E0.02725
G1 X135.168 Y105.533 E0.02725
G1 X134.836 Y106.336 E0.02725
G1 X134.088 Y106.645 E0.02537
G1 X134.033 Y106.260 F10800.000
G1 F1200
G1 X133.518 Y106.047 E0.01745
G1 X133.305 Y105.533 E0.01745
G1 X133.518 Y105.018 E0.01745
G1 X134.033 Y104.805 E0.01745
G1 X134.547 Y105.018 E0.01745
G1 X134.760 Y105.533 E0.01745
G1 X134.547 Y106.047 E0.01745
G1 X134.088 Y106.237 E0.01557
G1 X133.833 Y106.606 F10800.000
G1 F8640
G1 X133.518 Y106.047 E-0.13868
G1 X133.305 Y105.533 E-0.12853
G1 X133.518 Y105.018 E-0.12853
G1 X134.033 Y104.805 E-0.12853
G1 X134.547 Y105.018 E-0.12853
G1 X134.725 Y105.447 E-0.10719
G1 E-0.04000 F2100.00000
G1 Z0.800 F10800.000
G1 X134.033 Y104.168
G1 Z0.200
G1 E0.80000 F2100.00000
G1 F1200
G1 X133.230 Y103.836 E0.02725
G1 X132.897 Y103.033 E0.02725
G1 X133.230 Y102.230 E0.02725
G1 X134.033 Y101.897 E0.02725
G1 X134.836 Y102.230 E0.02725
G1 X135.168 Y103.033 E0.02725
G1 X134.836 Y103.836 E0.02725
G1 X134.088 Y104.145 E0.02537
G1 X134.033 Y103.760 F10800.000
G1 F1200
G1 X133.518 Y103.547 E0.01745
G1 X133.305 Y103.033 E0.01745
G1 X133.518 Y102.518 E0.01745
G1 X134.033 Y102.305 E0.01745
G1 X134.547 Y102.518 E0.01745
G1 X134.760 Y103.033 E0.01745
G1 X134.547 Y103.547 E0.01745
G1 X134.088 Y103.737 E0.01557
G1 X133.833 Y104.106 F10800.000
G1 F8640
G1 X133.518 Y103.547 E-0.13868
G1 X133.305 Y103.033 E-0.12853
G1 X133.518 Y102.518 E-0.12853
G1 X134.033 Y102.305 E-0.12853
G1 X134.547 Y102.518 E-0.12853
G1 X134.725 Y102.947 E-0.10719
G1 E-0.04000 F2100.00000
G1 Z0.800 F10800.000
G1 X139.230 Y113.230
G1 Z0.200
G1 E0.80000 F2100.00000
G1 F1200
G1 X140.033 Y112.897 E0.02725
G1 X140.836 Y113.230 E0.02725
G1 X141.168 Y114.033 E0.02725
G1 X140.836 Y114.836 E0.02725
G1 X140.033 Y115.168 E0.02725
G1 X139.230 Y114.836 E0.02725
G1 X138.897 Y114.033 E0.02725
G1 X139.207 Y113.285 E0.02537
G1 X139.518 Y113.518 F10800.000
G1 F1200
G1 X140.033 Y113.305 E0.01745
G1 X140.547 Y113.518 E0.01745
G1 X140.760 Y114.033 E0.01745
G1 X140.547 Y114.547 E0.01745
G1 X140.033 Y114.760 E0.01745
G1 X139.518 Y114.547 E0.01745
G1 X139.305 Y114.033 E0.01745
G1 X139.495 Y113.574 E0.01557
G1 X139.415 Y113.132 F10800.000
G1 F8640
G1 X140.033 Y113.305 E-0.13867
G1 X140.547 Y113.518 E-0.12853
G1 X140.760 Y114.033 E-0.12853
G1 X140.547 Y114.547 E-0.12853
G1 X140.033 Y114.760 E-0.12853
G1 X139.604 Y114.582 E-0.10719
G1 E-0.04000 F2100.00000
G1 Z0.800 F10800.000
G1 X141.397 Y114.033
G1 Z0.200
G1 E0.80000 F2100.00000
G1 F1200
G1 X141.730 Y113.230 E0.02725
G1 X142.533 Y112.897 E0.02725
G1 X143.336 Y113.230 E0.02725
G1 X143.668 Y114.033 E0.02725
G1 X143.336 Y114.836 E0.02725
G1 X142.533 Y115.168 E0.02725
G1 X141.730 Y114.836 E0.02725
G1 X141.420 Y114.088 E0.02537
G1 X141.805 Y114.033 F10800.000
G1 F1200
G1 X142.018 Y113.518 E0.01745
G1 X142.533 Y113.305 E0.01745
G1 X143.047 Y113.518 E0.01745
G1 X143.260 Y114.033 E0.01745
G1 X143.047 Y114.547 E0.01745
G1 X142.533 Y114.760 E0.01745
G1 X142.018 Y114.547 E0.01745
G1 X141.828 Y114.088 E0.01557
G1 X141.459 Y113.833 F10800.000
G1 F8640
G1 X142.018 Y113.518 E-0.13868
G1 X142.533 Y113.305 E-0.12853
G1 X143.047 Y113.518 E-0.12853
G1 X143.260 Y114.033 E-0.12853
G1 X143.047 Y114.547 E-0.12853
G1 X142.618 Y114.725 E-0.10719
G1 E-0.04000 F2100.00000
G1 Z0.800 F10800.000
G1 X143.897 Y114.033
G1 Z0.200
G1 E0.80000 F2100.00000
G1 F1200
G1 X144.230 Y113.230 E0.02725
G1 X145.033 Y112.897 E0.02725
G1 X145.836 Y113.230 E0.02725
G1 X146.168 Y114.033 E0.02725
G1 X145.836 Y114.836 E0.02725
G1 X145.033 Y115.168 E0.02725
G1 X144.230 Y114.836 E0.02725
G1 X143.920 Y114.088 E0.02537
G1 X144.305 Y114.033 F10800.000
G1 F1200
G1 X144.518 Y113.518 E0.01745
G1 X145.033 Y113.305 E0.01745
G1 X145.547 Y113.518 E0.01745
G1 X145.760 Y114.033 E0.01745
G1 X145.547 Y114.547 E0.01745
G1 X145.033 Y114.760 E0.01745
G1 X144.518 Y114.547 E0.01745
G1 X144.328 Y114.088 E0.01557
G1 X143.959 Y113.833 F10800.000
G1 F8640
G1 X144.518 Y113.518 E-0.13868
G1 X145.033 Y113.305 E-0.12853
G1 X145.547 Y113.518 E-0.12853
G1 X145.760 Y114.033 E-0.12853
G1 X145.547 Y114.547 E-0.12853
G1 X145.118 Y114.725 E-0.10719
G1 E-0.04000 F2100.00000
G1 Z0.800 F10800.000
G1 X129.168 Y114.033
G1 Z0.200
G1 E0.80000 F2100.00000
G1 F1200
G1 X128.836 Y114.836 E0.02725
G1 X128.033 Y115.168 E0.02725
G1 X127.230 Y114.836 E0.02725
G1 X126.897 Y114.033 E0.02725
G1 X127.230 Y113.230 E0.02725
G1 X128.033 Y112.897 E0.02725
G1 X128.836 Y113.230 E0.02725
G1 X129.145 Y113.977 E0.02537
G1 X128.760 Y114.033 F10800.000
G1 F1200
G1 X128.547 Y114.547 E0.01745
G1 X128.033 Y114.760 E0.01745
G1 X127.518 Y114.547 E0.01745
G1 X127.305 Y114.033 E0.01745
G1 X127.518 Y113.518 E0.01745
G1 X128.033 Y113.305 E0.01745
G1 X128.547 Y113.518 E0.01745
G1 X128.737 Y113.977 E0.01557
G1 X129.106 Y114.233 F10800.000
G1 F8640
G1 X128.547 Y114.547 E-0.13868
G1 X128.033 Y114.760 E-0.12853
G1 X127.518 Y114.547 E-0.12853
G1 X127.305 Y114.033 E-0.12853
G1 X127.518 Y113.518 E-0.12853
G1 X127.947 Y113.341 E-0.10719
G1 E-0.04000 F2100.00000
G1 Z0.800 F10800.000
G1 X126.668 Y114.033
G1 Z0.200
G1 E0.80000 F2100.00000
G1 F1200
G1 X126.336 Y114.836 E0.02725
G1 X125.533 Y115.168 E0.02725
G1 X124.730 Y114.836 E0.02725
G1 X124.397 Y114.033 E0.02725
G1 X124.730 Y113.230 E0.02725
G1 X125.533 Y112.897 E0.02725
G1 X126.336 Y113.230 E0.02725
G1 X126.645 Y113.977 E0.02537
G1 X126.260 Y114.033 F10800.000
G1 F1200
G1 X126.047 Y114.547 E0.01745
G1 X125.533 Y114.760 E0.01745
G1 X125.018 Y114.547 E0.01745
G1 X124.805 Y114.033 E0.01745
G1 X125.018 Y113.518 E0.01745
G1 X125.533 Y113.305 E0.01745
G1 X126.047 Y113.518 E0.01745
G1 X126.237 Y113.977 E0.01557
G1 X126.606 Y114.233 F10800.000
G1 F8640
G1 X126.047 Y114.547 E-0.13868
G1 X125.533 Y114.760 E-0.12853
G1 X125.018 Y114.547 E-0.12853
G1 X124.805 Y114.033 E-0.12853
G1 X125.018 Y113.518 E-0.12853
G1 X125.447 Y113.341 E-0.10719
G1 E-0.04000 F2100.00000
G1 Z0.800 F10800.000
G1 X124.168 Y114.033
G1 Z0.200
G1 E0.80000 F2100.00000
G1 F1200
G1 X123.836 Y114.836 E0.02725
G1 X123.033 Y115.168 E0.02725
G1 X122.230 Y114.836 E0.02725
G1 X121.897 Y114.033 E0.02725
G1 X122.230 Y113.230 E0.02725
G1 X123.033 Y112.897 E0.02725
G1 X123.836 Y113.230 E0.02725
G1 X124.145 Y113.977 E0.02537
G1 X123.760 Y114.033 F10800.000
G1 F1200
G1 X123.547 Y114.547 E0.01745
G1 X123.033 Y114.760 E0.01745
G1 X122.518 Y114.547 E0.01745
G1 X122.305 Y114.033 E0.01745
G1 X122.518 Y113.518 E0.01745
G1 X123.033 Y113.305 E0.01745
G1 X123.547 Y113.518 E0.01745
G1 X123.737 Y113.977 E0.01557
G1 X124.106 Y114.233 F10800.000
G1 F8640
G1 X123.547 Y114.547 E-0.13868
G1 X123.033 Y114.760 E-0.12853
G1 X122.518 Y114.547 E-0.12853
G1 X122.305 Y114.033 E-0.12853
G1 X122.518 Y113.518 E-0.12853
G1 X122.947 Y113.341 E-0.10719
G1 E-0.04000 F2100.00000
G1 Z0.800 F10800.000
G1 X131.252 Y111.252
G1 Z0.200
G1 E0.80000 F2100.00000
G1 F1200
G1 X131.668 Y110.403 E0.02962
G1 X132.625 Y102.905 E0.23702
G1 X132.784 Y102.393 E0.01680
G1 X133.106 Y101.980 E0.01643
G1 X133.556 Y101.713 E0.01643
G1 X134.033 Y101.629 E0.01516
G1 X134.479 Y101.708 E0.01422
G1 X134.963 Y101.984 E0.01745
G1 X135.282 Y102.393 E0.01628
G1 X135.441 Y102.905 E0.01680
G1 X136.398 Y110.403 E0.23702
G1 X136.814 Y111.252 E0.02962
G1 X137.662 Y111.668 E0.02962
G1 X145.161 Y112.625 E0.23702
G1 X145.672 Y112.784 E0.01680
G1 X146.085 Y113.106 E0.01643
G1 X146.353 Y113.556 E0.01643
G1 X146.437 Y114.033 E0.01516
G1 X146.353 Y114.509 E0.01516
G1 X146.085 Y114.960 E0.01643
G1 X145.672 Y115.282 E0.01643
G1 X145.161 Y115.441 E0.01680
G1 X137.662 Y116.398 E0.23702
G1 X136.814 Y116.814 E0.02962
G1 X136.398 Y117.662 E0.02962
G1 X135.441 Y125.161 E0.23702
G1 X135.282 Y125.672 E0.01680
G1 X134.960 Y126.085 E0.01643
G1 X134.509 Y126.353 E0.01643
G1 X134.033 Y126.437 E0.01516
G1 X133.556 Y126.353 E0.01516
G1 X133.106 Y126.085 E0.01643
G1 X132.784 Y125.672 E0.01643
G1 X132.625 Y125.161 E0.01680
G1 X131.668 Y117.662 E0.23702
G1 X131.252 Y116.814 E0.02962
G1 X130.403 Y116.398 E0.02962
G1 X122.905 Y115.441 E0.23702
G1 X122.393 Y115.282 E0.01680
G1 X121.980 Y114.960 E0.01643
G1 X121.713 Y114.509 E0.01643
G1 X121.629 Y114.033 E0.01516
G1 X121.713 Y113.556 E0.01516
G1 X121.980 Y113.106 E0.01643
G1 X122.393 Y112.784 E0.01643
G1 X122.905 Y112.625 E0.01680
G1 X130.403 Y111.668 E0.23702
G1 X131.198 Y111.278 E0.02774
G1 X130.970 Y110.970 F10800.000
G1 F1200
G1 X131.302 Y110.294 E0.02362
G1 X132.255 Y102.824 E0.23609
G1 X132.444 Y102.216 E0.01999
G1 X132.852 Y101.692 E0.02082
G1 X133.423 Y101.353 E0.02082
G1 X134.033 Y101.246 E0.01940
G1 X134.610 Y101.348 E0.01837
G1 X135.214 Y101.693 E0.02184
G1 X135.621 Y102.216 E0.02076
G1 X135.811 Y102.824 E0.01999
G1 X136.764 Y110.294 E0.23609
G1 X137.095 Y110.970 E0.02362
G1 X137.772 Y111.302 E0.02362
G1 X145.241 Y112.255 E0.23609
G1 X145.850 Y112.444 E0.01999
G1 X146.373 Y112.852 E0.02082
G1 X146.712 Y113.423 E0.02082
G1 X146.819 Y114.033 E0.01940
G1 X146.712 Y114.642 E0.01940
G1 X146.373 Y115.213 E0.02082
G1 X145.850 Y115.621 E0.02082
G1 X145.241 Y115.811 E0.01999
G1 X137.772 Y116.764 E0.23609
G1 X137.095 Y117.095 E0.02362
G1 X136.764 Y117.772 E0.02362
G1 X135.811 Y125.241 E0.23609
G1 X135.621 Y125.850 E0.01999
G1 X135.213 Y126.373 E0.02082
G1 X134.642 Y126.712 E0.02082
G1 X134.033 Y126.819 E0.01940
G1 X133.423 Y126.712 E0.01940
G1 X132.852 Y126.373 E0.02082
