; generated by PrusaSlicer 2.0.0+linux64 on 2019-06-19 at 15:52:10

; 

; external perimeters extrusion width = 0.45mm
; perimeters extrusion width = 0.45mm
; infill extrusion width = 0.45mm
; solid infill extrusion width = 0.45mm
; top infill extrusion width = 0.40mm
; first layer extrusion width = 0.42mm

M73 P0 R129
M73 Q0 S131
M201 X1000 Y1000 Z1000 E5000 ; sets maximum accelerations, mm/sec^2
M203 X200 Y200 Z12 E120 ; sets maximum feedrates, mm/sec
M204 P1250 R1250 T1250 ; sets acceleration (P, T) and retract acceleration (R), mm/sec^2
M205 X8.00 Y8.00 Z0.40 E1.50 ; sets the jerk limits, mm/sec
M205 S0 T0 ; sets the minimum extruding and travel feed rate, mm/sec
M107
M115 U3.7.1 ; tell printer latest fw version
G90 ; use absolute coordinates
M83 ; extruder relative mode
M104 S215 ; set extruder temp
M140 S60 ; set bed temp
M190 S60 ; wait for bed temp
M109 S215 ; wait for extruder temp
G28 W ; home all without mesh bed level
G80 ; mesh bed leveling
G1 Y-3.0 F1000.0 ; go outside print area
G92 E0.0
G1 X60.0 E9.0 F1000.0 ; intro line
M73 Q0 S130
M73 P0 R128
G1 X100.0 E12.5 F1000.0 ; intro line
G92 E0.0
M221 S95
M900 K30 ; Filament gcode
G21 ; set units to millimeters
G90 ; use absolute coordinates
M83 ; use relative distances for extrusion
;BEFORE_LAYER_CHANGE
G92 E0.0
;0.2


G1 E-0.80000 F2100.00000
G1 Z0.600 F10800.000
;AFTER_LAYER_CHANGE
;0.2
G1 X96.129 Y81.560
G1 Z0.200
G1 E0.80000 F2100.00000
M204 S1000
G1 F1200
G1 X98.704 Y78.704 E0.12056
G1 X101.560 Y76.129 E0.12058
G1 X104.645 Y73.877 E0.11973
G1 X107.918 Y71.967 E0.11883
G1 X111.281 Y70.435 E0.11586
G1 X114.762 Y69.248 E0.11533
G1 X118.220 Y68.435 E0.11137
G1 X121.655 Y67.962 E0.10873
G1 X125.004 Y67.811 E0.10510
G1 X128.345 Y67.962 E0.10488
G1 X131.778 Y68.434 E0.10865
G1 X135.237 Y69.248 E0.11142
G1 X138.721 Y70.436 E0.11541
G1 X142.084 Y71.968 E0.11585
G1 X145.355 Y73.876 E0.11874
G1 X148.440 Y76.129 E0.11979
G1 X151.296 Y78.704 E0.12056
G1 X153.871 Y81.560 E0.12058
G1 X156.123 Y84.645 E0.11973
G1 X158.033 Y87.918 E0.11883
G1 X159.565 Y91.281 E0.11586
G1 X160.752 Y94.762 E0.11533
G1 X161.565 Y98.220 E0.11137
G1 X162.038 Y101.655 E0.10873
G1 X162.189 Y105.000 E0.10498
G1 X162.038 Y108.345 E0.10499
G1 X161.566 Y111.778 E0.10865
G1 X160.752 Y115.237 E0.11142
G1 X159.564 Y118.721 E0.11541
G1 X158.032 Y122.084 E0.11585
G1 X156.124 Y125.355 E0.11874
G1 X153.871 Y128.440 E0.11979
G1 X151.296 Y131.296 E0.12057
G1 X148.440 Y133.871 E0.12058
G1 X145.355 Y136.123 E0.11973
G1 X142.082 Y138.033 E0.11883
G1 X138.719 Y139.565 E0.11586
G1 X135.238 Y140.752 E0.11533
G1 X131.780 Y141.565 E0.11137
G1 X128.345 Y142.038 E0.10873
G1 X125.000 Y142.189 E0.10498
G1 X121.655 Y142.038 E0.10499
G1 X118.222 Y141.566 E0.10865
G1 X114.763 Y140.752 E0.11142
G1 X111.279 Y139.564 E0.11541
G1 X107.916 Y138.032 E0.11585
G1 X104.645 Y136.124 E0.11874
G1 X101.560 Y133.871 E0.11979
G1 X98.704 Y131.296 E0.12057
G1 X96.129 Y128.440 E0.12058
G1 X93.877 Y125.355 E0.11973
G1 X91.967 Y122.082 E0.11883
G1 X90.435 Y118.719 E0.11586
G1 X89.248 Y115.238 E0.11533
G1 X88.435 Y111.780 E0.11137
G1 X87.962 Y108.345 E0.10873
G1 X87.811 Y105.000 E0.10498
G1 X87.962 Y101.655 E0.10499
G1 X88.434 Y98.222 E0.10865
G1 X89.248 Y94.763 E0.11142
G1 X90.436 Y91.279 E0.11541
G1 X91.968 Y87.916 E0.11585
G1 X93.876 Y84.645 E0.11874
G1 X96.094 Y81.608 E0.11791
G1 F8640
G1 X98.294 Y79.160 E-0.76000
G1 E-0.04000 F2100.00000
G1 Z0.800 F10800.000
G1 X119.402 Y105.000
G1 Z0.200
G1 E0.80000 F2100.00000
G1 F1200
G1 X119.790 Y102.965 E0.06494
G1 X120.321 Y101.940 E0.03619
G1 X121.047 Y101.047 E0.03609
G1 X121.942 Y100.320 E0.03614
G1 X122.988 Y99.786 E0.03682
G1 X125.000 Y99.402 E0.06423
G1 X127.035 Y99.790 E0.06494
G1 X128.060 Y100.321 E0.03619
G1 X128.953 Y101.047 E0.03609
G1 X129.679 Y101.940 E0.03609
G1 X130.210 Y102.965 E0.03619
G1 X130.598 Y105.000 E0.06494
G1 X130.210 Y107.035 E0.06494
G1 X129.679 Y108.060 E0.03619
G1 X128.953 Y108.953 E0.03609
G1 X128.060 Y109.679 E0.03609
G1 X127.035 Y110.210 E0.03619
G1 X125.000 Y110.598 E0.06494
G1 X122.965 Y110.210 E0.06494
G1 X121.940 Y109.679 E0.03619
G1 X121.047 Y108.953 E0.03609
G1 X120.321 Y108.060 E0.03609
G1 X119.790 Y107.035 E0.03619
G1 X119.414 Y105.059 E0.06306
G1 X119.786 Y105.000 F10800.000
G1 F1200
G1 X120.151 Y103.090 E0.06096
G1 X120.638 Y102.148 E0.03326
G1 X121.315 Y101.315 E0.03365
G1 X122.149 Y100.638 E0.03367
G1 X123.111 Y100.146 E0.03389
G1 X125.000 Y99.786 E0.06029
G1 X126.910 Y100.151 E0.06096
G1 X127.852 Y100.638 E0.03326
G1 X128.685 Y101.315 E0.03365
G1 X129.362 Y102.148 E0.03365
G1 X129.849 Y103.090 E0.03326
G1 X130.214 Y105.000 E0.06096
G1 X129.849 Y106.910 E0.06096
G1 X129.362 Y107.852 E0.03326
G1 X128.685 Y108.685 E0.03365
G1 X127.852 Y109.362 E0.03365
G1 X126.910 Y109.849 E0.03326
G1 X125.000 Y110.214 E0.06096
G1 X123.090 Y109.849 E0.06096
G1 X122.148 Y109.362 E0.03326
G1 X121.315 Y108.685 E0.03365
G1 X120.638 Y107.852 E0.03365
G1 X120.151 Y106.910 E0.03326
G1 X119.797 Y105.059 E0.05908
G1 X119.446 Y104.790 F10800.000
G1 F8640
G1 X120.151 Y103.090 E-0.46186
G1 X120.638 Y102.148 E-0.24493
G1 X120.784 Y101.969 E-0.05321
G1 E-0.04000 F2100.00000
G1 Z0.800 F10800.000
G1 X119.913 Y86.837
G1 Z0.200
G1 E0.80000 F2100.00000
G1 F1200
G1 X119.913 Y84.087 E0.08622
G1 X106.713 Y84.087 E0.41388
G1 X106.713 Y81.663 E0.07601
G1 X143.287 Y81.663 E1.14676
G1 X143.287 Y84.087 E0.07601
G1 X130.087 Y84.087 E0.41388
G1 X130.087 Y86.837 E0.08622
G1 X119.973 Y86.837 E0.31712
G1 X120.290 Y86.460 F10800.000
G1 F1200
G1 X120.290 Y83.710 E0.08622
G1 X107.090 Y83.710 E0.41388
G1 X107.090 Y82.040 E0.05236
G1 X142.910 Y82.040 E1.12311
G1 X142.910 Y83.710 E0.05236
G1 X129.710 Y83.710 E0.41388
G1 X129.710 Y86.460 E0.08622
G1 X120.350 Y86.460 E0.29348
G1 X119.892 Y86.498 F10800.000
G1 F8640
G1 X120.290 Y83.710 E-0.63513
G1 X119.749 Y83.710 E-0.12487
G1 E-0.04000 F2100.00000
G1 Z0.800 F10800.000
G1 X115.532 Y71.916
G1 Z0.200
G1 E0.80000 F2100.00000
G1 F1200
G1 X118.739 Y71.162 E0.10330
G1 X121.908 Y70.727 E0.10032
G1 X125.000 Y70.588 E0.09703
G1 X127.988 Y70.722 E0.09377
G1 X131.262 Y71.162 E0.10359
G1 X134.468 Y71.916 E0.10327
G1 X137.667 Y73.004 E0.10592
G1 X140.805 Y74.432 E0.10811
G1 X143.831 Y76.197 E0.10982
G1 X146.690 Y78.284 E0.11099
G1 X149.333 Y80.667 E0.11158
G1 X151.716 Y83.310 E0.11158
G1 X153.803 Y86.169 E0.11099
G1 X155.568 Y89.195 E0.10982
G1 X156.996 Y92.333 E0.10811
G1 X158.084 Y95.532 E0.10592
G1 X158.838 Y98.739 E0.10330
G1 X159.273 Y101.908 E0.10032
G1 X159.412 Y105.000 E0.09703
G1 X159.273 Y108.092 E0.09703
G1 X158.838 Y111.261 E0.10032
G1 X158.084 Y114.468 E0.10330
G1 X156.996 Y117.667 E0.10592
G1 X155.568 Y120.805 E0.10811
G1 X153.803 Y123.831 E0.10982
G1 X151.716 Y126.690 E0.11099
G1 X149.333 Y129.333 E0.11158
G1 X146.690 Y131.716 E0.11158
G1 X143.831 Y133.803 E0.11099
G1 X140.805 Y135.568 E0.10982
G1 X137.667 Y136.996 E0.10811
G1 X134.468 Y138.084 E0.10592
G1 X131.261 Y138.838 E0.10330
G1 X128.092 Y139.273 E0.10032
G1 X125.000 Y139.412 E0.09703
G1 X121.908 Y139.273 E0.09703
G1 X118.739 Y138.838 E0.10032
G1 X115.532 Y138.084 E0.10330
G1 X112.333 Y136.996 E0.10592
G1 X109.195 Y135.568 E0.10811
G1 X106.169 Y133.803 E0.10982
G1 X103.310 Y131.716 E0.11099
G1 X100.667 Y129.333 E0.11158
G1 X98.284 Y126.690 E0.11158
G1 X96.197 Y123.831 E0.11099
G1 X94.432 Y120.805 E0.10982
G1 X93.004 Y117.667 E0.10811
G1 X91.916 Y114.468 E0.10592
G1 X91.162 Y111.261 E0.10330
G1 X90.727 Y108.092 E0.10032
G1 X90.588 Y105.000 E0.09703
G1 X90.727 Y101.908 E0.09703
G1 X91.162 Y98.739 E0.10032
G1 X91.916 Y95.532 E0.10330
G1 X93.004 Y92.333 E0.10592
G1 X94.432 Y89.195 E0.10811
G1 X96.197 Y86.169 E0.10982
G1 X98.284 Y83.310 E0.11099
G1 X100.667 Y80.667 E0.11158
G1 X103.310 Y78.284 E0.11158
G1 X106.169 Y76.197 E0.11099
G1 X109.195 Y74.432 E0.10982
G1 X112.333 Y73.004 E0.10811
G1 X115.475 Y71.935 E0.10404
G1 X115.353 Y71.578 F10800.000
G1 F1200
G1 X118.670 Y70.791 E0.10687
G1 X121.874 Y70.351 E0.10142
G1 X125.000 Y70.210 E0.09811
G1 X128.021 Y70.346 E0.09483
G1 X131.331 Y70.791 E0.10469
G1 X134.573 Y71.553 E0.10442
G1 X137.806 Y72.653 E0.10708
G1 X140.979 Y74.097 E0.10930
G1 X144.037 Y75.881 E0.11103
G1 X146.928 Y77.991 E0.11221
G1 X149.600 Y80.400 E0.11281
G1 X152.009 Y83.072 E0.11281
G1 X154.119 Y85.963 E0.11221
G1 X155.903 Y89.021 E0.11103
G1 X157.347 Y92.194 E0.10930
G1 X158.447 Y95.427 E0.10708
G1 X159.209 Y98.670 E0.10443
G1 X159.649 Y101.874 E0.10142
G1 X159.790 Y105.000 E0.09811
G1 X159.649 Y108.126 E0.09811
G1 X159.209 Y111.330 E0.10142
G1 X158.447 Y114.573 E0.10443
G1 X157.347 Y117.806 E0.10708
G1 X155.903 Y120.979 E0.10930
G1 X154.119 Y124.037 E0.11103
G1 X152.009 Y126.928 E0.11221
G1 X149.600 Y129.600 E0.11281
G1 X146.928 Y132.009 E0.11281
G1 X144.037 Y134.119 E0.11221
G1 X140.979 Y135.903 E0.11103
G1 X137.806 Y137.347 E0.10930
G1 X134.573 Y138.447 E0.10708
G1 X131.330 Y139.209 E0.10443
G1 X128.126 Y139.649 E0.10142
G1 X125.000 Y139.790 E0.09811
G1 X121.874 Y139.649 E0.09811
G1 X118.670 Y139.209 E0.10142
G1 X115.427 Y138.447 E0.10443
G1 X112.194 Y137.347 E0.10708
G1 X109.021 Y135.903 E0.10930
G1 X105.963 Y134.119 E0.11103
G1 X103.072 Y132.009 E0.11221
G1 X100.400 Y129.600 E0.11281
G1 X97.991 Y126.928 E0.11281
G1 X95.881 Y124.037 E0.11221
G1 X94.097 Y120.979 E0.11103
G1 X92.653 Y117.806 E0.10930
G1 X91.553 Y114.573 E0.10708
G1 X90.791 Y111.330 E0.10443
G1 X90.351 Y108.126 E0.10142
G1 X90.210 Y105.000 E0.09811
G1 X90.351 Y101.874 E0.09811
G1 X90.791 Y98.670 E0.10142
G1 X91.553 Y95.427 E0.10443
G1 X92.653 Y92.194 E0.10708
G1 X94.097 Y89.021 E0.10930
G1 X95.881 Y85.963 E0.11103
G1 X97.991 Y83.072 E0.11221
G1 X100.400 Y80.400 E0.11281
G1 X103.072 Y77.991 E0.11281
G1 X105.963 Y75.881 E0.11221
G1 X109.021 Y74.097 E0.11103
G1 X112.194 Y72.653 E0.10930
G1 X115.296 Y71.598 E0.10274
G1 X115.642 Y71.856 F10800.000
G1 F8640
G1 X118.498 Y70.832 E-0.76000
G1 E-0.04000 F2100.00000
G1 Z0.800 F10800.000
G1 X119.800 Y84.600
G1 Z0.200
G1 E0.80000 F2100.00000
G1 F1200
G1 X119.570 Y84.370 E0.01021
G1 X119.036 Y84.370 E0.01672
G1 X119.630 Y84.964 E0.02634
G1 X119.630 Y85.497 E0.01672
G1 X118.503 Y84.370 E0.04999
G1 X117.970 Y84.370 E0.01672
G1 X119.630 Y86.030 E0.07364
G1 X119.630 Y86.564 E0.01672
G1 X117.436 Y84.370 E0.09729
G1 X116.903 Y84.370 E0.01672
G1 X154.540 Y122.007 E1.66904
G1 X154.736 Y121.670 E0.01223
G1 X120.186 Y87.120 E1.53215
G1 X120.720 Y87.120 E0.01672
G1 X154.933 Y121.333 E1.51722
G1 X155.129 Y120.996 E0.01223
G1 X121.253 Y87.120 E1.50228
M73 Q0 S129
M73 P0 R127
G1 X121.786 Y87.120 E0.01672
G1 X155.324 Y120.658 E1.48728
G1 X155.491 Y120.291 E0.01263
G1 X122.320 Y87.120 E1.47103
G1 X122.853 Y87.120 E0.01672
G1 X155.658 Y119.925 E1.45477
G1 X155.825 Y119.558 E0.01263
G1 X123.386 Y87.120 E1.43852
G1 X123.920 Y87.120 E0.01672
G1 X155.991 Y119.192 E1.42226
G1 X156.158 Y118.825 E0.01263
G1 X124.453 Y87.120 E1.40601
G1 X124.986 Y87.120 E0.01672
G1 X156.325 Y118.459 E1.38976
G1 X156.492 Y118.092 E0.01263
G1 X125.520 Y87.120 E1.37350
G1 X126.053 Y87.120 E0.01672
G1 X156.659 Y117.726 E1.35725
G1 X156.808 Y117.342 E0.01292
G1 X126.586 Y87.120 E1.34022
G1 X127.120 Y87.120 E0.01672
G1 X156.943 Y116.944 E1.32257
G1 X157.079 Y116.546 E0.01318
G1 X127.653 Y87.120 E1.30493
G1 X128.186 Y87.120 E0.01672
G1 X157.214 Y116.148 E1.28728
G1 X157.349 Y115.750 E0.01318
G1 X128.720 Y87.120 E1.26963
G1 X129.253 Y87.120 E0.01672
G1 X157.485 Y115.352 E1.25198
G1 X157.620 Y114.954 E0.01318
G1 X129.786 Y87.120 E1.23433
G1 X130.319 Y87.120 E0.01672
G1 X157.756 Y114.556 E1.21668
G1 X157.871 Y114.138 E0.01359
G1 X130.370 Y86.637 E1.21958
G1 X130.370 Y86.104 E0.01672
G1 X157.973 Y113.706 E1.22408
G1 X158.074 Y113.275 E0.01391
G1 X130.370 Y85.570 E1.22858
G1 X130.370 Y85.037 E0.01672
G1 X158.176 Y112.843 E1.23308
G1 X158.277 Y112.411 E0.01391
G1 X130.370 Y84.504 E1.23758
G1 X130.370 Y84.370 E0.00419
G1 X130.769 Y84.370 E0.01253
G1 X158.379 Y111.979 E1.22436
G1 X158.480 Y111.547 E0.01391
G1 X131.303 Y84.370 E1.20521
G1 X131.836 Y84.370 E0.01672
G1 X158.574 Y111.107 E1.18570
G1 X158.638 Y110.638 E0.01484
G1 X132.369 Y84.370 E1.16491
G1 X132.903 Y84.370 E0.01672
G1 X158.702 Y110.169 E1.14411
G1 X158.767 Y109.701 E0.01484
G1 X133.436 Y84.370 E1.12332
G1 X133.969 Y84.370 E0.01672
G1 X158.831 Y109.232 E1.10252
M73 Q1 S128
M73 P1 R126
G1 X158.896 Y108.763 E0.01484
G1 X134.503 Y84.370 E1.08173
G1 X135.036 Y84.370 E0.01672
G1 X158.960 Y108.294 E1.06093
G1 X159.003 Y107.804 E0.01543
G1 X135.569 Y84.370 E1.03919
G1 X136.103 Y84.370 E0.01672
G1 X159.026 Y107.293 E1.01656
G1 X159.049 Y106.783 E0.01602
G1 X136.636 Y84.370 E0.99393
G1 X137.169 Y84.370 E0.01672
G1 X159.072 Y106.272 E0.97130
G1 X159.095 Y105.762 E0.01602
G1 X137.703 Y84.370 E0.94867
G1 X138.236 Y84.370 E0.01672
G1 X159.118 Y105.252 E0.92603
G1 X159.117 Y104.717 E0.01677
G1 X138.769 Y84.370 E0.90232
G1 X139.303 Y84.370 E0.01672
G1 X159.091 Y104.159 E0.87756
G1 X159.066 Y103.600 E0.01753
G1 X139.836 Y84.370 E0.85279
G1 X140.369 Y84.370 E0.01672
G1 X159.041 Y103.042 E0.82802
G1 X159.016 Y102.483 E0.01753
G1 X140.903 Y84.370 E0.80326
G1 X141.436 Y84.370 E0.01672
G1 X158.990 Y101.924 E0.77845
G1 X158.905 Y101.306 E0.01957
G1 X141.969 Y84.370 E0.75103
G1 X142.503 Y84.370 E0.01672
G1 X158.820 Y100.687 E0.72362
G1 X158.735 Y100.069 E0.01957
G1 X143.036 Y84.370 E0.69620
G1 X143.569 Y84.370 E0.01672
G1 X158.650 Y99.451 E0.66878
G1 X158.565 Y98.833 E0.01957
G1 X143.570 Y83.837 E0.66499
G1 X143.570 Y83.304 E0.01672
G1 X158.407 Y98.141 E0.65796
G1 X158.243 Y97.444 E0.02246
G1 X143.570 Y82.771 E0.65069
G1 X143.570 Y82.237 E0.01672
G1 X158.079 Y96.746 E0.64343
G1 X157.915 Y96.049 E0.02246
G1 X133.951 Y72.085 E1.06273
G1 X134.390 Y72.188 E0.01416
G1 X134.689 Y72.290 E0.00989
G1 X157.710 Y95.311 E1.02090
G1 X157.435 Y94.503 E0.02677
G1 X135.497 Y72.565 E0.97287
G1 X136.306 Y72.840 E0.02677
G1 X157.160 Y93.694 E0.92483
G1 X156.886 Y92.886 E0.02677
G1 X137.114 Y73.114 E0.87680
G1 X137.562 Y73.267 E0.01486
G1 X137.998 Y73.465 E0.01501
G1 X156.535 Y92.002 E0.82204
G1 X156.089 Y91.023 E0.03372
G1 X138.977 Y73.911 E0.75888
G1 X139.955 Y74.356 E0.03372
G1 X155.986 Y90.387 E0.71090
G1 F8640
G1 X153.659 Y88.059 E-0.76000
G1 E-0.04000 F2100.00000
G1 Z0.800 F10800.000
G1 X155.541 Y89.408
G1 Z0.200
G1 E0.80000 F2100.00000
G1 F1200
G1 X140.592 Y74.459 E0.66292
G1 F8640
G1 X142.919 Y76.787 E-0.76000
G1 E-0.04000 F2100.00000
G1 Z0.800 F10800.000
G1 X141.823 Y75.157
G1 Z0.200
G1 E0.80000 F2100.00000
G1 F1200
G1 X154.843 Y88.177 E0.57743
G1 F8640
G1 X152.516 Y85.850 E-0.76000
G1 E-0.04000 F2100.00000
G1 Z0.800 F10800.000
G1 X154.097 Y86.897
G1 Z0.200
G1 E0.80000 F2100.00000
G1 F1200
G1 X143.103 Y75.903 E0.48754
G1 F8640
G1 X145.430 Y78.231 E-0.76000
G1 E-0.04000 F2100.00000
G1 Z0.800 F10800.000
G1 X144.716 Y76.983
G1 Z0.200
G1 E0.80000 F2100.00000
G1 F1200
G1 X153.017 Y85.284 E0.36811
G1 F8640
G1 X150.689 Y82.957 E-0.76000
G1 E-0.04000 F2100.00000
G1 Z0.800 F10800.000
G1 X142.882 Y81.550
G1 Z0.200
G1 E0.80000 F2100.00000
G1 F1200
G1 X133.254 Y71.921 E0.42700
G1 X132.556 Y71.757 E0.02246
G1 X142.179 Y81.380 E0.42675
G1 X141.646 Y81.380 E0.01672
G1 X131.859 Y71.593 E0.43401
G1 X131.168 Y71.435 E0.02224
G1 X141.113 Y81.380 E0.44103
G1 X140.580 Y81.380 E0.01672
G1 X130.552 Y71.352 E0.44470
G1 X129.935 Y71.269 E0.01949
G1 X140.046 Y81.380 E0.44838
G1 X139.513 Y81.380 E0.01672
G1 X129.319 Y71.186 E0.45205
G1 X128.703 Y71.104 E0.01949
G1 X138.980 Y81.380 E0.45572
G1 X138.446 Y81.380 E0.01672
G1 X128.087 Y71.021 E0.45939
G1 X127.517 Y70.984 E0.01791
G1 X137.913 Y81.380 E0.46103
G1 X137.380 Y81.380 E0.01672
G1 X126.958 Y70.959 E0.46214
G1 X126.400 Y70.934 E0.01753
G1 X136.846 Y81.380 E0.46326
G1 X136.313 Y81.380 E0.01672
G1 X125.841 Y70.909 E0.46437
G1 X125.283 Y70.883 E0.01753
G1 X135.780 Y81.380 E0.46549
G1 X135.246 Y81.380 E0.01672
G1 X124.748 Y70.882 E0.46555
G1 X124.238 Y70.905 E0.01602
G1 X134.713 Y81.380 E0.46453
G1 X134.180 Y81.380 E0.01672
G1 X123.728 Y70.928 E0.46351
M73 Q2 S127
M73 P2 R125
G1 X123.217 Y70.951 E0.01602
G1 X133.646 Y81.380 E0.46249
G1 X133.113 Y81.380 E0.01672
G1 X122.707 Y70.974 E0.46147
G1 X122.196 Y70.997 E0.01602
G1 X132.580 Y81.380 E0.46045
