; generated by PrusaSlicer 2.0.0+linux64 on 2019-06-21 at 18:20:37

; 

; external perimeters extrusion width = 0.60mm
; perimeters extrusion width = 0.50mm
; infill extrusion width = 0.50mm
; solid infill extrusion width = 0.50mm
; top infill extrusion width = 0.45mm
; first layer extrusion width = 0.42mm

M73 P0 R43
M73 Q0 S43
M201 X1000 Y1000 Z1000 E5000 ; sets maximum accelerations, mm/sec^2
M203 X200 Y200 Z12 E120 ; sets maximum feedrates, mm/sec
M204 P1250 R1250 T1250 ; sets acceleration (P, T) and retract acceleration (R), mm/sec^2
M205 X8.00 Y8.00 Z0.40 E1.50 ; sets the jerk limits, mm/sec
M205 S0 T0 ; sets the minimum extruding and travel feed rate, mm/sec
M107
M115 U3.7.1 ; tell printer latest fw version
G90 ; use absolute coordinates
M83 ; extruder relative mode
M104 S215 ; set extruder temp
M140 S60 ; set bed temp
M190 S60 ; wait for bed temp
M109 S215 ; wait for extruder temp
G28 W ; home all without mesh bed level
G80 ; mesh bed leveling
G1 Y-3.0 F1000.0 ; go outside print area
G92 E0.0
G1 X60.0 E9.0 F1000.0 ; intro line
M73 Q0 S43
M73 P0 R43
G1 X100.0 E12.5 F1000.0 ; intro line
G92 E0.0
M221 S95
M900 K30 ; Filament gcode
G21 ; set units to millimeters
G90 ; use absolute coordinates
M83 ; use relative distances for extrusion
;BEFORE_LAYER_CHANGE
G92 E0.0
;0.2


G1 E-0.80000 F2100.00000
G1 Z0.600 F10800.000
;AFTER_LAYER_CHANGE
;0.2
G1 X96.129 Y81.560
G1 Z0.200
G1 E0.80000 F2100.00000
M204 S1000
G1 F1200
G1 X98.704 Y78.704 E0.12056
G1 X101.560 Y76.128 E0.12058
G1 X104.645 Y73.877 E0.11973
G1 X107.918 Y71.967 E0.11883
G1 X111.281 Y70.435 E0.11586
G1 X114.762 Y69.248 E0.11533
G1 X118.220 Y68.435 E0.11137
G1 X121.655 Y67.962 E0.10873
G1 X125.004 Y67.811 E0.10510
G1 X128.345 Y67.962 E0.10488
G1 X131.778 Y68.434 E0.10865
G1 X135.237 Y69.248 E0.11142
G1 X138.721 Y70.436 E0.11541
G1 X142.084 Y71.968 E0.11585
G1 X145.355 Y73.876 E0.11874
G1 X148.440 Y76.129 E0.11979
G1 X151.296 Y78.704 E0.12056
G1 X153.872 Y81.560 E0.12058
G1 X156.123 Y84.645 E0.11973
G1 X158.033 Y87.918 E0.11883
G1 X159.565 Y91.281 E0.11586
G1 X160.752 Y94.762 E0.11533
G1 X161.565 Y98.220 E0.11137
G1 X162.038 Y101.655 E0.10873
G1 X162.189 Y105.000 E0.10498
G1 X162.038 Y108.345 E0.10499
G1 X161.566 Y111.778 E0.10865
G1 X160.752 Y115.237 E0.11142
G1 X159.564 Y118.721 E0.11541
G1 X158.032 Y122.084 E0.11585
G1 X156.124 Y125.355 E0.11874
G1 X153.871 Y128.440 E0.11979
G1 X151.296 Y131.296 E0.12057
G1 X148.440 Y133.872 E0.12058
G1 X145.355 Y136.123 E0.11973
G1 X142.082 Y138.033 E0.11883
G1 X138.719 Y139.565 E0.11586
G1 X135.238 Y140.752 E0.11533
G1 X131.780 Y141.565 E0.11137
G1 X128.345 Y142.038 E0.10873
G1 X125.000 Y142.189 E0.10498
G1 X121.655 Y142.038 E0.10499
G1 X118.222 Y141.566 E0.10865
G1 X114.763 Y140.752 E0.11142
G1 X111.279 Y139.564 E0.11541
G1 X107.916 Y138.032 E0.11585
G1 X104.645 Y136.124 E0.11874
G1 X101.560 Y133.871 E0.11979
G1 X98.704 Y131.296 E0.12057
G1 X96.128 Y128.440 E0.12058
G1 X93.877 Y125.355 E0.11973
G1 X91.967 Y122.082 E0.11883
G1 X90.435 Y118.719 E0.11586
G1 X89.248 Y115.238 E0.11533
G1 X88.435 Y111.780 E0.11137
G1 X87.962 Y108.345 E0.10873
G1 X87.811 Y105.000 E0.10498
G1 X87.962 Y101.655 E0.10499
G1 X88.434 Y98.222 E0.10865
G1 X89.248 Y94.763 E0.11142
G1 X90.436 Y91.279 E0.11541
G1 X91.968 Y87.916 E0.11585
G1 X93.876 Y84.645 E0.11874
G1 X96.094 Y81.608 E0.11791
G1 F8640
G1 X98.294 Y79.160 E-0.76000
G1 E-0.04000 F2100.00000
G1 Z0.800 F10800.000
G1 X98.284 Y83.310
G1 Z0.200
G1 E0.80000 F2100.00000
G1 F1200
G1 X100.667 Y80.667 E0.11158
G1 X103.310 Y78.284 E0.11158
G1 X106.169 Y76.197 E0.11099
G1 X109.195 Y74.432 E0.10982
G1 X112.333 Y73.004 E0.10811
G1 X115.532 Y71.916 E0.10592
G1 X118.739 Y71.162 E0.10330
G1 X121.908 Y70.727 E0.10032
G1 X125.000 Y70.588 E0.09703
G1 X128.053 Y70.725 E0.09581
G1 X131.262 Y71.162 E0.10155
G1 X134.468 Y71.916 E0.10329
G1 X137.667 Y73.004 E0.10592
G1 X140.805 Y74.432 E0.10811
G1 X143.831 Y76.197 E0.10982
G1 X146.690 Y78.284 E0.11099
G1 X149.333 Y80.667 E0.11158
G1 X151.716 Y83.310 E0.11158
G1 X153.803 Y86.169 E0.11099
G1 X155.568 Y89.195 E0.10982
G1 X156.996 Y92.333 E0.10811
G1 X158.084 Y95.532 E0.10592
G1 X158.838 Y98.739 E0.10330
G1 X159.273 Y101.908 E0.10032
G1 X159.412 Y105.000 E0.09703
G1 X159.273 Y108.092 E0.09703
G1 X158.838 Y111.261 E0.10032
G1 X158.084 Y114.468 E0.10330
G1 X156.996 Y117.667 E0.10592
G1 X155.568 Y120.805 E0.10811
G1 X153.803 Y123.831 E0.10982
G1 X151.716 Y126.690 E0.11099
G1 X149.333 Y129.333 E0.11158
G1 X146.690 Y131.716 E0.11158
G1 X143.831 Y133.803 E0.11099
G1 X140.805 Y135.568 E0.10982
G1 X137.667 Y136.996 E0.10811
G1 X134.468 Y138.084 E0.10592
G1 X131.261 Y138.838 E0.10330
G1 X128.092 Y139.273 E0.10032
G1 X125.000 Y139.412 E0.09703
G1 X121.908 Y139.273 E0.09703
G1 X118.739 Y138.838 E0.10032
G1 X115.532 Y138.084 E0.10330
G1 X112.333 Y136.996 E0.10592
G1 X109.195 Y135.568 E0.10811
G1 X106.169 Y133.803 E0.10982
G1 X103.310 Y131.716 E0.11099
G1 X100.667 Y129.333 E0.11158
G1 X98.284 Y126.690 E0.11158
G1 X96.197 Y123.831 E0.11099
G1 X94.432 Y120.805 E0.10982
G1 X93.004 Y117.667 E0.10811
G1 X91.916 Y114.468 E0.10592
G1 X91.162 Y111.261 E0.10330
G1 X90.727 Y108.092 E0.10032
G1 X90.588 Y105.000 E0.09703
G1 X90.727 Y101.908 E0.09703
G1 X91.162 Y98.739 E0.10032
G1 X91.916 Y95.532 E0.10330
G1 X93.004 Y92.333 E0.10592
G1 X94.432 Y89.195 E0.10811
G1 X96.197 Y86.169 E0.10982
G1 X98.249 Y83.359 E0.10911
G1 X97.944 Y83.136 F10800.000
G1 F1200
G1 X100.400 Y80.400 E0.11529
G1 X103.072 Y77.991 E0.11281
G1 X105.963 Y75.881 E0.11221
G1 X109.021 Y74.097 E0.11103
G1 X112.194 Y72.653 E0.10930
G1 X115.427 Y71.553 E0.10708
G1 X118.670 Y70.791 E0.10443
G1 X121.874 Y70.351 E0.10142
G1 X125.000 Y70.210 E0.09811
G1 X128.087 Y70.349 E0.09688
G1 X131.330 Y70.791 E0.10265
G1 X134.573 Y71.553 E0.10443
G1 X137.806 Y72.653 E0.10708
G1 X140.979 Y74.097 E0.10930
G1 X144.037 Y75.881 E0.11103
G1 X146.928 Y77.991 E0.11221
G1 X149.600 Y80.400 E0.11281
G1 X152.009 Y83.072 E0.11281
G1 X154.119 Y85.963 E0.11221
G1 X155.903 Y89.021 E0.11103
G1 X157.347 Y92.194 E0.10930
G1 X158.447 Y95.427 E0.10708
G1 X159.209 Y98.670 E0.10443
G1 X159.649 Y101.874 E0.10142
G1 X159.790 Y105.000 E0.09811
G1 X159.649 Y108.126 E0.09811
G1 X159.209 Y111.330 E0.10142
G1 X158.447 Y114.573 E0.10443
G1 X157.347 Y117.806 E0.10708
G1 X155.903 Y120.979 E0.10930
G1 X154.119 Y124.037 E0.11103
G1 X152.009 Y126.928 E0.11221
G1 X149.600 Y129.600 E0.11281
G1 X146.928 Y132.009 E0.11281
G1 X144.037 Y134.119 E0.11221
G1 X140.979 Y135.903 E0.11103
G1 X137.806 Y137.347 E0.10930
G1 X134.573 Y138.447 E0.10708
G1 X131.330 Y139.209 E0.10443
G1 X128.126 Y139.649 E0.10142
G1 X125.000 Y139.790 E0.09811
G1 X121.874 Y139.649 E0.09811
G1 X118.670 Y139.209 E0.10142
G1 X115.427 Y138.447 E0.10443
G1 X112.194 Y137.347 E0.10708
G1 X109.021 Y135.903 E0.10930
G1 X105.963 Y134.119 E0.11103
G1 X103.072 Y132.009 E0.11221
G1 X100.400 Y129.600 E0.11281
G1 X97.991 Y126.928 E0.11281
G1 X95.881 Y124.037 E0.11221
G1 X94.097 Y120.979 E0.11103
G1 X92.653 Y117.806 E0.10930
G1 X91.553 Y114.573 E0.10708
G1 X90.791 Y111.330 E0.10443
G1 X90.351 Y108.126 E0.10142
G1 X90.210 Y105.000 E0.09811
G1 X90.351 Y101.874 E0.09811
G1 X90.791 Y98.670 E0.10142
G1 X91.553 Y95.427 E0.10443
G1 X92.653 Y92.194 E0.10708
G1 X94.097 Y89.021 E0.10930
G1 X95.881 Y85.963 E0.11103
G1 X97.909 Y83.185 E0.10783
G1 X98.339 Y83.199 F10800.000
G1 F8640
G1 X100.103 Y80.732 E-0.76000
G1 E-0.04000 F2100.00000
G1 Z0.800 F10800.000
G1 X100.827 Y80.912
G1 Z0.200
G1 E0.80000 F2100.00000
G1 F1200
G1 X98.504 Y83.489 E0.10880
G1 X96.434 Y86.324 E0.11009
G1 X94.684 Y89.325 E0.10893
G1 X93.267 Y92.438 E0.10724
G1 X92.188 Y95.610 E0.10506
G1 X91.441 Y98.790 E0.10246
G1 X91.009 Y101.934 E0.09950
G1 X90.871 Y105.000 E0.09624
G1 X91.009 Y108.066 E0.09624
G1 X91.441 Y111.210 E0.09950
G1 X92.188 Y114.390 E0.10246
G1 X93.267 Y117.562 E0.10506
G1 X94.684 Y120.675 E0.10724
G1 X96.434 Y123.676 E0.10893
G1 X98.504 Y126.511 E0.11009
G1 X100.867 Y129.133 E0.11068
G1 X103.489 Y131.496 E0.11068
G1 X106.324 Y133.566 E0.11009
G1 X109.325 Y135.316 E0.10893
G1 X112.438 Y136.733 E0.10724
G1 X115.610 Y137.812 E0.10506
G1 X118.790 Y138.560 E0.10246
G1 X121.934 Y138.991 E0.09950
G1 X125.000 Y139.129 E0.09624
G1 X128.066 Y138.991 E0.09624
G1 X131.210 Y138.560 E0.09950
G1 X134.390 Y137.812 E0.10246
G1 X137.562 Y136.733 E0.10506
G1 X140.675 Y135.316 E0.10724
G1 X143.676 Y133.566 E0.10893
G1 X146.511 Y131.496 E0.11009
G1 X149.133 Y129.133 E0.11068
G1 X151.496 Y126.511 E0.11068
G1 X153.566 Y123.676 E0.11009
G1 X155.316 Y120.675 E0.10893
G1 X156.733 Y117.562 E0.10724
G1 X157.812 Y114.390 E0.10506
G1 X158.560 Y111.210 E0.10246
G1 X158.991 Y108.066 E0.09950
G1 X159.129 Y105.000 E0.09624
G1 X158.991 Y101.934 E0.09624
G1 X158.560 Y98.790 E0.09950
G1 X157.812 Y95.610 E0.10246
G1 X156.733 Y92.438 E0.10506
G1 X155.316 Y89.325 E0.10724
G1 X153.566 Y86.324 E0.10893
G1 X151.496 Y83.489 E0.11009
G1 X149.133 Y80.867 E0.11068
G1 X146.511 Y78.504 E0.11068
G1 X143.676 Y76.434 E0.11009
G1 X140.675 Y74.684 E0.10893
G1 X137.562 Y73.267 E0.10724
G1 X134.390 Y72.188 E0.10506
G1 X131.210 Y71.441 E0.10244
G1 X128.027 Y71.007 E0.10073
G1 X125.000 Y70.871 E0.09502
G1 X121.934 Y71.009 E0.09624
G1 X118.790 Y71.441 E0.09950
G1 X115.610 Y72.188 E0.10246
G1 X112.438 Y73.267 E0.10506
G1 X109.325 Y74.684 E0.10724
G1 X106.324 Y76.434 E0.10893
G1 X103.489 Y78.504 E0.11009
G1 X100.867 Y80.867 E0.11068
G1 X101.134 Y81.134 F10800.000
G1 F1200
G1 X103.727 Y78.797 E0.10946
G1 X106.531 Y76.750 E0.10887
G1 X109.499 Y75.019 E0.10773
G1 X112.577 Y73.618 E0.10605
G1 X115.714 Y72.551 E0.10390
G1 X118.859 Y71.812 E0.10133
G1 X121.968 Y71.385 E0.09840
G1 X125.000 Y71.248 E0.09517
G1 X127.993 Y71.383 E0.09395
G1 X131.141 Y71.812 E0.09963
G1 X134.286 Y72.551 E0.10130
G1 X137.423 Y73.618 E0.10390
G1 X140.501 Y75.019 E0.10605
G1 X143.469 Y76.750 E0.10773
G1 X146.273 Y78.797 E0.10887
G1 X148.866 Y81.134 E0.10946
G1 X151.203 Y83.727 E0.10946
G1 X153.250 Y86.531 E0.10887
G1 X154.981 Y89.499 E0.10773
G1 X156.382 Y92.577 E0.10605
G1 X157.449 Y95.714 E0.10390
G1 X158.188 Y98.859 E0.10133
G1 X158.615 Y101.968 E0.09840
G1 X158.752 Y105.000 E0.09517
G1 X158.615 Y108.032 E0.09517
G1 X158.188 Y111.141 E0.09840
G1 X157.449 Y114.286 E0.10133
G1 X156.382 Y117.423 E0.10390
G1 X154.981 Y120.501 E0.10605
G1 X153.250 Y123.469 E0.10773
G1 X151.203 Y126.273 E0.10887
G1 X148.866 Y128.866 E0.10946
G1 X146.273 Y131.203 E0.10946
G1 X143.469 Y133.250 E0.10887
G1 X140.501 Y134.981 E0.10773
G1 X137.423 Y136.382 E0.10605
G1 X134.286 Y137.449 E0.10390
G1 X131.141 Y138.188 E0.10133
G1 X128.032 Y138.615 E0.09840
G1 X125.000 Y138.752 E0.09517
G1 X121.968 Y138.615 E0.09517
G1 X118.859 Y138.188 E0.09840
G1 X115.714 Y137.449 E0.10133
G1 X112.577 Y136.382 E0.10390
G1 X109.499 Y134.981 E0.10605
G1 X106.531 Y133.250 E0.10773
G1 X103.727 Y131.203 E0.10887
G1 X101.134 Y128.866 E0.10946
G1 X98.797 Y126.273 E0.10946
G1 X96.750 Y123.469 E0.10887
G1 X95.019 Y120.501 E0.10773
G1 X93.618 Y117.423 E0.10605
G1 X92.551 Y114.286 E0.10390
G1 X91.812 Y111.141 E0.10133
G1 X91.385 Y108.032 E0.09840
G1 X91.248 Y105.000 E0.09517
G1 X91.385 Y101.968 E0.09517
G1 X91.812 Y98.859 E0.09840
G1 X92.551 Y95.714 E0.10133
G1 X93.618 Y92.577 E0.10390
G1 X95.019 Y89.499 E0.10605
G1 X96.750 Y86.531 E0.10773
G1 X98.797 Y83.727 E0.10887
G1 X101.094 Y81.179 E0.10757
G1 X101.361 Y81.446 F10800.000
G1 F1200
G1 X99.090 Y83.965 E0.10635
G1 X97.066 Y86.738 E0.10766
G1 X95.354 Y89.672 E0.10652
G1 X93.969 Y92.716 E0.10487
G1 X92.914 Y95.818 E0.10274
G1 X92.183 Y98.928 E0.10019
M73 Q2 S42
G1 X91.761 Y102.002 E0.09730
M73 P2 R42
G1 X91.626 Y105.000 E0.09409
G1 X91.761 Y107.998 E0.09409
G1 X92.183 Y111.072 E0.09730
G1 X92.914 Y114.182 E0.10019
G1 X93.969 Y117.284 E0.10274
G1 X95.354 Y120.328 E0.10487
G1 X97.066 Y123.262 E0.10652
G1 X99.090 Y126.035 E0.10766
G1 X101.401 Y128.599 E0.10823
G1 X103.965 Y130.910 E0.10823
G1 X106.738 Y132.934 E0.10766
G1 X109.672 Y134.646 E0.10652
G1 X112.716 Y136.031 E0.10487
G1 X115.818 Y137.086 E0.10274
G1 X118.928 Y137.817 E0.10019
G1 X122.002 Y138.239 E0.09730
G1 X125.000 Y138.374 E0.09409
G1 X127.998 Y138.239 E0.09409
G1 X131.072 Y137.817 E0.09730
G1 X134.182 Y137.086 E0.10019
G1 X137.284 Y136.031 E0.10274
G1 X140.328 Y134.646 E0.10487
G1 X143.262 Y132.934 E0.10652
G1 X146.035 Y130.910 E0.10766
G1 X148.599 Y128.599 E0.10823
G1 X150.910 Y126.035 E0.10823
G1 X152.934 Y123.262 E0.10766
G1 X154.646 Y120.328 E0.10652
G1 X156.031 Y117.284 E0.10487
G1 X157.086 Y114.182 E0.10274
G1 X157.817 Y111.072 E0.10019
G1 X158.239 Y107.998 E0.09730
G1 X158.374 Y105.000 E0.09409
G1 X158.239 Y102.002 E0.09409
G1 X157.817 Y98.928 E0.09730
G1 X157.086 Y95.818 E0.10019
G1 X156.031 Y92.716 E0.10274
G1 X154.646 Y89.672 E0.10487
G1 X152.934 Y86.738 E0.10652
G1 X150.910 Y83.965 E0.10766
G1 X148.599 Y81.401 E0.10823
G1 X146.035 Y79.090 E0.10823
G1 X143.262 Y77.066 E0.10766
G1 X140.328 Y75.354 E0.10652
G1 X137.284 Y73.969 E0.10487
G1 X134.182 Y72.914 E0.10274
G1 X131.073 Y72.183 E0.10017
G1 X127.959 Y71.759 E0.09853
G1 X125.000 Y71.626 E0.09289
G1 X122.002 Y71.761 E0.09409
G1 X118.928 Y72.183 E0.09730
G1 X115.818 Y72.914 E0.10019
G1 X112.716 Y73.969 E0.10274
G1 X109.672 Y75.354 E0.10487
G1 X106.738 Y77.066 E0.10652
G1 X103.965 Y79.090 E0.10766
G1 X101.401 Y81.401 E0.10823
G1 X101.668 Y81.668 F10800.000
G1 F1200
G1 X104.203 Y79.383 E0.10701
G1 X106.945 Y77.382 E0.10644
G1 X109.846 Y75.690 E0.10532
G1 X112.855 Y74.320 E0.10368
G1 X115.922 Y73.277 E0.10158
G1 X118.997 Y72.554 E0.09906
G1 X122.037 Y72.137 E0.09620
G1 X125.000 Y72.003 E0.09302
G1 X127.925 Y72.135 E0.09182
G1 X131.004 Y72.554 E0.09743
G1 X134.078 Y73.277 E0.09903
G1 X137.145 Y74.320 E0.10158
G1 X140.154 Y75.690 E0.10368
G1 X143.055 Y77.382 E0.10532
G1 X145.797 Y79.383 E0.10644
G1 X148.332 Y81.668 E0.10701
G1 X150.617 Y84.203 E0.10701
G1 X152.618 Y86.945 E0.10644
G1 X154.310 Y89.846 E0.10532
G1 X155.680 Y92.855 E0.10368
G1 X156.723 Y95.922 E0.10158
G1 X157.446 Y98.997 E0.09906
G1 X157.863 Y102.037 E0.09620
G1 X157.997 Y105.000 E0.09302
G1 X157.863 Y107.963 E0.09302
G1 X157.446 Y111.003 E0.09620
G1 X156.723 Y114.078 E0.09906
G1 X155.680 Y117.145 E0.10158
G1 X154.310 Y120.154 E0.10368
G1 X152.618 Y123.055 E0.10532
G1 X150.617 Y125.797 E0.10644
G1 X148.332 Y128.332 E0.10701
G1 X145.797 Y130.617 E0.10701
G1 X143.055 Y132.618 E0.10644
G1 X140.154 Y134.310 E0.10532
G1 X137.145 Y135.680 E0.10368
G1 X134.078 Y136.723 E0.10158
G1 X131.003 Y137.446 E0.09906
G1 X127.963 Y137.863 E0.09620
G1 X125.000 Y137.997 E0.09302
G1 X122.037 Y137.863 E0.09302
G1 X118.997 Y137.446 E0.09620
G1 X115.922 Y136.723 E0.09906
G1 X112.855 Y135.680 E0.10158
G1 X109.846 Y134.310 E0.10368
G1 X106.945 Y132.618 E0.10532
G1 X104.203 Y130.617 E0.10644
G1 X101.668 Y128.332 E0.10701
G1 X99.383 Y125.797 E0.10701
G1 X97.382 Y123.055 E0.10644
G1 X95.690 Y120.154 E0.10532
G1 X94.320 Y117.145 E0.10368
G1 X93.277 Y114.078 E0.10158
G1 X92.554 Y111.003 E0.09906
G1 X92.137 Y107.963 E0.09620
G1 X92.003 Y105.000 E0.09302
G1 X92.137 Y102.037 E0.09302
G1 X92.554 Y98.997 E0.09620
G1 X93.277 Y95.922 E0.09906
G1 X94.320 Y92.855 E0.10158
G1 X95.690 Y89.846 E0.10368
G1 X97.382 Y86.945 E0.10532
G1 X99.383 Y84.203 E0.10644
G1 X101.628 Y81.713 E0.10513
G1 X101.895 Y81.980 F10800.000
G1 F1200
G1 X99.676 Y84.441 E0.10391
G1 X97.698 Y87.151 E0.10522
G1 X96.025 Y90.019 E0.10412
G1 X94.671 Y92.994 E0.10250
G1 X93.640 Y96.026 E0.10042
G1 X92.925 Y99.066 E0.09793
G1 X92.513 Y102.071 E0.09510
G1 X92.381 Y105.000 E0.09194
G1 X92.513 Y107.929 E0.09194
G1 X92.925 Y110.934 E0.09510
G1 X93.640 Y113.974 E0.09793
G1 X94.671 Y117.006 E0.10042
G1 X96.025 Y119.981 E0.10250
G1 X97.698 Y122.849 E0.10412
G1 X99.676 Y125.559 E0.10522
G1 X101.935 Y128.065 E0.10579
G1 X104.441 Y130.324 E0.10579
G1 X107.151 Y132.302 E0.10522
G1 X110.019 Y133.975 E0.10412
G1 X112.994 Y135.329 E0.10250
G1 X116.026 Y136.360 E0.10042
G1 X119.066 Y137.075 E0.09793
G1 X122.071 Y137.487 E0.09510
G1 X125.000 Y137.619 E0.09194
G1 X127.929 Y137.487 E0.09194
G1 X130.934 Y137.075 E0.09510
G1 X133.974 Y136.360 E0.09793
G1 X137.006 Y135.329 E0.10042
G1 X139.981 Y133.975 E0.10250
G1 X142.849 Y132.302 E0.10412
