; generated by PrusaSlicer 2.0.0+linux64 on 2019-09-08 at 15:02:01

; 

; external perimeters extrusion width = 0.60mm
; perimeters extrusion width = 0.50mm
; infill extrusion width = 0.50mm
; solid infill extrusion width = 0.50mm
; top infill extrusion width = 0.45mm
; first layer extrusion width = 0.42mm

M73 P0 R285
M73 Q0 S293
M201 X1000 Y1000 Z1000 E5000 ; sets maximum accelerations, mm/sec^2
M203 X200 Y200 Z12 E120 ; sets maximum feedrates, mm/sec
M204 P1250 R1250 T1250 ; sets acceleration (P, T) and retract acceleration (R), mm/sec^2
M205 X8.00 Y8.00 Z0.40 E1.50 ; sets the jerk limits, mm/sec
M205 S0 T0 ; sets the minimum extruding and travel feed rate, mm/sec
M107
M115 U3.7.2 ; tell printer latest fw version
G90 ; use absolute coordinates
M83 ; extruder relative mode
M104 S215 ; set extruder temp
M140 S60 ; set bed temp
M190 S60 ; wait for bed temp
M109 S215 ; wait for extruder temp
G28 W ; home all without mesh bed level
G80 ; mesh bed leveling
G1 Y-3.0 F1000.0 ; go outside print area
G92 E0.0
G1 X60.0 E9.0 F1000.0 ; intro line
M73 Q0 S293
M73 P0 R285
G1 X100.0 E12.5 F1000.0 ; intro line
G92 E0.0
M221 S95
M900 K30 ; Filament gcode
G21 ; set units to millimeters
G90 ; use absolute coordinates
M83 ; use relative distances for extrusion
;BEFORE_LAYER_CHANGE
G92 E0.0
;0.2


G1 E-0.80000 F2100.00000
G1 Z0.600 F10800.000
;AFTER_LAYER_CHANGE
;0.2
G1 X40.272 Y61.967
G1 Z0.200
G1 E0.80000 F2100.00000
M204 S1000
G1 F1200
G1 X40.719 Y61.616 E0.01783
G1 X72.336 Y43.239 E1.14660
G1 X112.624 Y20.102 E1.45669
G1 X113.150 Y19.886 E0.01783
G1 X113.717 Y19.812 E0.01794
G1 X114.277 Y19.886 E0.01771
G1 X114.803 Y20.103 E0.01783
G1 X186.690 Y61.607 E2.60266
G1 X187.283 Y62.110 E0.02439
G1 X187.647 Y62.748 E0.02304
G1 X187.780 Y63.471 E0.02304
G1 X187.887 Y110.000 E1.45889
G1 X187.780 Y146.539 E1.14566
G1 X187.623 Y147.316 E0.02484
G1 X187.199 Y147.985 E0.02484
G1 X186.691 Y148.393 E0.02044
G1 X114.804 Y189.897 E2.60266
G1 X114.275 Y190.115 E0.01794
G1 X113.711 Y190.188 E0.01783
G1 X113.158 Y190.116 E0.01749
G1 X112.638 Y189.906 E0.01760
G1 X80.955 Y171.737 E1.14512
G1 X40.724 Y148.386 E1.45851
G1 X40.283 Y148.045 E0.01749
G1 X39.943 Y147.603 E0.01749
G1 X39.721 Y147.075 E0.01794
G1 X39.644 Y146.508 E0.01794
G1 X39.644 Y63.500 E2.60266
G1 X39.717 Y62.940 E0.01771
G1 X39.931 Y62.417 E0.01771
G1 X40.236 Y62.014 E0.01583
G1 F8640
G1 X40.719 Y61.616 E-0.14471
G1 X43.023 Y60.277 E-0.61529
G1 E-0.04000 F2100.00000
G1 Z0.800 F10800.000
G1 X116.260 Y109.413
G1 Z0.200
G1 E0.80000 F2100.00000
G1 F1200
G1 X177.519 Y109.413 E1.92072
G1 X177.519 Y141.839 E1.01669
G1 X113.713 Y178.677 E2.31010
G1 X85.631 Y162.464 E1.01669
G1 X116.230 Y109.465 E1.91884
G1 X116.478 Y109.790 F10800.000
G1 F1200
G1 X177.142 Y109.790 E1.90207
G1 X177.142 Y141.621 E0.99804
G1 X113.713 Y178.242 E2.29645
G1 X86.146 Y162.326 E0.99804
G1 X116.448 Y109.842 E1.90019
G1 X116.483 Y109.390 F10800.000
G1 F8640
G1 X119.739 Y109.839 E-0.76000
G1 E-0.04000 F2100.00000
G1 Z0.800 F10800.000
G1 X77.988 Y51.948
G1 Z0.200
G1 E0.80000 F2100.00000
G1 F1200
G1 X108.617 Y105.000 E1.92072
M73 Q0 S292
G1 X77.988 Y158.052 E1.92072
M73 P0 R284
G1 X49.906 Y141.839 E1.01669
G1 X49.906 Y68.161 E2.31010
G1 X77.936 Y51.978 E1.01480
G1 X77.850 Y52.464 F10800.000
G1 F1200
G1 X108.181 Y105.000 E1.90207
G1 X77.850 Y157.536 E1.90207
G1 X50.283 Y141.621 E0.99804
G1 X50.283 Y68.379 E2.29645
G1 X77.798 Y52.494 E0.99616
G1 X78.136 Y52.184 F10800.000
G1 F8640
G1 X79.446 Y55.342 E-0.76000
G1 E-0.04000 F2100.00000
G1 Z0.800 F10800.000
G1 X113.713 Y31.323
G1 Z0.200
G1 E0.80000 F2100.00000
G1 F1200
G1 X177.519 Y68.161 E2.31010
G1 X177.519 Y100.587 E1.01669
G1 X116.260 Y100.587 E1.92072
G1 X85.631 Y47.536 E1.92072
G1 X113.661 Y31.353 E1.01480
G1 X113.713 Y31.758 F10800.000
G1 F1200
G1 X177.142 Y68.379 E2.29645
G1 X177.142 Y100.210 E0.99804
G1 X116.478 Y100.210 E1.90207
G1 X86.146 Y47.674 E1.90207
G1 X113.661 Y31.788 E0.99616
G1 X113.844 Y31.380 F10800.000
G1 F8640
G1 X116.512 Y33.432 E-0.76000
G1 E-0.04000 F2100.00000
G1 Z0.800 F10800.000
G1 X113.713 Y22.678
G1 Z0.200
G1 E0.80000 F2100.00000
G1 F1200
G1 X185.005 Y63.839 E2.58113
G1 X185.005 Y100.587 E1.15220
G1 X185.021 Y100.587 E0.00051
G1 X185.021 Y109.413 E0.27673
G1 X185.005 Y109.413 E0.00051
G1 X185.005 Y146.161 E1.15220
G1 X113.713 Y187.322 E2.58113
M73 Q0 S291
G1 X81.888 Y168.948 E1.15220
M73 P0 R283
G1 X81.880 Y168.962 E0.00051
G1 X74.236 Y164.549 E0.27673
G1 X74.244 Y164.535 E0.00051
G1 X42.420 Y146.161 E1.15220
G1 X42.420 Y63.839 E2.58113
G1 X74.067 Y45.568 E1.14577
G1 X74.065 Y45.550 E0.00056
G1 X81.880 Y41.038 E0.28293
G1 X81.888 Y41.052 E0.00051
G1 X113.661 Y22.708 E1.15032
G1 X113.713 Y22.243 F10800.000
G1 F1200
G1 X185.382 Y63.622 E2.59479
G1 X185.382 Y100.210 E1.14721
G1 X185.398 Y100.210 E0.00051
G1 X185.398 Y109.790 E0.30037
G1 X185.382 Y109.790 E0.00051
G1 X185.382 Y146.378 E1.14721
G1 X113.713 Y187.757 E2.59479
G1 X82.026 Y169.463 E1.14721
G1 X82.018 Y169.477 E0.00051
G1 X73.721 Y164.687 E0.30037
G1 X73.729 Y164.673 E0.00051
G1 X42.043 Y146.378 E1.14721
G1 X42.043 Y63.622 E2.59479
G1 X73.666 Y45.364 E1.14491
G1 X73.664 Y45.346 E0.00056
G1 X82.018 Y40.523 E0.30245
G1 X82.026 Y40.537 E0.00051
G1 X113.661 Y22.273 E1.14532
G1 X113.849 Y22.619 F10800.000
G1 F8640
G1 X116.512 Y23.917 E-0.76000
G1 E-0.04000 F2100.00000
G1 Z0.800 F10800.000
G1 X114.904 Y23.497
G1 Z0.200
G1 E0.80000 F2100.00000
G1 F1200
G1 X134.739 Y43.331 E0.87989
G1 F8640
G1 X132.411 Y41.004 E-0.76000
G1 E-0.04000 F2100.00000
G1 Z0.800 F10800.000
G1 X133.476 Y42.603
G1 Z0.200
G1 E0.80000 F2100.00000
G1 F1200
G1 X114.105 Y23.232 E0.85932
G1 X113.713 Y23.005 E0.01423
G1 X113.480 Y23.140 E0.00844
G1 X132.214 Y41.874 E0.83109
G1 F8640
G1 X129.887 Y39.546 E-0.76000
G1 E-0.04000 F2100.00000
G1 Z0.800 F10800.000
G1 X130.952 Y41.145
G1 Z0.200
G1 E0.80000 F2100.00000
G1 F1200
G1 X113.141 Y23.335 E0.79010
G1 X112.803 Y23.530 E0.01225
G1 X129.689 Y40.416 E0.74910
G1 F8640
G1 X127.362 Y38.089 E-0.76000
G1 E-0.04000 F2100.00000
G1 Z0.800 F10800.000
G1 X128.427 Y39.687
G1 Z0.200
G1 E0.80000 F2100.00000
G1 F1200
G1 X112.465 Y23.725 E0.70811
G1 X112.127 Y23.921 E0.01225
G1 X127.165 Y38.959 E0.66712
G1 F8640
G1 X124.837 Y36.631 E-0.76000
G1 E-0.04000 F2100.00000
G1 Z0.800 F10800.000
G1 X125.902 Y38.230
G1 Z0.200
G1 E0.80000 F2100.00000
G1 F1200
G1 X111.788 Y24.116 E0.62612
G1 X111.450 Y24.311 E0.01225
G1 X124.640 Y37.501 E0.58513
G1 F8640
G1 X122.313 Y35.174 E-0.76000
G1 E-0.04000 F2100.00000
G1 Z0.800 F10800.000
G1 X123.378 Y36.772
G1 Z0.200
G1 E0.80000 F2100.00000
G1 F1200
G1 X111.112 Y24.506 E0.54414
G1 X110.774 Y24.702 E0.01225
G1 X122.115 Y36.044 E0.50314
G1 F8640
G1 X119.788 Y33.716 E-0.76000
G1 E-0.04000 F2100.00000
G1 Z0.800 F10800.000
G1 X120.853 Y35.315
G1 Z0.200
G1 E0.80000 F2100.00000
G1 F1200
G1 X110.435 Y24.897 E0.46215
G1 X110.097 Y25.092 E0.01225
G1 X119.591 Y34.586 E0.42116
G1 F8640
G1 X117.263 Y32.259 E-0.76000
G1 E-0.04000 F2100.00000
G1 Z0.800 F10800.000
G1 X118.329 Y33.857
G1 Z0.200
G1 E0.80000 F2100.00000
G1 F1200
G1 X109.759 Y25.288 E0.38016
G1 X109.421 Y25.483 E0.01225
G1 X117.066 Y33.128 E0.33917
G1 F8640
G1 X114.739 Y30.801 E-0.76000
G1 E-0.04000 F2100.00000
G1 Z0.800 F10800.000
G1 X115.804 Y32.400
G1 Z0.200
G1 E0.80000 F2100.00000
G1 F1200
G1 X109.082 Y25.678 E0.29818
G1 X108.744 Y25.873 E0.01225
G1 X114.078 Y31.207 E0.23662
G1 X113.713 Y30.996 E0.01324
G1 X113.472 Y31.135 E0.00870
G1 X108.406 Y26.069 E0.22475
G1 X108.068 Y26.264 E0.01225
G1 X113.134 Y31.330 E0.22475
G1 X112.796 Y31.525 E0.01225
G1 X107.730 Y26.459 E0.22475
G1 X107.391 Y26.655 E0.01225
G1 X112.458 Y31.721 E0.22475
G1 X112.119 Y31.916 E0.01225
G1 X107.053 Y26.850 E0.22475
G1 X106.715 Y27.045 E0.01225
G1 X111.781 Y32.111 E0.22475
G1 X111.443 Y32.307 E0.01225
G1 X106.377 Y27.240 E0.22475
G1 X106.038 Y27.436 E0.01225
G1 X111.105 Y32.502 E0.22475
G1 X110.766 Y32.697 E0.01225
G1 X105.700 Y27.631 E0.22475
M73 Q1 S290
G1 X105.362 Y27.826 E0.01225
G1 X110.428 Y32.892 E0.22475
G1 X110.090 Y33.088 E0.01225
G1 X105.024 Y28.021 E0.22475
G1 X104.685 Y28.217 E0.01225
G1 X109.752 Y33.283 E0.22475
G1 X109.413 Y33.478 E0.01225
G1 X104.347 Y28.412 E0.22475
G1 X104.009 Y28.607 E0.01225
M73 P1 R282
G1 X109.075 Y33.674 E0.22475
G1 X108.737 Y33.869 E0.01225
G1 X103.671 Y28.803 E0.22475
G1 X103.332 Y28.998 E0.01225
G1 X108.399 Y34.064 E0.22475
G1 X108.060 Y34.259 E0.01225
G1 X102.994 Y29.193 E0.22475
G1 X102.656 Y29.388 E0.01225
G1 X107.722 Y34.455 E0.22475
G1 X107.384 Y34.650 E0.01225
G1 X102.318 Y29.584 E0.22475
G1 X101.980 Y29.779 E0.01225
G1 X107.046 Y34.845 E0.22475
G1 X106.708 Y35.040 E0.01225
G1 X101.641 Y29.974 E0.22475
G1 X101.303 Y30.170 E0.01225
G1 X106.369 Y35.236 E0.22475
G1 X106.031 Y35.431 E0.01225
G1 X100.965 Y30.365 E0.22475
G1 X100.627 Y30.560 E0.01225
G1 X105.693 Y35.626 E0.22475
G1 X105.355 Y35.822 E0.01225
G1 X100.288 Y30.755 E0.22475
G1 X99.950 Y30.951 E0.01225
G1 X105.016 Y36.017 E0.22475
G1 X104.678 Y36.212 E0.01225
G1 X99.612 Y31.146 E0.22475
G1 X99.274 Y31.341 E0.01225
G1 X104.340 Y36.407 E0.22475
G1 X104.002 Y36.603 E0.01225
G1 X98.935 Y31.536 E0.22475
G1 X98.597 Y31.732 E0.01225
G1 X103.663 Y36.798 E0.22475
G1 X103.325 Y36.993 E0.01225
G1 X98.259 Y31.927 E0.22475
G1 X97.921 Y32.122 E0.01225
G1 X102.987 Y37.189 E0.22475
G1 X102.649 Y37.384 E0.01225
G1 X97.582 Y32.318 E0.22475
G1 X97.244 Y32.513 E0.01225
G1 X102.310 Y37.579 E0.22475
G1 X101.972 Y37.774 E0.01225
G1 X96.906 Y32.708 E0.22475
G1 X96.568 Y32.903 E0.01225
G1 X101.634 Y37.970 E0.22475
G1 X101.296 Y38.165 E0.01225
G1 X96.230 Y33.099 E0.22475
G1 X95.891 Y33.294 E0.01225
G1 X100.958 Y38.360 E0.22475
G1 X100.619 Y38.556 E0.01225
G1 X95.553 Y33.489 E0.22475
G1 X95.215 Y33.685 E0.01225
G1 X100.281 Y38.751 E0.22475
G1 X99.943 Y38.946 E0.01225
G1 X94.877 Y33.880 E0.22475
G1 X94.538 Y34.075 E0.01225
G1 X99.605 Y39.141 E0.22475
G1 X99.266 Y39.337 E0.01225
G1 X94.200 Y34.270 E0.22475
G1 X93.862 Y34.466 E0.01225
G1 X98.928 Y39.532 E0.22475
G1 X98.590 Y39.727 E0.01225
G1 X93.524 Y34.661 E0.22475
G1 X93.185 Y34.856 E0.01225
G1 X98.252 Y39.922 E0.22475
G1 X97.913 Y40.118 E0.01225
G1 X92.847 Y35.051 E0.22475
G1 X92.509 Y35.247 E0.01225
G1 X97.575 Y40.313 E0.22475
G1 X97.237 Y40.508 E0.01225
G1 X92.171 Y35.442 E0.22475
G1 X91.832 Y35.637 E0.01225
G1 X96.899 Y40.704 E0.22475
G1 X96.561 Y40.899 E0.01225
G1 X91.494 Y35.833 E0.22475
G1 X91.156 Y36.028 E0.01225
G1 X96.222 Y41.094 E0.22475
G1 X95.884 Y41.289 E0.01225
G1 X90.818 Y36.223 E0.22475
G1 X90.480 Y36.418 E0.01225
G1 X95.546 Y41.485 E0.22475
G1 X95.208 Y41.680 E0.01225
G1 X90.141 Y36.614 E0.22475
G1 X89.803 Y36.809 E0.01225
G1 X94.869 Y41.875 E0.22475
G1 X94.531 Y42.071 E0.01225
G1 X89.465 Y37.004 E0.22475
G1 X89.127 Y37.200 E0.01225
G1 X94.193 Y42.266 E0.22475
G1 X93.855 Y42.461 E0.01225
G1 X88.788 Y37.395 E0.22475
G1 X88.450 Y37.590 E0.01225
G1 X93.516 Y42.656 E0.22475
G1 X93.178 Y42.852 E0.01225
G1 X88.112 Y37.785 E0.22475
G1 X87.774 Y37.981 E0.01225
G1 X92.840 Y43.047 E0.22475
G1 X92.502 Y43.242 E0.01225
G1 X87.435 Y38.176 E0.22475
G1 X87.097 Y38.371 E0.01225
G1 X92.163 Y43.437 E0.22475
G1 X91.825 Y43.633 E0.01225
G1 X86.759 Y38.566 E0.22475
G1 X86.421 Y38.762 E0.01225
G1 X91.487 Y43.828 E0.22475
G1 X91.149 Y44.023 E0.01225
G1 X86.082 Y38.957 E0.22475
G1 X85.744 Y39.152 E0.01225
G1 X90.811 Y44.219 E0.22475
G1 X90.472 Y44.414 E0.01225
G1 X85.406 Y39.348 E0.22475
G1 X85.068 Y39.543 E0.01225
G1 X90.134 Y44.609 E0.22475
G1 X89.796 Y44.804 E0.01225
G1 X84.730 Y39.738 E0.22475
G1 X84.391 Y39.933 E0.01225
G1 X89.458 Y45.000 E0.22475
G1 X89.119 Y45.195 E0.01225
G1 X84.053 Y40.129 E0.22475
G1 X83.715 Y40.324 E0.01225
G1 X88.781 Y45.390 E0.22475
G1 X88.443 Y45.586 E0.01225
G1 X83.377 Y40.519 E0.22475
G1 X83.038 Y40.715 E0.01225
G1 X88.105 Y45.781 E0.22475
G1 X87.766 Y45.976 E0.01225
G1 X82.700 Y40.910 E0.22475
G1 X82.362 Y41.105 E0.01225
G1 X87.428 Y46.171 E0.22475
G1 X87.090 Y46.367 E0.01225
G1 X82.024 Y41.300 E0.22475
G1 X81.674 Y41.484 E0.01240
G1 X86.752 Y46.562 E0.22528
G1 X86.413 Y46.757 E0.01225
G1 X81.335 Y41.679 E0.22528
G1 X80.997 Y41.874 E0.01225
G1 X86.075 Y46.953 E0.22528
G1 X85.737 Y47.148 E0.01225
G1 X80.659 Y42.070 E0.22528
G1 X80.321 Y42.265 E0.01225
G1 X85.399 Y47.343 E0.22528
G1 X85.245 Y47.432 E0.00558
G1 X85.641 Y48.119 E0.02489
G1 X79.982 Y42.460 E0.25105
G1 X79.644 Y42.655 E0.01225
G1 X86.834 Y49.845 E0.31895
G1 F8640
G1 X84.506 Y47.518 E-0.76000
G1 E-0.04000 F2100.00000
G1 Z0.800 F10800.000
G1 X87.563 Y51.107
G1 Z0.200
G1 E0.80000 F2100.00000
G1 F1200
G1 X79.306 Y42.851 E0.36628
G1 X78.968 Y43.046 E0.01225
G1 X88.291 Y52.370 E0.41362
G1 F8640
G1 X85.964 Y50.042 E-0.76000
G1 E-0.04000 F2100.00000
G1 Z0.800 F10800.000
G1 X89.020 Y53.632
G1 Z0.200
G1 E0.80000 F2100.00000
G1 F1200
G1 X78.629 Y43.241 E0.46095
G1 X78.291 Y43.437 E0.01225
G1 X89.749 Y54.894 E0.50829
G1 F8640
G1 X87.422 Y52.567 E-0.76000
G1 E-0.04000 F2100.00000
G1 Z0.800 F10800.000
G1 X90.478 Y56.157
G1 Z0.200
G1 E0.80000 F2100.00000
G1 F1200
G1 X77.953 Y43.632 E0.55562
G1 X77.615 Y43.827 E0.01225
G1 X91.207 Y57.419 E0.60296
G1 F8640
G1 X88.879 Y55.092 E-0.76000
G1 E-0.04000 F2100.00000
G1 Z0.800 F10800.000
G1 X91.935 Y58.681
G1 Z0.200
G1 E0.80000 F2100.00000
G1 F1200
G1 X77.277 Y44.022 E0.65029
G1 X76.938 Y44.218 E0.01225
G1 X92.664 Y59.944 E0.69763
G1 F8640
G1 X90.337 Y57.616 E-0.76000
G1 E-0.04000 F2100.00000
G1 Z0.800 F10800.000
G1 X93.393 Y61.206
G1 Z0.200
G1 E0.80000 F2100.00000
G1 F1200
G1 X76.600 Y44.413 E0.74497
G1 X76.262 Y44.608 E0.01225
G1 X94.122 Y62.468 E0.79230
G1 F8640
G1 X91.794 Y60.141 E-0.76000
G1 E-0.04000 F2100.00000
G1 Z0.800 F10800.000
G1 X94.851 Y63.731
G1 Z0.200
G1 E0.80000 F2100.00000
G1 F1200
G1 X75.924 Y44.804 E0.83964
G1 X75.585 Y44.999 E0.01225
G1 X95.579 Y64.993 E0.88697
G1 F8640
G1 X93.252 Y62.665 E-0.76000
G1 E-0.04000 F2100.00000
G1 Z0.800 F10800.000
G1 X96.308 Y66.255
G1 Z0.200
G1 E0.80000 F2100.00000
G1 F1200
G1 X75.247 Y45.194 E0.93431
G1 X74.909 Y45.389 E0.01225
G1 X97.037 Y67.517 E0.98164
G1 F8640
G1 X94.710 Y65.190 E-0.76000
G1 E-0.04000 F2100.00000
G1 Z0.800 F10800.000
G1 X97.766 Y68.780
G1 Z0.200
G1 E0.80000 F2100.00000
G1 F1200
G1 X74.571 Y45.585 E1.02898
G1 X74.244 Y45.792 E0.01212
G1 X98.495 Y70.042 E1.07578
G1 F8640
G1 X96.167 Y67.715 E-0.76000
G1 E-0.04000 F2100.00000
G1 Z0.800 F10800.000
G1 X99.223 Y71.304
G1 Z0.200
G1 E0.80000 F2100.00000
G1 F1200
G1 X73.906 Y45.987 E1.12312
G1 X73.568 Y46.182 E0.01225
G1 X99.952 Y72.567 E1.17045
G1 F8640
G1 X97.625 Y70.239 E-0.76000
G1 E-0.04000 F2100.00000
G1 Z0.800 F10800.000
G1 X100.681 Y73.829
G1 Z0.200
G1 E0.80000 F2100.00000
G1 F1200
G1 X73.230 Y46.378 E1.21779
G1 X72.891 Y46.573 E0.01225
G1 X101.410 Y75.091 E1.26512
M73 Q1 S289
G1 F8640
G1 X99.082 Y72.764 E-0.76000
G1 E-0.04000 F2100.00000
G1 Z0.800 F10800.000
G1 X102.139 Y76.354
G1 Z0.200
G1 E0.80000 F2100.00000
G1 F1200
G1 X78.644 Y52.859 E1.04227
M73 P1 R281
G1 F8640
G1 X80.971 Y55.186 E-0.76000
G1 E-0.04000 F2100.00000
G1 Z0.800 F10800.000
G1 X77.744 Y51.959
G1 Z0.200
G1 E0.80000 F2100.00000
G1 F1200
G1 X72.553 Y46.768 E0.23026
G1 X72.215 Y46.964 E0.01225
G1 X77.281 Y52.030 E0.22474
G1 X76.943 Y52.225 E0.01225
G1 X71.877 Y47.159 E0.22474
G1 X71.539 Y47.354 E0.01225
G1 X76.605 Y52.420 E0.22474
G1 X76.266 Y52.616 E0.01225
G1 X71.200 Y47.549 E0.22474
G1 X70.862 Y47.745 E0.01225
G1 X75.928 Y52.811 E0.22474
G1 X75.590 Y53.006 E0.01225
G1 X70.524 Y47.940 E0.22474
G1 X70.186 Y48.135 E0.01225
G1 X75.252 Y53.201 E0.22474
G1 X74.914 Y53.397 E0.01225
G1 X69.847 Y48.331 E0.22474
G1 X69.509 Y48.526 E0.01225
G1 X74.575 Y53.592 E0.22474
G1 X74.237 Y53.787 E0.01225
G1 X69.171 Y48.721 E0.22474
G1 X68.833 Y48.916 E0.01225
G1 X73.899 Y53.983 E0.22474
G1 X73.561 Y54.178 E0.01225
G1 X68.494 Y49.112 E0.22474
G1 X68.156 Y49.307 E0.01225
G1 X73.222 Y54.373 E0.22474
G1 X72.884 Y54.568 E0.01225
G1 X67.818 Y49.502 E0.22474
G1 X67.480 Y49.698 E0.01225
G1 X72.546 Y54.764 E0.22474
G1 X72.208 Y54.959 E0.01225
G1 X67.141 Y49.893 E0.22474
G1 X66.803 Y50.088 E0.01225
G1 X71.869 Y55.154 E0.22474
G1 X71.531 Y55.350 E0.01225
G1 X66.465 Y50.283 E0.22474
G1 X66.127 Y50.479 E0.01225
