; generated by PrusaSlicer 2.0.0+linux64 on 2019-07-01 at 17:26:38

; 

; external perimeters extrusion width = 0.60mm
; perimeters extrusion width = 0.50mm
; infill extrusion width = 0.50mm
; solid infill extrusion width = 0.50mm
; top infill extrusion width = 0.45mm
; first layer extrusion width = 0.42mm

M73 P0 R64
M73 Q0 S64
M201 X1000 Y1000 Z1000 E5000 ; sets maximum accelerations, mm/sec^2
M203 X200 Y200 Z12 E120 ; sets maximum feedrates, mm/sec
M204 P1250 R1250 T1250 ; sets acceleration (P, T) and retract acceleration (R), mm/sec^2
M205 X8.00 Y8.00 Z0.40 E1.50 ; sets the jerk limits, mm/sec
M205 S0 T0 ; sets the minimum extruding and travel feed rate, mm/sec
M107
M115 U3.7.1 ; tell printer latest fw version
G90 ; use absolute coordinates
M83 ; extruder relative mode
M104 S230 ; set extruder temp
M140 S85 ; set bed temp
M190 S85 ; wait for bed temp
M109 S230 ; wait for extruder temp
G28 W ; home all without mesh bed level
G80 ; mesh bed leveling
G1 Y-3.0 F1000.0 ; go outside print area
G92 E0.0
G1 X60.0 E9.0 F1000.0 ; intro line
M73 Q0 S64
M73 P0 R64
G1 X100.0 E12.5 F1000.0 ; intro line
G92 E0.0
M221 S95
M900 K45 ; Filament gcode
G21 ; set units to millimeters
G90 ; use absolute coordinates
M83 ; use relative distances for extrusion
;BEFORE_LAYER_CHANGE
G92 E0.0
;0.2


G1 E-0.80000 F2100.00000
G1 Z0.600 F10800.000
;AFTER_LAYER_CHANGE
;0.2
G1 X83.995 Y69.123
G1 Z0.200
G1 E0.80000 F2100.00000
M204 S1000
G1 F1200
G1 X84.515 Y68.392 E0.02810
G1 X85.195 Y67.965 E0.02518
G1 X85.983 Y67.812 E0.02518
G1 X164.004 Y67.811 E2.44628
G1 X164.830 Y67.975 E0.02642
G1 X165.534 Y68.439 E0.02642
G1 X166.010 Y69.134 E0.02642
G1 X166.188 Y69.958 E0.02642
G1 X166.188 Y140.022 E2.19682
G1 X166.001 Y140.887 E0.02777
G1 X165.485 Y141.608 E0.02777
G1 X164.805 Y142.035 E0.02518
G1 X164.017 Y142.188 E0.02518
G1 X85.996 Y142.189 E2.44628
G1 X85.123 Y142.005 E0.02799
G1 X84.392 Y141.485 E0.02810
G1 X83.965 Y140.805 E0.02518
G1 X83.812 Y140.017 E0.02518
G1 X83.811 Y69.996 E2.19544
G1 X83.983 Y69.181 E0.02611
G1 F8640
G1 X84.515 Y68.392 E-0.21974
G1 X85.195 Y67.965 E-0.18545
G1 X85.983 Y67.812 E-0.18545
G1 X86.717 Y67.812 E-0.16937
G1 E-0.04000 F2100.00000
G1 Z0.800 F10800.000
G1 X128.587 Y70.587
G1 Z0.200
G1 E0.80000 F2100.00000
G1 F1200
G1 X131.964 Y70.587 E0.10589
G1 X132.143 Y72.534 E0.06130
G1 X132.899 Y75.187 E0.08650
G1 X134.207 Y77.711 E0.08912
G1 X136.037 Y79.963 E0.09099
G1 X138.289 Y81.793 E0.09099
G1 X140.812 Y83.100 E0.08910
G1 X143.435 Y83.854 E0.08555
G1 X146.000 Y84.090 E0.08077
G1 X148.565 Y83.854 E0.08077
G1 X151.188 Y83.100 E0.08555
G1 X153.711 Y81.793 E0.08910
G1 X155.963 Y79.963 E0.09099
G1 X157.793 Y77.711 E0.09099
G1 X159.100 Y75.188 E0.08910
G1 X159.854 Y72.565 E0.08555
G1 X160.036 Y70.587 E0.06229
G1 X163.413 Y70.587 E0.10589
G1 X163.413 Y101.413 E0.96652
G1 X128.587 Y101.413 E1.09194
G1 X128.587 Y70.647 E0.96464
G1 X128.210 Y70.210 F10800.000
G1 F1200
G1 X132.308 Y70.210 E0.12850
G1 X132.515 Y72.465 E0.07099
G1 X133.252 Y75.047 E0.08420
G1 X134.524 Y77.503 E0.08672
G1 X136.305 Y79.695 E0.08855
G1 X138.497 Y81.476 E0.08855
G1 X140.953 Y82.748 E0.08672
G1 X143.505 Y83.482 E0.08325
G1 X146.000 Y83.711 E0.07857
G1 X148.495 Y83.482 E0.07857
G1 X151.047 Y82.748 E0.08325
G1 X153.503 Y81.476 E0.08672
G1 X155.695 Y79.695 E0.08856
G1 X157.476 Y77.503 E0.08855
G1 X158.748 Y75.047 E0.08672
G1 X159.482 Y72.495 E0.08325
G1 X159.692 Y70.210 E0.07196
G1 X163.790 Y70.210 E0.12850
G1 X163.790 Y101.790 E0.99017
G1 X128.210 Y101.790 E1.11559
G1 X128.210 Y70.270 E0.98829
G1 X128.598 Y70.306 F10800.000
G1 X128.870 Y70.917
G1 F1200
G1 X130.917 Y70.917 E0.06418
G1 X130.917 Y70.870 E0.00147
G1 X131.294 Y70.870 F10800.000
G1 F1200
G1 X131.294 Y71.294 E0.01330
G1 X128.870 Y71.294 E0.07600
G1 X128.870 Y71.671 F10800.000
G1 F1200
G1 X131.671 Y71.671 E0.08783
G1 X131.671 Y70.870 E0.02512
G1 F8640
G1 X131.671 Y71.671 E-0.18498
G1 X129.181 Y71.671 E-0.57502
G1 E-0.04000 F2100.00000
G1 Z0.800 F10800.000
G1 X131.814 Y72.048
G1 Z0.200
G1 E0.80000 F2100.00000
G1 F1200
G1 X128.870 Y72.048 E0.09232
G1 X128.870 Y72.425 F10800.000
G1 F1200
G1 X131.849 Y72.425 E0.09341
G1 X131.925 Y72.802 F10800.000
G1 F1200
G1 X128.870 Y72.802 E0.09580
G1 X128.870 Y73.179 F10800.000
G1 F1200
G1 X132.033 Y73.179 E0.09917
G1 X132.140 Y73.556 F10800.000
G1 F1200
G1 X128.870 Y73.556 E0.10255
G1 X128.870 Y73.933 F10800.000
G1 F1200
G1 X132.248 Y73.933 E0.10592
G1 X132.355 Y74.311 F10800.000
G1 F1200
G1 X128.870 Y74.311 E0.10929
G1 X128.870 Y74.688 F10800.000
G1 F1200
G1 X132.463 Y74.688 E0.11266
G1 X132.571 Y75.065 F10800.000
G1 F1200
G1 X128.870 Y75.065 E0.11603
G1 X128.870 Y75.442 F10800.000
G1 F1200
G1 X132.713 Y75.442 E0.12050
G1 X132.908 Y75.819 F10800.000
G1 F1200
G1 X128.870 Y75.819 E0.12662
G1 X128.870 Y76.196 F10800.000
G1 F1200
G1 X133.104 Y76.196 E0.13275
G1 X133.299 Y76.573 F10800.000
G1 F1200
G1 X128.870 Y76.573 E0.13887
G1 X128.870 Y76.950 F10800.000
G1 F1200
G1 X133.494 Y76.950 E0.14500
G1 X133.690 Y77.327 F10800.000
G1 F1200
G1 X128.870 Y77.327 E0.15112
G1 X128.870 Y77.704 F10800.000
G1 F1200
G1 X133.885 Y77.704 E0.15725
G1 X134.144 Y78.081 F10800.000
G1 F1200
G1 X128.870 Y78.081 E0.16535
G1 X128.870 Y78.458 F10800.000
G1 F1200
G1 X134.450 Y78.458 E0.17496
G1 X134.756 Y78.835 F10800.000
G1 F1200
G1 X128.870 Y78.835 E0.18456
G1 X128.870 Y79.002 F10800.000
G1 F1200
G1 X135.868 Y86.000 E0.31030
G1 X128.870 Y92.998 E0.31030
G1 X128.870 Y93.165 F10800.000
G1 F1200
G1 X138.835 Y93.165 E0.31247
G1 X138.835 Y101.130 E0.24976
G1 X139.213 Y101.130 F10800.000
G1 F1200
G1 X139.213 Y92.787 E0.26158
G1 X129.614 Y92.787 E0.30097
G1 X136.401 Y86.000 E0.30097
G1 X129.614 Y79.213 E0.30097
G1 X135.063 Y79.213 E0.17084
G1 X135.369 Y79.590 F10800.000
G1 F1200
G1 X130.524 Y79.590 E0.15191
G1 X136.934 Y86.000 E0.28425
G1 X130.524 Y92.410 E0.28425
G1 X139.590 Y92.410 E0.28425
G1 X139.590 Y100.943 E0.26753
G1 X146.000 Y94.532 E0.28425
G1 X152.033 Y100.566 E0.26753
G1 X152.033 Y92.033 E0.26753
G1 X160.566 Y92.033 E0.26753
G1 X154.532 Y86.000 E0.26753
G1 X160.566 Y79.967 E0.26753
G1 X156.325 Y79.967 E0.13297
G1 X156.631 Y79.590 F10800.000
G1 F1200
G1 X161.476 Y79.590 E0.15191
G1 X155.066 Y86.000 E0.28425
G1 X161.476 Y92.410 E0.28425
G1 X152.410 Y92.410 E0.28425
G1 X152.410 Y101.130 E0.27340
G1 X152.065 Y101.130 F10800.000
G1 F1200
G1 X146.000 Y95.066 E0.26891
G1 X139.935 Y101.130 E0.26891
G1 X140.469 Y101.130 F10800.000
G1 F1200
G1 X146.000 Y95.599 E0.24527
G1 X151.531 Y101.130 E0.24527
G1 X150.998 Y101.130 F10800.000
G1 F1200
G1 X146.000 Y96.132 E0.22162
G1 X141.002 Y101.130 E0.22162
G1 X141.535 Y101.130 F10800.000
G1 F1200
G1 X146.000 Y96.665 E0.19797
G1 X150.465 Y101.130 E0.19797
G1 X149.931 Y101.130 F10800.000
G1 F1200
G1 X146.000 Y97.199 E0.17433
G1 X142.069 Y101.130 E0.17433
G1 X142.602 Y101.130 F10800.000
G1 F1200
G1 X146.000 Y97.732 E0.15068
G1 X149.398 Y101.130 E0.15068
G1 X148.865 Y101.130 F10800.000
G1 F1200
G1 X146.000 Y98.265 E0.12704
G1 X143.135 Y101.130 E0.12704
G1 X143.668 Y101.130 F10800.000
G1 F1200
G1 X146.000 Y98.798 E0.10339
G1 X148.332 Y101.130 E0.10339
G1 X147.798 Y101.130 F10800.000
G1 F1200
G1 X146.000 Y99.332 E0.07974
G1 X144.202 Y101.130 E0.07974
G1 X144.735 Y101.130 F10800.000
G1 F1200
G1 X146.000 Y99.865 E0.05610
G1 X147.265 Y101.130 E0.05610
G1 X146.732 Y101.130 F10800.000
G1 F1200
G1 X146.000 Y100.398 E0.03245
G1 X145.268 Y101.130 E0.03245
G1 X145.801 Y101.130 F10800.000
G1 F1200
G1 X146.000 Y100.932 E0.00880
G1 X146.199 Y101.130 E0.00880
G1 F8640
G1 X146.000 Y100.932 E-0.06484
G1 X145.801 Y101.130 E-0.06484
G1 E-0.67032 F2100.00000
G1 Z0.800 F10800.000
G1 X152.787 Y101.130
G1 Z0.200
G1 E0.80000 F2100.00000
G1 F1200
G1 X152.787 Y92.787 E0.26158
G1 X162.386 Y92.787 E0.30097
G1 X155.599 Y86.000 E0.30097
G1 X162.386 Y79.213 E0.30097
G1 X156.937 Y79.213 E0.17084
G1 X157.244 Y78.835 F10800.000
G1 F1200
G1 X163.130 Y78.835 E0.18456
M73 Q1 S63
G1 X163.130 Y79.002 F10800.000
G1 F1200
G1 X156.132 Y86.000 E0.31030
M73 P1 R63
G1 X163.130 Y92.998 E0.31030
G1 X163.130 Y93.165 F10800.000
G1 F1200
G1 X153.165 Y93.165 E0.31247
G1 X153.165 Y101.130 E0.24976
G1 X153.542 Y101.130 F10800.000
G1 F1200
G1 X153.542 Y93.542 E0.23793
G1 X163.130 Y93.542 E0.30064
G1 X163.130 Y93.919 F10800.000
G1 F1200
G1 X153.919 Y93.919 E0.28882
G1 X153.919 Y101.130 E0.22611
G1 X154.296 Y101.130 F10800.000
G1 F1200
G1 X154.296 Y94.296 E0.21429
G1 X163.130 Y94.296 E0.27700
G1 X163.130 Y94.673 F10800.000
G1 F1200
G1 X154.673 Y94.673 E0.26517
G1 X154.673 Y101.130 E0.20246
G1 X155.050 Y101.130 F10800.000
G1 F1200
G1 X155.050 Y95.050 E0.19064
G1 X163.130 Y95.050 E0.25335
G1 X163.130 Y95.427 F10800.000
G1 F1200
G1 X155.427 Y95.427 E0.24153
G1 X155.427 Y101.130 E0.17882
G1 X155.804 Y101.130 F10800.000
G1 F1200
G1 X155.804 Y95.804 E0.16700
G1 X163.130 Y95.804 E0.22970
G1 X163.130 Y96.181 F10800.000
G1 F1200
G1 X156.181 Y96.181 E0.21788
G1 X156.181 Y101.130 E0.15517
G1 X156.558 Y101.130 F10800.000
G1 F1200
G1 X156.558 Y96.558 E0.14335
G1 X163.130 Y96.558 E0.20606
G1 X163.130 Y96.935 F10800.000
G1 F1200
G1 X156.935 Y96.935 E0.19423
G1 X156.935 Y101.130 E0.13153
G1 X157.312 Y101.130 F10800.000
G1 F1200
G1 X157.312 Y97.312 E0.11970
G1 X163.130 Y97.312 E0.18241
G1 X163.130 Y97.689 F10800.000
G1 F1200
G1 X157.689 Y97.689 E0.17059
G1 X157.689 Y101.130 E0.10788
G1 X158.067 Y101.130 F10800.000
G1 F1200
G1 X158.067 Y98.067 E0.09606
G1 X163.130 Y98.067 E0.15877
G1 X163.130 Y98.444 F10800.000
G1 F1200
G1 X158.444 Y98.444 E0.14694
G1 X158.444 Y101.130 E0.08423
G1 X158.821 Y101.130 F10800.000
G1 F1200
G1 X158.821 Y98.821 E0.07241
G1 X163.130 Y98.821 E0.13512
G1 X163.130 Y99.198 F10800.000
G1 F1200
G1 X159.198 Y99.198 E0.12330
G1 X159.198 Y101.130 E0.06059
G1 X159.575 Y101.130 F10800.000
G1 F1200
G1 X159.575 Y99.575 E0.04877
G1 X163.130 Y99.575 E0.11147
G1 X163.130 Y99.952 F10800.000
G1 F1200
G1 X159.952 Y99.952 E0.09965
G1 X159.952 Y101.130 E0.03694
G1 X160.329 Y101.130 F10800.000
G1 F1200
G1 X160.329 Y100.329 E0.02512
G1 X163.130 Y100.329 E0.08783
G1 X163.130 Y100.706 F10800.000
G1 F1200
G1 X160.706 Y100.706 E0.07600
G1 X160.706 Y101.130 E0.01330
G1 X161.083 Y101.130 F10800.000
G1 F1200
G1 X161.083 Y101.083 E0.00147
G1 X163.130 Y101.083 E0.06418
G1 F8640
G1 X161.083 Y101.083 E-0.47265
G1 X161.083 Y101.130 E-0.01085
G1 E-0.31650 F2100.00000
G1 Z0.800 F10800.000
G1 X163.130 Y92.465
G1 Z0.200
G1 E0.80000 F2100.00000
G1 F1200
G1 X156.665 Y86.000 E0.28666
G1 X163.130 Y79.535 E0.28666
G1 X163.130 Y80.069 F10800.000
G1 F1200
G1 X157.199 Y86.000 E0.26301
G1 X163.130 Y91.931 E0.26301
G1 X163.130 Y91.398 F10800.000
G1 F1200
G1 X157.732 Y86.000 E0.23936
G1 X163.130 Y80.602 E0.23936
G1 X163.130 Y81.135 F10800.000
G1 F1200
G1 X158.265 Y86.000 E0.21572
G1 X163.130 Y90.865 E0.21572
G1 X163.130 Y90.332 F10800.000
G1 F1200
G1 X158.798 Y86.000 E0.19207
G1 X163.130 Y81.668 E0.19207
G1 X163.130 Y82.202 F10800.000
G1 F1200
G1 X159.332 Y86.000 E0.16843
G1 X163.130 Y89.798 E0.16843
G1 X163.130 Y89.265 F10800.000
G1 F1200
G1 X159.865 Y86.000 E0.14478
G1 X163.130 Y82.735 E0.14478
G1 X163.130 Y83.268 F10800.000
G1 F1200
G1 X160.398 Y86.000 E0.12113
G1 X163.130 Y88.732 E0.12113
G1 X163.130 Y88.199 F10800.000
G1 F1200
G1 X160.932 Y86.000 E0.09749
G1 X163.130 Y83.801 E0.09749
G1 X163.130 Y84.335 F10800.000
G1 F1200
G1 X161.465 Y86.000 E0.07384
G1 X163.130 Y87.665 E0.07384
G1 X163.130 Y87.132 F10800.000
G1 F1200
G1 X161.998 Y86.000 E0.05020
G1 X163.130 Y84.868 E0.05020
G1 X163.130 Y85.401 F10800.000
G1 F1200
G1 X162.531 Y86.000 E0.02655
G1 X163.130 Y86.599 E0.02655
G1 X163.130 Y86.065 F10800.000
G1 F1200
G1 X163.065 Y86.000 E0.00290
G1 X163.130 Y85.935 E0.00290
G1 F8640
G1 X163.065 Y86.000 E-0.02138
G1 X163.130 Y86.065 E-0.02138
G1 E-0.75723 F2100.00000
G1 Z0.800 F10800.000
G1 X163.130 Y78.458
G1 Z0.200
G1 E0.80000 F2100.00000
G1 F1200
G1 X157.550 Y78.458 E0.17496
G1 X157.856 Y78.081 F10800.000
G1 F1200
G1 X163.130 Y78.081 E0.16535
G1 X163.130 Y77.704 F10800.000
G1 F1200
G1 X158.115 Y77.704 E0.15725
G1 X158.310 Y77.327 F10800.000
G1 F1200
G1 X163.130 Y77.327 E0.15112
G1 X163.130 Y76.950 F10800.000
G1 F1200
G1 X158.506 Y76.950 E0.14500
G1 X158.701 Y76.573 F10800.000
G1 F1200
G1 X163.130 Y76.573 E0.13887
G1 X163.130 Y76.196 F10800.000
G1 F1200
G1 X158.896 Y76.196 E0.13275
G1 X159.092 Y75.819 F10800.000
G1 F1200
G1 X163.130 Y75.819 E0.12662
G1 X163.130 Y75.442 F10800.000
G1 F1200
G1 X159.287 Y75.442 E0.12050
G1 X159.430 Y75.065 F10800.000
G1 F1200
G1 X163.130 Y75.065 E0.11602
G1 X163.130 Y74.688 F10800.000
G1 F1200
G1 X159.538 Y74.688 E0.11262
G1 X159.647 Y74.311 F10800.000
G1 F1200
G1 X163.130 Y74.311 E0.10922
G1 X163.130 Y73.933 F10800.000
G1 F1200
G1 X159.755 Y73.933 E0.10582
G1 X159.863 Y73.556 F10800.000
G1 F1200
G1 X163.130 Y73.556 E0.10242
G1 X163.130 Y73.179 F10800.000
G1 F1200
G1 X159.972 Y73.179 E0.09902
G1 X160.080 Y72.802 F10800.000
G1 F1200
G1 X163.130 Y72.802 E0.09562
G1 X163.130 Y72.425 F10800.000
G1 F1200
G1 X160.151 Y72.425 E0.09341
G1 X160.186 Y72.048 F10800.000
G1 F1200
G1 X163.130 Y72.048 E0.09232
G1 X163.130 Y71.671 F10800.000
G1 F1200
G1 X160.329 Y71.671 E0.08783
G1 X160.329 Y70.870 E0.02512
G1 X160.706 Y70.870 F10800.000
G1 F1200
G1 X160.706 Y71.294 E0.01330
G1 X163.130 Y71.294 E0.07600
G1 X163.130 Y70.917 F10800.000
G1 F1200
G1 X161.083 Y70.917 E0.06418
G1 X161.083 Y70.870 E0.00147
G1 F8640
G1 X161.083 Y70.917 E-0.01085
G1 X163.130 Y70.917 E-0.47265
G1 E-0.31650 F2100.00000
G1 Z0.800 F10800.000
G1 X155.943 Y80.344
G1 Z0.200
G1 E0.80000 F2100.00000
G1 F1200
G1 X159.655 Y80.344 E0.11638
G1 X153.999 Y86.000 E0.25080
G1 X159.655 Y91.656 E0.25080
G1 X151.656 Y91.656 E0.25080
G1 X151.656 Y99.655 E0.25080
G1 X146.000 Y93.999 E0.25080
G1 X139.967 Y100.032 E0.26753
G1 X139.967 Y92.033 E0.25080
G1 X131.434 Y92.033 E0.26753
G1 X137.468 Y86.000 E0.26753
G1 X131.434 Y79.967 E0.26753
G1 X135.675 Y79.967 E0.13297
G1 X136.057 Y80.344 F10800.000
G1 F1200
G1 X132.345 Y80.344 E0.11638
G1 X138.001 Y86.000 E0.25080
G1 X132.345 Y91.656 E0.25080
G1 X140.344 Y91.656 E0.25080
G1 X140.344 Y99.122 E0.23408
G1 X146.000 Y93.466 E0.25080
G1 X151.279 Y98.745 E0.23408
G1 X151.279 Y91.279 E0.23408
G1 X158.745 Y91.279 E0.23408
G1 X153.466 Y86.000 E0.23408
G1 X158.745 Y80.721 E0.23408
G1 X155.479 Y80.721 E0.10239
G1 X155.015 Y81.098 F10800.000
G1 F1200
G1 X157.835 Y81.098 E0.08841
G1 X152.933 Y86.000 E0.21736
G1 X157.835 Y90.902 E0.21736
G1 X150.902 Y90.902 E0.21736
G1 X150.902 Y97.835 E0.21736
G1 X146.000 Y92.933 E0.21736
G1 X140.721 Y98.212 E0.23408
G1 X140.721 Y91.279 E0.21736
G1 X133.255 Y91.279 E0.23408
G1 X138.534 Y86.000 E0.23408
G1 X133.255 Y80.721 E0.23408
G1 X136.521 Y80.721 E0.10239
G1 X136.985 Y81.098 F10800.000
G1 F1200
G1 X134.165 Y81.098 E0.08841
G1 X139.067 Y86.000 E0.21736
G1 X134.165 Y90.902 E0.21736
G1 X141.098 Y90.902 E0.21736
G1 X141.098 Y97.301 E0.20064
G1 X146.000 Y92.399 E0.21736
G1 X150.525 Y96.924 E0.20064
G1 X150.525 Y90.525 E0.20064
G1 X156.924 Y90.525 E0.20064
G1 X152.399 Y86.000 E0.20064
G1 X156.924 Y81.475 E0.20064
G1 X154.551 Y81.475 E0.07442
G1 X154.087 Y81.852 F10800.000
G1 F1200
G1 X156.014 Y81.852 E0.06043
G1 X151.866 Y86.000 E0.18392
G1 X156.014 Y90.148 E0.18392
G1 X150.148 Y90.148 E0.18392
G1 X150.148 Y96.014 E0.18392
G1 X146.000 Y91.866 E0.18392
G1 X141.475 Y96.391 E0.20064
G1 X141.475 Y90.525 E0.18392
G1 X135.076 Y90.525 E0.20064
G1 X139.601 Y86.000 E0.20064
G1 X135.076 Y81.475 E0.20064
G1 X137.449 Y81.475 E0.07442
G1 X137.913 Y81.852 F10800.000
G1 F1200
G1 X135.986 Y81.852 E0.06043
G1 X140.134 Y86.000 E0.18392
G1 X135.986 Y90.148 E0.18392
G1 X141.852 Y90.148 E0.18392
G1 X141.852 Y95.481 E0.16720
G1 X146.000 Y91.333 E0.18392
G1 X149.771 Y95.103 E0.16720
G1 X149.771 Y89.771 E0.16720
G1 X155.103 Y89.771 E0.16720
G1 X151.333 Y86.000 E0.16720
G1 X155.103 Y82.229 E0.16720
G1 X153.484 Y82.229 E0.05079
G1 X152.756 Y82.606 F10800.000
G1 F1200
G1 X154.193 Y82.606 E0.04507
G1 X150.799 Y86.000 E0.15048
G1 X154.193 Y89.394 E0.15048
G1 X149.394 Y89.394 E0.15048
G1 X149.394 Y94.193 E0.15048
G1 X146.000 Y90.799 E0.15048
G1 X142.229 Y94.570 E0.16720
G1 X142.229 Y89.771 E0.15048
G1 X136.897 Y89.771 E0.16720
