; generated by PrusaSlicer 2.0.0+linux64 on 2019-08-22 at 15:27:25

; 

; external perimeters extrusion width = 0.45mm
; perimeters extrusion width = 0.45mm
; infill extrusion width = 0.45mm
; solid infill extrusion width = 0.45mm
; top infill extrusion width = 0.40mm
; first layer extrusion width = 0.42mm

M73 P0 R46
M73 Q0 S47
M201 X1000 Y1000 Z1000 E5000 ; sets maximum accelerations, mm/sec^2
M203 X200 Y200 Z12 E120 ; sets maximum feedrates, mm/sec
M204 P1250 R1250 T1250 ; sets acceleration (P, T) and retract acceleration (R), mm/sec^2
M205 X8.00 Y8.00 Z0.40 E1.50 ; sets the jerk limits, mm/sec
M205 S0 T0 ; sets the minimum extruding and travel feed rate, mm/sec
M107
M115 U3.7.2 ; tell printer latest fw version
G90 ; use absolute coordinates
M83 ; extruder relative mode
M104 S215 ; set extruder temp
M140 S60 ; set bed temp
M190 S60 ; wait for bed temp
M109 S215 ; wait for extruder temp
G28 W ; home all without mesh bed level
G80 ; mesh bed leveling
G1 Y-3.0 F1000.0 ; go outside print area
G92 E0.0
G1 X60.0 E9.0 F1000.0 ; intro line
M73 Q0 S47
M73 P0 R46
G1 X100.0 E12.5 F1000.0 ; intro line
G92 E0.0
M221 S95
M900 K30 ; Filament gcode
G21 ; set units to millimeters
G90 ; use absolute coordinates
M83 ; use relative distances for extrusion
;BEFORE_LAYER_CHANGE
G92 E0.0
;0.2


G1 E-0.80000 F2100.00000
G1 Z0.600 F10800.000
;AFTER_LAYER_CHANGE
;0.2
G1 X101.758 Y88.761
G1 Z0.200
G1 E0.80000 F2100.00000
M204 S1000
G1 F1200
G1 X103.132 Y85.968 E0.09760
G1 X104.156 Y84.294 E0.06153
G1 X106.828 Y81.782 E0.11498
G1 X109.733 Y79.467 E0.11646
G1 X110.174 Y79.203 E0.01612
G1 X110.809 Y79.027 E0.02066
G1 X113.455 Y78.809 E0.08324
G1 X115.834 Y78.836 E0.07460
G1 X116.500 Y78.914 E0.02103
G1 X119.735 Y80.326 E0.11068
G1 X142.600 Y94.401 E0.84185
G1 X145.072 Y96.547 E0.10264
G1 X146.327 Y98.070 E0.06188
G1 X147.854 Y101.082 E0.10590
G1 X148.302 Y102.290 E0.04038
G1 X148.634 Y104.944 E0.08385
G1 X148.684 Y105.914 E0.03047
G1 X148.624 Y106.441 E0.01663
G1 X148.145 Y108.207 E0.05737
G1 X147.214 Y110.633 E0.08146
G1 X145.857 Y112.693 E0.07735
G1 X144.609 Y113.992 E0.05649
G1 X142.760 Y115.361 E0.07212
G1 X119.782 Y129.595 E0.84749
G1 X117.570 Y130.896 E0.08047
G1 X116.669 Y131.209 E0.02989
G1 X115.616 Y131.420 E0.03370
G1 X113.521 Y131.590 E0.06589
G1 X112.272 Y131.378 E0.03972
G1 X109.935 Y130.618 E0.07705
G1 X108.832 Y130.135 E0.03776
G1 X107.696 Y129.526 E0.04042
G1 X106.482 Y128.732 E0.04546
G1 X105.052 Y127.644 E0.05635
G1 X103.143 Y125.338 E0.09387
G1 X102.860 Y124.870 E0.01714
G1 X102.058 Y122.975 E0.06450
G1 X101.339 Y119.280 E0.11805
G1 X101.365 Y91.765 E0.86271
G1 X101.750 Y88.821 E0.09309
G1 F8640
G1 X103.132 Y85.968 E-0.73190
G1 X103.195 Y85.864 E-0.02810
G1 E-0.04000 F2100.00000
G1 Z0.800 F10800.000
G1 X105.466 Y89.656
G1 Z0.200
G1 E0.80000 F2100.00000
G1 F1200
G1 X105.498 Y89.513 E0.00458
G1 X105.801 Y88.606 E0.02999
G1 X106.107 Y87.921 E0.02353
G1 X106.553 Y87.132 E0.02842
G1 X107.080 Y86.394 E0.02842
G1 X107.644 Y85.753 E0.02679
G1 X108.190 Y85.236 E0.02354
G1 X108.904 Y84.679 E0.02841
G1 X109.673 Y84.199 E0.02842
G1 X110.390 Y83.843 E0.02510
G1 X111.189 Y83.538 E0.02683
G1 X112.064 Y83.302 E0.02841
G1 X112.961 Y83.157 E0.02849
G1 X113.761 Y83.109 E0.02513
G1 X114.718 Y83.147 E0.03003
G1 X115.459 Y83.249 E0.02346
G1 X116.291 Y83.444 E0.02678
G1 X117.101 Y83.720 E0.02681
G1 X117.830 Y84.048 E0.02509
G1 X118.573 Y84.473 E0.02681
G1 X119.268 Y84.965 E0.02671
G1 X119.914 Y85.526 E0.02684
G1 X120.534 Y86.186 E0.02838
G1 X121.024 Y86.821 E0.02516
G1 X121.452 Y87.496 E0.02506
G1 X121.703 Y87.969 E0.01678
G1 X121.883 Y88.360 E0.01347
G1 X122.182 Y89.157 E0.02672
G1 X122.391 Y89.928 E0.02503
G1 X122.473 Y90.349 E0.01346
G1 X122.552 Y90.934 E0.01850
G1 X122.596 Y91.730 E0.02500
G1 X122.567 Y92.532 E0.02517
G1 X122.454 Y93.378 E0.02677
G1 X122.259 Y94.211 E0.02680
G1 X121.965 Y95.067 E0.02838
G1 X121.656 Y95.747 E0.02344
G1 X121.452 Y96.125 E0.01346
G1 X121.174 Y96.580 E0.01673
G1 X120.637 Y97.312 E0.02846
G1 X120.068 Y97.945 E0.02669
G1 X119.516 Y98.454 E0.02354
G1 X118.793 Y99.004 E0.02847
G1 X118.021 Y99.473 E0.02834
G1 X117.248 Y99.842 E0.02684
G1 X116.445 Y100.132 E0.02677
G1 X115.722 Y100.320 E0.02342
G1 X114.826 Y100.465 E0.02847
G1 X113.972 Y100.515 E0.02682
G1 X113.066 Y100.475 E0.02843
G1 X112.328 Y100.373 E0.02338
G1 X111.854 Y100.272 E0.01517
G1 X111.339 Y100.132 E0.01675
G1 X110.586 Y99.862 E0.02507
G1 X109.860 Y99.523 E0.02513
G1 X109.080 Y99.063 E0.02839
G1 X108.433 Y98.589 E0.02515
G1 X107.833 Y98.058 E0.02513
G1 X107.250 Y97.435 E0.02675
G1 X106.732 Y96.756 E0.02677
G1 X106.255 Y95.985 E0.02842
G1 X105.904 Y95.263 E0.02517
G1 X105.588 Y94.415 E0.02838
G1 X105.383 Y93.639 E0.02516
G1 X105.245 Y92.797 E0.02677
G1 X105.191 Y91.998 E0.02510
G1 X105.208 Y91.251 E0.02341
G1 X105.258 Y90.719 E0.01678
G1 X105.323 Y90.294 E0.01348
G1 X105.453 Y89.714 E0.01862
G1 X105.358 Y89.558 F10800.000
G1 X104.785 Y89.882
G1 F1200
G1 X105.000 Y89.054 E0.02683
G1 X105.315 Y88.193 E0.02872
G1 X105.496 Y87.789 E0.01389
G1 X105.742 Y87.314 E0.01679
G1 X106.184 Y86.591 E0.02655
G1 X106.742 Y85.850 E0.02910
G1 X107.064 Y85.484 E0.01530
G1 X107.398 Y85.142 E0.01498
G1 X108.040 Y84.571 E0.02695
G1 X108.817 Y84.006 E0.03009
G1 X109.565 Y83.569 E0.02717
G1 X110.448 Y83.162 E0.03048
G1 X111.300 Y82.869 E0.02828
G1 X112.236 Y82.650 E0.03014
G1 X112.708 Y82.576 E0.01496
G1 X113.207 Y82.526 E0.01573
G1 X114.018 Y82.502 E0.02544
G1 X114.908 Y82.557 E0.02795
G1 X115.767 Y82.692 E0.02728
G1 X116.310 Y82.820 E0.01749
G1 X116.745 Y82.949 E0.01422
G1 X117.625 Y83.282 E0.02949
G1 X118.333 Y83.628 E0.02473
G1 X119.148 Y84.126 E0.02993
G1 X119.889 Y84.689 E0.02919
G1 X120.196 Y84.958 E0.01278
G1 X120.594 Y85.348 E0.01748
G1 X121.192 Y86.031 E0.02846
G1 X121.499 Y86.440 E0.01604
G1 X121.757 Y86.828 E0.01462
G1 X122.203 Y87.615 E0.02834
G1 X122.563 Y88.418 E0.02761
G1 X122.851 Y89.275 E0.02836
G1 X123.063 Y90.206 E0.02992
G1 X123.172 Y91.057 E0.02692
G1 X123.201 Y91.996 E0.02943
G1 X123.173 Y92.565 E0.01787
G1 X123.127 Y92.993 E0.01349
G1 X122.961 Y93.917 E0.02945
G1 X122.729 Y94.743 E0.02689
G1 X122.422 Y95.542 E0.02685
G1 X122.076 Y96.252 E0.02476
G1 X121.825 Y96.686 E0.01571
G1 X121.545 Y97.114 E0.01603
G1 X121.015 Y97.807 E0.02736
G1 X120.683 Y98.180 E0.01568
G1 X120.355 Y98.512 E0.01461
G1 X119.711 Y99.079 E0.02690
G1 X119.019 Y99.583 E0.02686
G1 X118.241 Y100.042 E0.02831
G1 X117.349 Y100.456 E0.03081
G1 X116.541 Y100.737 E0.02685
G1 X115.651 Y100.953 E0.02869
G1 X115.147 Y101.036 E0.01604
G1 X114.695 Y101.086 E0.01425
G1 X113.766 Y101.120 E0.02913
G1 X112.865 Y101.064 E0.02831
G1 X112.404 Y101.001 E0.01461
G1 X111.844 Y100.892 E0.01788
G1 X111.039 Y100.672 E0.02617
G1 X110.173 Y100.345 E0.02903
G1 X109.443 Y99.988 E0.02546
G1 X108.960 Y99.707 E0.01754
G1 X108.571 Y99.450 E0.01461
G1 X107.943 Y98.971 E0.02477
G1 X107.270 Y98.354 E0.02862
G1 X106.654 Y97.664 E0.02900
G1 X106.114 Y96.926 E0.02867
G1 X105.629 Y96.099 E0.03006
G1 X105.232 Y95.225 E0.03011
G1 X104.969 Y94.459 E0.02538
G1 X104.748 Y93.557 E0.02913
G1 X104.666 Y93.052 E0.01604
G1 X104.618 Y92.613 E0.01385
G1 X104.585 Y91.651 E0.03018
G1 X104.639 Y90.784 E0.02723
G1 X104.775 Y89.941 E0.02677
G1 X105.165 Y89.758 F10800.000
G1 X105.076 Y89.999
G1 F1200
G1 X105.295 Y89.146 E0.01587
G1 X105.598 Y88.309 E0.01604
G1 X105.835 Y87.790 E0.01028
G1 X106.011 Y87.465 E0.00665
G1 X106.438 Y86.764 E0.01478
G1 X106.980 Y86.044 E0.01624
G1 X107.610 Y85.364 E0.01670
G1 X108.234 Y84.811 E0.01502
G1 X108.985 Y84.265 E0.01674
G1 X109.706 Y83.841 E0.01507
G1 X110.562 Y83.448 E0.01696
G1 X111.386 Y83.165 E0.01569
G1 X112.007 Y83.009 E0.01154
G1 X112.923 Y82.858 E0.01672
G1 X113.764 Y82.809 E0.01518
G1 X114.750 Y82.848 E0.01779
G1 X115.519 Y82.956 E0.01398
G1 X116.369 Y83.152 E0.01571
G1 X117.215 Y83.445 E0.01612
G1 X117.971 Y83.784 E0.01493
G1 X118.730 Y84.215 E0.01573
G1 X119.456 Y84.734 E0.01607
G1 X120.119 Y85.305 E0.01576
G1 X120.765 Y85.996 E0.01705
G1 X121.269 Y86.643 E0.01478
G1 X121.711 Y87.350 E0.01502
G1 X121.932 Y87.752 E0.00825
G1 X122.156 Y88.241 E0.00970
G1 X122.468 Y89.071 E0.01596
G1 X122.684 Y89.856 E0.01467
G1 X122.770 Y90.297 E0.00810
G1 X122.850 Y90.901 E0.01098
G1 X122.895 Y91.732 E0.01500
G1 X122.869 Y92.552 E0.01478
G1 X122.746 Y93.437 E0.01609
G1 X122.544 Y94.298 E0.01593
G1 X122.241 Y95.182 E0.01683
G1 X121.807 Y96.109 E0.01843
G1 X121.426 Y96.744 E0.01334
G1 X120.867 Y97.506 E0.01703
G1 X120.286 Y98.153 E0.01566
G1 X119.704 Y98.687 E0.01422
G1 X118.958 Y99.255 E0.01691
G1 X118.159 Y99.741 E0.01684
G1 X117.359 Y100.121 E0.01596
G1 X116.530 Y100.421 E0.01589
G1 X115.779 Y100.614 E0.01397
G1 X114.864 Y100.764 E0.01669
G1 X113.969 Y100.813 E0.01616
G1 X113.034 Y100.774 E0.01686
G1 X112.272 Y100.668 E0.01386
G1 X111.787 Y100.565 E0.00893
G1 X111.245 Y100.417 E0.01012
G1 X110.468 Y100.137 E0.01488
G1 X109.715 Y99.787 E0.01496
G1 X108.919 Y99.318 E0.01664
G1 X108.240 Y98.820 E0.01516
G1 X107.620 Y98.269 E0.01494
G1 X107.018 Y97.624 E0.01590
G1 X106.482 Y96.921 E0.01591
G1 X105.991 Y96.124 E0.01687
G1 X105.628 Y95.376 E0.01499
G1 X105.300 Y94.501 E0.01683
G1 X105.090 Y93.696 E0.01497
G1 X104.946 Y92.837 E0.01571
G1 X104.894 Y92.000 E0.01510
G1 X104.892 Y91.656 E0.00620
G1 X104.942 Y90.818 E0.01511
G1 X105.064 Y90.058 E0.01387
G1 F8640
G1 X105.295 Y89.146 E-0.21729
G1 X105.598 Y88.309 E-0.20555
G1 X105.835 Y87.790 E-0.13179
G1 X106.011 Y87.465 E-0.08521
G1 X106.282 Y87.021 E-0.12016
G1 E-0.04000 F2100.00000
G1 Z0.800 F10800.000
G1 X111.034 Y111.171
G1 Z0.200
G1 E0.80000 F2100.00000
G1 F1200
G1 X111.891 Y110.940 E0.02783
G1 X112.772 Y110.798 E0.02798
G1 X113.607 Y110.749 E0.02624
G1 X114.496 Y110.788 E0.02789
G1 X115.221 Y110.889 E0.02296
G1 X116.037 Y111.079 E0.02629
G1 X116.832 Y111.350 E0.02632
G1 X117.548 Y111.673 E0.02463
G1 X118.276 Y112.089 E0.02628
G1 X118.957 Y112.571 E0.02617
G1 X119.592 Y113.123 E0.02637
G1 X120.199 Y113.768 E0.02779
G1 X120.679 Y114.392 E0.02468
G1 X121.100 Y115.055 E0.02461
G1 X121.345 Y115.517 E0.01642
G1 X121.522 Y115.902 E0.01326
G1 X121.816 Y116.684 E0.02621
G1 X122.020 Y117.439 E0.02452
G1 X122.101 Y117.852 E0.01320
G1 X122.179 Y118.426 E0.01817
G1 X122.222 Y119.206 E0.02449
G1 X122.193 Y119.994 E0.02472
G1 X122.082 Y120.824 E0.02626
G1 X121.891 Y121.641 E0.02629
G1 X121.603 Y122.480 E0.02784
G1 X121.299 Y123.148 E0.02299
G1 X121.099 Y123.519 E0.01323
G1 X120.827 Y123.964 E0.01635
G1 X120.300 Y124.683 E0.02795
G1 X119.741 Y125.303 E0.02618
G1 X119.082 Y125.901 E0.02791
G1 X118.490 Y126.342 E0.02314
G1 X117.735 Y126.802 E0.02774
G1 X116.976 Y127.164 E0.02636
G1 X116.189 Y127.448 E0.02623
G1 X115.480 Y127.633 E0.02298
G1 X114.599 Y127.775 E0.02796
G1 X113.762 Y127.824 E0.02630
G1 X112.874 Y127.785 E0.02789
G1 X112.150 Y127.685 E0.02289
G1 X111.685 Y127.585 E0.01492
G1 X111.180 Y127.448 E0.01643
G1 X110.441 Y127.183 E0.02460
G1 X109.729 Y126.851 E0.02464
G1 X108.965 Y126.400 E0.02782
G1 X108.329 Y125.935 E0.02470
G1 X107.740 Y125.413 E0.02465
G1 X107.168 Y124.802 E0.02624
G1 X106.661 Y124.138 E0.02623
G1 X106.193 Y123.380 E0.02792
G1 X105.849 Y122.673 E0.02465
G1 X105.540 Y121.842 E0.02781
G1 X105.338 Y121.080 E0.02470
G1 X105.203 Y120.255 E0.02624
G1 X105.149 Y119.469 E0.02469
G1 X105.166 Y118.738 E0.02292
G1 X105.215 Y118.215 E0.01649
G1 X105.279 Y117.798 E0.01323
G1 X105.451 Y117.032 E0.02460
G1 X105.748 Y116.142 E0.02941
G1 X106.048 Y115.470 E0.02309
G1 X106.486 Y114.697 E0.02783
G1 X107.002 Y113.974 E0.02788
G1 X107.556 Y113.344 E0.02627
G1 X108.091 Y112.837 E0.02312
G1 X108.792 Y112.291 E0.02787
G1 X109.546 Y111.819 E0.02788
G1 X110.250 Y111.470 E0.02464
G1 X110.978 Y111.193 E0.02441
G1 X111.117 Y110.780 F10800.000
G1 X110.313 Y110.808
G1 F1200
G1 X111.145 Y110.522 E0.02758
G1 X111.905 Y110.336 E0.02452
G1 X112.794 Y110.205 E0.02819
G1 X113.254 Y110.171 E0.01445
G1 X113.812 Y110.163 E0.01750
G1 X114.674 Y110.215 E0.02709
G1 X115.520 Y110.348 E0.02686
G1 X116.389 Y110.571 E0.02812
G1 X116.955 Y110.767 E0.01878
G1 X117.345 Y110.927 E0.01322
G1 X118.134 Y111.320 E0.02764
G1 X118.833 Y111.752 E0.02576
G1 X119.560 Y112.304 E0.02863
G1 X120.255 Y112.954 E0.02981
G1 X120.835 Y113.617 E0.02764
G1 X121.136 Y114.018 E0.01573
G1 X121.393 Y114.402 E0.01450
G1 X121.828 Y115.168 E0.02760
G1 X122.185 Y115.966 E0.02741
G1 X122.465 Y116.801 E0.02761
G1 X122.572 Y117.216 E0.01344
G1 X122.681 Y117.763 E0.01749
G1 X122.780 Y118.542 E0.02461
G1 X122.808 Y119.473 E0.02922
G1 X122.780 Y120.031 E0.01751
G1 X122.737 Y120.439 E0.01286
G1 X122.572 Y121.356 E0.02921
G1 X122.314 Y122.256 E0.02935
G1 X122.005 Y123.035 E0.02629
G1 X121.624 Y123.784 E0.02634
G1 X121.136 Y124.555 E0.02860
G1 X120.631 Y125.204 E0.02580
G1 X120.017 Y125.856 E0.02807
G1 X119.388 Y126.410 E0.02630
G1 X118.709 Y126.904 E0.02633
G1 X117.952 Y127.352 E0.02757
G1 X117.073 Y127.759 E0.03038
G1 X116.280 Y128.035 E0.02631
G1 X115.408 Y128.247 E0.02813
G1 X114.914 Y128.329 E0.01572
G1 X114.471 Y128.377 E0.01396
G1 X113.556 Y128.410 E0.02872
G1 X112.680 Y128.356 E0.02751
G1 X111.867 Y128.228 E0.02580
G1 X111.089 Y128.035 E0.02514
G1 X110.573 Y127.865 E0.01701
G1 X110.144 Y127.696 E0.01447
G1 X109.320 Y127.299 E0.02867
G1 X108.602 Y126.864 E0.02630
G1 X107.852 Y126.304 E0.02936
G1 X107.194 Y125.700 E0.02802
G1 X106.561 Y124.987 E0.02987
G1 X106.015 Y124.229 E0.02930
G1 X105.586 Y123.490 E0.02680
G1 X105.198 Y122.638 E0.02935
G1 X104.938 Y121.882 E0.02505
G1 X104.722 Y120.995 E0.02865
G1 X104.594 Y120.069 E0.02928
G1 X104.562 Y119.135 E0.02931
G1 X104.615 Y118.280 E0.02686
G1 X104.758 Y117.396 E0.02808
G1 X104.969 Y116.584 E0.02631
G1 X105.277 Y115.741 E0.02815
G1 X105.453 Y115.350 E0.01344
G1 X105.698 Y114.874 E0.01680
G1 X106.129 Y114.170 E0.02585
G1 X106.680 Y113.439 E0.02870
G1 X107.323 Y112.746 E0.02966
G1 X107.953 Y112.187 E0.02641
G1 X108.709 Y111.637 E0.02932
G1 X109.448 Y111.206 E0.02681
G1 X110.259 Y110.833 E0.02798
G1 X110.627 Y111.055 F10800.000
G1 X110.374 Y111.106
G1 F1200
G1 X111.229 Y110.809 E0.01497
G1 X111.962 Y110.628 E0.01247
G1 X112.745 Y110.507 E0.01310
G1 X113.610 Y110.457 E0.01432
G1 X114.527 Y110.498 E0.01517
G1 X115.460 Y110.639 E0.01560
G1 X116.303 Y110.856 E0.01439
G1 X116.850 Y111.044 E0.00956
G1 X117.222 Y111.199 E0.00665
G1 X117.989 Y111.581 E0.01416
G1 X118.664 Y111.998 E0.01312
G1 X119.367 Y112.533 E0.01460
G1 X120.039 Y113.162 E0.01521
G1 X120.604 Y113.805 E0.01414
G1 X120.917 Y114.219 E0.00859
G1 X121.139 Y114.559 E0.00671
G1 X121.564 Y115.301 E0.01414
G1 X121.906 Y116.075 E0.01398
G1 X122.179 Y116.886 E0.01414
G1 X122.304 Y117.369 E0.00825
G1 X122.391 Y117.807 E0.00738
G1 X122.484 Y118.565 E0.01262
G1 X122.510 Y119.470 E0.01497
G1 X122.486 Y120.014 E0.00900
G1 X122.441 Y120.397 E0.00637
G1 X122.281 Y121.288 E0.01496
G1 X122.030 Y122.159 E0.01498
G1 X121.733 Y122.912 E0.01339
G1 X121.369 Y123.639 E0.01343
G1 X120.891 Y124.382 E0.01461
G1 X120.405 Y125.011 E0.01313
G1 X119.810 Y125.642 E0.01433
G1 X119.203 Y126.179 E0.01340
G1 X118.546 Y126.656 E0.01342
G1 X117.815 Y127.090 E0.01405
G1 X116.961 Y127.484 E0.01553
G1 X116.197 Y127.751 E0.01339
G1 X115.349 Y127.955 E0.01441
G1 X114.626 Y128.066 E0.01208
G1 X113.559 Y128.112 E0.01765
G1 X112.712 Y128.061 E0.01403
G1 X111.925 Y127.938 E0.01316
G1 X111.096 Y127.728 E0.01415
G1 X110.262 Y127.426 E0.01466
G1 X109.462 Y127.038 E0.01470
G1 X108.767 Y126.620 E0.01339
G1 X108.041 Y126.075 E0.01500
G1 X107.406 Y125.491 E0.01427
G1 X106.794 Y124.801 E0.01524
G1 X106.266 Y124.066 E0.01495
G1 X105.850 Y123.353 E0.01364
G1 X105.476 Y122.527 E0.01499
G1 X105.222 Y121.799 E0.01274
G1 X105.014 Y120.939 E0.01463
G1 X104.891 Y120.044 E0.01493
G1 X104.859 Y119.139 E0.01496
G1 X104.909 Y118.313 E0.01368
G1 X105.050 Y117.457 E0.01433
G1 X105.255 Y116.673 E0.01340
G1 X105.552 Y115.853 E0.01442
G1 X105.785 Y115.342 E0.00927
G1 X105.959 Y115.021 E0.00605
G1 X106.376 Y114.338 E0.01321
G1 X106.778 Y113.790 E0.01125
G1 X107.348 Y113.138 E0.01431
G1 X107.906 Y112.615 E0.01264
G1 X108.631 Y112.051 E0.01517
G1 X109.409 Y111.564 E0.01518
G1 X110.318 Y111.129 E0.01665
G1 F8640
G1 X111.229 Y110.809 E-0.22295
G1 X111.962 Y110.628 E-0.17425
