; generated by PrusaSlicer 2.0.0+linux64 on 2019-07-06 at 18:36:49

; 

; external perimeters extrusion width = 0.60mm
; perimeters extrusion width = 0.50mm
; infill extrusion width = 0.50mm
; solid infill extrusion width = 0.50mm
; top infill extrusion width = 0.45mm
; first layer extrusion width = 0.42mm

M73 P0 R26
M73 Q0 S26
M201 X1000 Y1000 Z1000 E5000 ; sets maximum accelerations, mm/sec^2
M203 X200 Y200 Z12 E120 ; sets maximum feedrates, mm/sec
M204 P1250 R1250 T1250 ; sets acceleration (P, T) and retract acceleration (R), mm/sec^2
M205 X8.00 Y8.00 Z0.40 E1.50 ; sets the jerk limits, mm/sec
M205 S0 T0 ; sets the minimum extruding and travel feed rate, mm/sec
M107
M115 U3.7.1 ; tell printer latest fw version
G90 ; use absolute coordinates
M83 ; extruder relative mode
M104 S230 ; set extruder temp
M140 S85 ; set bed temp
M190 S85 ; wait for bed temp
M109 S230 ; wait for extruder temp
G28 W ; home all without mesh bed level
G80 ; mesh bed leveling
G1 Y-3.0 F1000.0 ; go outside print area
G92 E0.0
G1 X60.0 E9.0 F1000.0 ; intro line
M73 Q0 S26
M73 P0 R26
G1 X100.0 E12.5 F1000.0 ; intro line
G92 E0.0
M221 S95
M900 K45 ; Filament gcode
G21 ; set units to millimeters
G90 ; use absolute coordinates
M83 ; use relative distances for extrusion
;BEFORE_LAYER_CHANGE
G92 E0.0
;0.2


G1 E-0.80000 F2100.00000
G1 Z0.600 F10800.000
;AFTER_LAYER_CHANGE
;0.2
G1 X107.113 Y89.441
G1 Z0.200
G1 E0.80000 F2100.00000
M204 S1000
G1 F1200
G1 X107.940 Y88.143 E0.04826
G1 X108.331 Y87.793 E0.01646
G1 X109.370 Y87.143 E0.03841
G1 X110.906 Y86.814 E0.04925
G1 X139.004 Y86.811 E0.88100
G1 X140.563 Y87.114 E0.04979
G1 X141.927 Y88.004 E0.05108
G1 X142.857 Y89.370 E0.05180
G1 X143.180 Y90.811 E0.04630
G1 X143.187 Y119.080 E0.88638
G1 X142.887 Y120.559 E0.04731
G1 X142.060 Y121.857 E0.04826
G1 X141.666 Y122.209 E0.01658
G1 X140.614 Y122.865 E0.03887
G1 X139.014 Y123.188 E0.05117
G1 X110.920 Y123.187 E0.88088
G1 X109.441 Y122.887 E0.04731
G1 X108.143 Y122.060 E0.04826
G1 X107.791 Y121.666 E0.01658
G1 X107.135 Y120.614 E0.03887
G1 X106.812 Y119.014 E0.05117
G1 X106.813 Y90.920 E0.88088
G1 X107.101 Y89.500 E0.04543
G1 F8640
G1 X107.940 Y88.143 E-0.36836
G1 X108.331 Y87.793 E-0.12123
G1 X109.324 Y87.171 E-0.27041
G1 E-0.04000 F2100.00000
G1 Z0.800 F10800.000
G1 X125.000 Y99.402
G1 Z0.200
G1 E0.80000 F2100.00000
G1 F1200
G1 X127.035 Y99.790 E0.06494
G1 X128.060 Y100.321 E0.03619
G1 X128.953 Y101.047 E0.03609
G1 X129.679 Y101.940 E0.03609
G1 X130.210 Y102.965 E0.03619
G1 X130.598 Y105.000 E0.06494
G1 X130.210 Y107.035 E0.06494
G1 X129.679 Y108.060 E0.03619
G1 X128.953 Y108.953 E0.03609
G1 X128.060 Y109.679 E0.03609
G1 X127.035 Y110.210 E0.03619
G1 X125.000 Y110.598 E0.06494
G1 X122.965 Y110.210 E0.06494
G1 X121.940 Y109.679 E0.03619
G1 X121.047 Y108.953 E0.03609
G1 X120.321 Y108.060 E0.03609
G1 X119.790 Y107.035 E0.03619
G1 X119.402 Y105.000 E0.06494
G1 X119.790 Y102.965 E0.06494
G1 X120.321 Y101.940 E0.03619
G1 X121.047 Y101.047 E0.03609
G1 X121.940 Y100.321 E0.03609
G1 X122.965 Y99.790 E0.03619
G1 X124.941 Y99.414 E0.06306
G1 X125.000 Y99.786 F10800.000
G1 F1200
G1 X126.910 Y100.151 E0.06096
G1 X127.852 Y100.638 E0.03326
G1 X128.685 Y101.315 E0.03365
G1 X129.362 Y102.148 E0.03365
G1 X129.849 Y103.090 E0.03326
G1 X130.214 Y105.000 E0.06096
G1 X129.849 Y106.910 E0.06096
G1 X129.362 Y107.852 E0.03326
G1 X128.685 Y108.685 E0.03365
G1 X127.852 Y109.362 E0.03365
G1 X126.910 Y109.849 E0.03326
G1 X125.000 Y110.214 E0.06096
G1 X123.090 Y109.849 E0.06096
G1 X122.148 Y109.362 E0.03326
G1 X121.315 Y108.685 E0.03365
G1 X120.638 Y107.852 E0.03365
G1 X120.151 Y106.910 E0.03326
G1 X119.786 Y105.000 E0.06096
G1 X120.151 Y103.090 E0.06096
G1 X120.638 Y102.148 E0.03326
G1 X121.315 Y101.315 E0.03365
G1 X122.148 Y100.638 E0.03365
G1 X123.090 Y100.151 E0.03326
G1 X124.941 Y99.797 E0.05908
G1 X125.210 Y99.446 F10800.000
G1 F8640
G1 X126.910 Y100.151 E-0.46186
G1 X127.852 Y100.638 E-0.24493
G1 X128.031 Y100.784 E-0.05321
G1 E-0.04000 F2100.00000
G1 Z0.800 F10800.000
G1 X139.992 Y90.012
G1 Z0.200
G1 E0.80000 F2100.00000
G1 F1200
G1 X140.305 Y90.489 E0.01788
G1 X140.413 Y91.055 E0.01810
G1 X140.413 Y118.945 E0.87444
G1 X140.305 Y119.511 E0.01810
G1 X139.990 Y119.990 E0.01796
G1 X139.511 Y120.305 E0.01796
G1 X138.945 Y120.413 E0.01810
G1 X111.055 Y120.413 E0.87444
G1 X110.489 Y120.305 E0.01810
G1 X110.010 Y119.990 E0.01796
G1 X109.695 Y119.511 E0.01796
G1 X109.587 Y118.945 E0.01810
G1 X109.587 Y91.055 E0.87444
G1 X109.695 Y90.489 E0.01810
G1 X110.010 Y90.010 E0.01796
G1 X110.489 Y89.695 E0.01796
G1 X111.055 Y89.587 E0.01810
G1 X138.945 Y89.587 E0.87444
G1 X139.496 Y89.692 E0.01759
G1 X139.941 Y89.979 E0.01662
G1 X140.263 Y89.738 F10800.000
G1 F1200
G1 X140.661 Y90.344 E0.02273
G1 X140.790 Y91.020 E0.02157
G1 X140.790 Y118.980 E0.87668
G1 X140.661 Y119.656 E0.02157
G1 X140.263 Y120.263 E0.02276
G1 X139.656 Y120.661 E0.02276
G1 X138.980 Y120.790 E0.02157
G1 X111.020 Y120.790 E0.87668
G1 X110.344 Y120.661 E0.02157
G1 X109.737 Y120.263 E0.02276
G1 X109.339 Y119.656 E0.02276
G1 X109.210 Y118.980 E0.02157
G1 X109.210 Y91.020 E0.87668
G1 X109.339 Y90.344 E0.02157
G1 X109.737 Y89.737 E0.02276
G1 X110.344 Y89.339 E0.02276
G1 X111.020 Y89.210 E0.02157
G1 X138.980 Y89.210 E0.87668
G1 X139.638 Y89.336 E0.02101
G1 X140.213 Y89.706 E0.02142
G1 X140.158 Y90.124 F10800.000
G1 F8640
G1 X140.661 Y90.344 E-0.18016
G1 X140.790 Y91.020 E-0.15882
G1 X140.790 Y92.843 E-0.42102
G1 E-0.04000 F2100.00000
G1 Z0.800 F10800.000
G1 X140.300 Y91.263
G1 Z0.200
G1 E0.80000 F2100.00000
G1 F1200
G1 X138.907 Y89.870 E0.06229
G1 X138.369 Y89.870 E0.01700
G1 X140.130 Y91.631 E0.07874
G1 X140.130 Y92.169 E0.01700
G1 X137.831 Y89.870 E0.10279
G1 X137.294 Y89.870 E0.01700
G1 X140.130 Y92.706 E0.12683
G1 X140.130 Y93.244 E0.01700
G1 X136.756 Y89.870 E0.15087
G1 X136.218 Y89.870 E0.01700
G1 X140.130 Y93.782 E0.17492
G1 X140.130 Y94.320 E0.01700
G1 X135.680 Y89.870 E0.19896
G1 X135.143 Y89.870 E0.01700
G1 X140.130 Y94.857 E0.22300
G1 X140.130 Y95.395 E0.01700
G1 X134.605 Y89.870 E0.24705
G1 X134.067 Y89.870 E0.01700
G1 X140.130 Y95.933 E0.27109
G1 X140.130 Y96.471 E0.01700
G1 X133.529 Y89.870 E0.29513
G1 X132.992 Y89.870 E0.01700
G1 X140.130 Y97.008 E0.31917
G1 X140.130 Y97.546 E0.01700
G1 X132.454 Y89.870 E0.34322
G1 X131.916 Y89.870 E0.01700
G1 X140.130 Y98.084 E0.36726
G1 X140.130 Y98.621 E0.01700
G1 X131.379 Y89.870 E0.39130
G1 X130.841 Y89.870 E0.01700
G1 X140.130 Y99.159 E0.41535
G1 X140.130 Y99.697 E0.01700
G1 X130.303 Y89.870 E0.43939
G1 X129.765 Y89.870 E0.01700
G1 X140.130 Y100.235 E0.46343
G1 X140.130 Y100.772 E0.01700
G1 X129.228 Y89.870 E0.48748
G1 X128.690 Y89.870 E0.01700
G1 X140.130 Y101.310 E0.51152
G1 X140.130 Y101.848 E0.01700
G1 X128.152 Y89.870 E0.53556
G1 X127.614 Y89.870 E0.01700
G1 X140.130 Y102.386 E0.55961
G1 X140.130 Y102.923 E0.01700
G1 X127.077 Y89.870 E0.58365
G1 X126.539 Y89.870 E0.01700
G1 X140.130 Y103.461 E0.60769
G1 X140.130 Y103.999 E0.01700
G1 X126.001 Y89.870 E0.63174
G1 X125.464 Y89.870 E0.01700
G1 X140.130 Y104.536 E0.65578
G1 X140.130 Y105.074 E0.01700
G1 X124.926 Y89.870 E0.67982
G1 X124.388 Y89.870 E0.01700
G1 X140.130 Y105.612 E0.70387
G1 X140.130 Y106.150 E0.01700
G1 X123.850 Y89.870 E0.72791
G1 X123.313 Y89.870 E0.01700
G1 X140.130 Y106.687 E0.75195
G1 X140.130 Y107.225 E0.01700
G1 X122.775 Y89.870 E0.77599
G1 X122.237 Y89.870 E0.01700
G1 X140.130 Y107.763 E0.80004
G1 X140.130 Y108.301 E0.01700
G1 X121.699 Y89.870 E0.82408
G1 X121.162 Y89.870 E0.01700
G1 X140.130 Y108.838 E0.84812
G1 X140.130 Y109.376 E0.01700
G1 X120.624 Y89.870 E0.87217
G1 X120.086 Y89.870 E0.01700
G1 X140.130 Y109.914 E0.89621
G1 X140.130 Y110.451 E0.01700
G1 X119.549 Y89.870 E0.92025
G1 X119.011 Y89.870 E0.01700
G1 X140.130 Y110.989 E0.94430
G1 X140.130 Y111.527 E0.01700
G1 X118.473 Y89.870 E0.96834
M73 Q4 S25
M73 P4 R25
G1 X117.935 Y89.870 E0.01700
G1 X129.027 Y100.962 E0.49595
G1 X129.038 Y100.973 F10800.000
G1 F1200
G1 X140.300 Y112.234 E0.50354
G1 X140.300 Y112.772 F10800.000
G1 F1200
G1 X130.498 Y102.971 E0.43824
G1 X130.625 Y103.635 E0.02139
G1 X140.130 Y113.140 E0.42499
G1 X140.130 Y113.678 E0.01700
G1 X130.752 Y104.300 E0.41932
G1 X130.879 Y104.964 E0.02139
G1 X140.130 Y114.216 E0.41365
G1 X140.130 Y114.753 E0.01700
G1 X130.804 Y105.427 E0.41699
G1 X130.718 Y105.879 E0.01454
G1 X140.130 Y115.291 E0.42084
G1 X140.130 Y115.829 E0.01700
G1 X130.632 Y106.330 E0.42469
G1 X130.546 Y106.782 E0.01454
G1 X140.130 Y116.367 E0.42855
G1 X140.130 Y116.904 E0.01700
G1 X130.437 Y107.211 E0.43341
G1 X130.253 Y107.565 E0.01261
G1 X140.130 Y117.442 E0.44162
G1 X140.130 Y117.980 E0.01700
G1 X130.070 Y107.919 E0.44983
G1 X129.877 Y108.264 E0.01249
G1 X140.130 Y118.517 E0.45845
G1 X140.130 Y118.918 E0.01266
G1 X140.108 Y119.033 E0.00371
G1 X129.636 Y108.561 E0.46825
G1 X129.395 Y108.857 E0.01209
G1 X139.999 Y119.462 E0.47415
G1 X139.786 Y119.786 E0.01227
G1 X129.154 Y109.154 E0.47539
G1 X128.857 Y109.395 E0.01209
G1 X139.461 Y119.999 E0.47414
G1 X139.403 Y120.038 E0.00219
G1 X139.032 Y120.108 E0.01194
G1 X128.560 Y109.636 E0.46823
G1 X128.264 Y109.877 E0.01209
G1 X138.516 Y120.130 E0.45843
G1 X137.979 Y120.130 E0.01700
G1 X127.919 Y110.070 E0.44981
G1 X127.564 Y110.254 E0.01261
G1 X137.441 Y120.130 E0.44161
G1 X136.903 Y120.130 E0.01700
G1 X127.210 Y110.437 E0.43340
G1 X127.128 Y110.480 E0.00293
G1 X126.781 Y110.546 E0.01116
G1 X136.366 Y120.130 E0.42854
G1 X135.828 Y120.130 E0.01700
G1 X126.330 Y110.632 E0.42469
G1 X125.878 Y110.718 E0.01454
G1 X135.290 Y120.130 E0.42084
G1 X134.752 Y120.130 E0.01700
G1 X125.426 Y110.804 E0.41698
G1 X125.000 Y110.886 E0.01373
G1 X124.963 Y110.878 E0.00119
G1 X134.215 Y120.130 E0.41366
G1 X133.677 Y120.130 E0.01700
G1 X124.299 Y110.752 E0.41933
G1 X123.634 Y110.625 E0.02139
G1 X133.139 Y120.130 E0.42500
G1 X132.601 Y120.130 E0.01700
G1 X122.639 Y110.168 E0.44543
G1 X121.920 Y109.986 F10800.000
G1 F1200
G1 X132.064 Y120.130 E0.45355
G1 X131.526 Y120.130 E0.01700
G1 X109.870 Y98.474 E0.96830
G1 X109.870 Y99.012 E0.01700
G1 X130.988 Y120.130 E0.94425
G1 X130.451 Y120.130 E0.01700
G1 X109.870 Y99.549 E0.92021
G1 X109.870 Y100.087 E0.01700
G1 X129.913 Y120.130 E0.89617
G1 X129.375 Y120.130 E0.01700
G1 X109.870 Y100.625 E0.87212
G1 X109.870 Y101.163 E0.01700
G1 X128.837 Y120.130 E0.84808
G1 X128.300 Y120.130 E0.01700
G1 X109.870 Y101.700 E0.82404
G1 X109.870 Y102.238 E0.01700
G1 X127.762 Y120.130 E0.79999
G1 X127.224 Y120.130 E0.01700
G1 X109.870 Y102.776 E0.77595
G1 X109.870 Y103.314 E0.01700
G1 X126.686 Y120.130 E0.75191
G1 X126.149 Y120.130 E0.01700
G1 X109.870 Y103.851 E0.72786
G1 X109.870 Y104.389 E0.01700
G1 X125.611 Y120.130 E0.70382
G1 X125.073 Y120.130 E0.01700
G1 X109.870 Y104.927 E0.67978
G1 X109.870 Y105.465 E0.01700
G1 X124.535 Y120.130 E0.65574
G1 X123.998 Y120.130 E0.01700
G1 X109.870 Y106.002 E0.63169
G1 X109.870 Y106.540 E0.01700
G1 X123.460 Y120.130 E0.60765
G1 X122.922 Y120.130 E0.01700
G1 X109.870 Y107.078 E0.58361
G1 X109.870 Y107.615 E0.01700
G1 X122.385 Y120.130 E0.55956
G1 X121.847 Y120.130 E0.01700
G1 X109.870 Y108.153 E0.53552
G1 X109.870 Y108.691 E0.01700
G1 X121.309 Y120.130 E0.51148
G1 X120.771 Y120.130 E0.01700
G1 X109.870 Y109.229 E0.48743
G1 X109.870 Y109.766 E0.01700
G1 X120.234 Y120.130 E0.46339
G1 X119.696 Y120.130 E0.01700
G1 X109.870 Y110.304 E0.43935
G1 X109.870 Y110.842 E0.01700
G1 X119.158 Y120.130 E0.41530
G1 X118.620 Y120.130 E0.01700
G1 X109.870 Y111.380 E0.39126
G1 X109.870 Y111.917 E0.01700
G1 X118.083 Y120.130 E0.36722
G1 X117.545 Y120.130 E0.01700
G1 X109.870 Y112.455 E0.34317
G1 X109.870 Y112.993 E0.01700
G1 X117.007 Y120.130 E0.31913
G1 X116.470 Y120.130 E0.01700
G1 X109.870 Y113.530 E0.29509
G1 X109.870 Y114.068 E0.01700
G1 X115.932 Y120.130 E0.27104
G1 X115.394 Y120.130 E0.01700
G1 X109.870 Y114.606 E0.24700
G1 X109.870 Y115.144 E0.01700
G1 X114.856 Y120.130 E0.22296
G1 X114.319 Y120.130 E0.01700
G1 X109.870 Y115.681 E0.19892
G1 X109.870 Y116.219 E0.01700
G1 X113.781 Y120.130 E0.17487
G1 X113.243 Y120.130 E0.01700
G1 X109.870 Y116.757 E0.15083
G1 X109.870 Y117.295 E0.01700
G1 X112.705 Y120.130 E0.12679
G1 X112.168 Y120.130 E0.01700
G1 X109.870 Y117.832 E0.10274
G1 X109.870 Y118.370 E0.01700
G1 X111.630 Y120.130 E0.07870
G1 X111.092 Y120.130 E0.01700
G1 X109.700 Y118.738 E0.06224
G1 F8640
G1 X111.092 Y120.130 E-0.45458
G1 X111.630 Y120.130 E-0.12416
G1 X111.075 Y119.575 E-0.18126
G1 E-0.04000 F2100.00000
G1 Z0.800 F10800.000
G1 X120.014 Y108.080
G1 Z0.200
G1 E0.80000 F2100.00000
G1 F1200
G1 X109.870 Y97.936 E0.45355
G1 X109.870 Y97.399 E0.01700
G1 X119.502 Y107.030 E0.43066
G1 X119.375 Y106.366 E0.02139
G1 X109.870 Y96.861 E0.42500
G1 X109.870 Y96.323 E0.01700
G1 X119.248 Y105.701 E0.41933
G1 X119.122 Y105.037 E0.02139
M73 Q8 S24
M73 P8 R24
G1 X109.870 Y95.785 E0.41366
G1 X109.870 Y95.248 E0.01700
G1 X119.196 Y104.574 E0.41698
G1 X119.282 Y104.122 E0.01454
G1 X109.870 Y94.710 E0.42084
G1 X109.870 Y94.172 E0.01700
G1 X119.368 Y103.670 E0.42469
G1 X119.454 Y103.219 E0.01454
G1 X109.870 Y93.634 E0.42854
G1 X109.870 Y93.097 E0.01700
G1 X119.563 Y102.790 E0.43340
G1 X119.746 Y102.436 E0.01261
G1 X109.870 Y92.559 E0.44161
G1 X109.870 Y92.021 E0.01700
G1 X119.930 Y102.081 E0.44981
G1 X120.123 Y101.736 E0.01249
G1 X109.870 Y91.484 E0.45843
G1 X109.870 Y91.082 E0.01269
G1 X109.892 Y90.968 E0.00369
G1 X120.364 Y101.440 E0.46823
G1 X120.605 Y101.143 E0.01209
G1 X110.001 Y90.539 E0.47414
G1 X110.214 Y90.214 E0.01228
G1 X120.846 Y100.846 E0.47539
G1 X121.143 Y100.605 E0.01209
G1 X110.538 Y90.001 E0.47415
G1 X110.597 Y89.962 E0.00222
G1 X110.967 Y89.892 E0.01191
G1 X121.439 Y100.364 E0.46825
G1 X121.736 Y100.123 E0.01209
G1 X111.483 Y89.870 E0.45845
G1 X112.020 Y89.870 E0.01700
G1 X122.081 Y99.930 E0.44983
G1 X122.435 Y99.747 E0.01261
G1 X112.558 Y89.870 E0.44162
G1 X113.096 Y89.870 E0.01700
G1 X122.789 Y99.563 E0.43342
G1 X122.872 Y99.520 E0.00295
G1 X123.218 Y99.454 E0.01114
G1 X113.633 Y89.870 E0.42855
G1 X114.171 Y89.870 E0.01700
G1 X123.670 Y99.368 E0.42469
G1 X124.121 Y99.282 E0.01454
G1 X114.709 Y89.870 E0.42084
G1 X115.247 Y89.870 E0.01700
G1 X124.573 Y99.196 E0.41699
G1 X125.036 Y99.121 E0.01483
G1 X115.784 Y89.870 E0.41365
G1 X116.322 Y89.870 E0.01700
G1 X125.700 Y99.248 E0.41932
G1 X126.365 Y99.375 E0.02139
G1 X116.860 Y89.870 E0.42499
G1 X117.398 Y89.870 E0.01700
G1 X127.359 Y99.831 E0.44538
;BEFORE_LAYER_CHANGE
G92 E0.0
;0.5


G1 F8640
G1 X125.031 Y97.504 E-0.76000
G1 E-0.04000 F2100.00000
G1 Z0.800 F10800.000
;AFTER_LAYER_CHANGE
;0.5
M104 S240 ; set temperature
M140 S90 ; set bed temperature
G1 X141.927 Y88.004
G1 Z0.500
G1 E0.80000 F2100.00000
G1 F2700
G1 X142.857 Y89.370 E0.07328
G1 X143.180 Y90.811 E0.06550
G1 X143.187 Y119.080 E1.25390
G1 X142.887 Y120.559 E0.06693
G1 X142.060 Y121.857 E0.06827
G1 X141.666 Y122.209 E0.02345
G1 X140.614 Y122.865 E0.05498
G1 X139.014 Y123.188 E0.07238
G1 X110.920 Y123.187 E1.24613
G1 X109.441 Y122.887 E0.06693
G1 X108.143 Y122.060 E0.06827
G1 X107.791 Y121.666 E0.02345
G1 X107.135 Y120.614 E0.05498
G1 X106.812 Y119.014 E0.07238
G1 X106.813 Y90.920 E1.24613
G1 X107.113 Y89.441 E0.06693
G1 X107.940 Y88.143 E0.06827
G1 X108.331 Y87.793 E0.02329
G1 X109.370 Y87.143 E0.05434
G1 X110.906 Y86.814 E0.06967
G1 X139.004 Y86.811 E1.24629
G1 X140.563 Y87.114 E0.07044
G1 X141.877 Y87.972 E0.06960
G1 F8640
G1 X142.857 Y89.370 E-0.39430
G1 X143.180 Y90.811 E-0.34100
G1 X143.180 Y90.918 E-0.02471
G1 E-0.04000 F2100.00000
G1 Z1.100 F10800.000
G1 X125.000 Y99.200
G1 Z0.500
G1 E0.80000 F2100.00000
M204 S800
G1 F1800
G1 X127.100 Y99.601 E0.11617
G1 X128.169 Y100.154 E0.06540
G1 X129.094 Y100.906 E0.06476
G1 X129.846 Y101.831 E0.06476
G1 X130.399 Y102.900 E0.06540
G1 X130.800 Y105.000 E0.11617
G1 X130.399 Y107.100 E0.11617
G1 X129.846 Y108.169 E0.06540
G1 X129.094 Y109.094 E0.06476
G1 X128.169 Y109.846 E0.06476
G1 X127.100 Y110.399 E0.06540
G1 X125.000 Y110.800 E0.11617
G1 X122.900 Y110.399 E0.11617
G1 X121.831 Y109.846 E0.06540
G1 X120.906 Y109.094 E0.06476
G1 X120.154 Y108.169 E0.06476
G1 X119.601 Y107.100 E0.06540
G1 X119.200 Y105.000 E0.11617
G1 X119.601 Y102.900 E0.11617
