; generated by PrusaSlicer 2.0.0+linux64 on 2019-09-15 at 13:36:56

; 

; external perimeters extrusion width = 0.60mm
; perimeters extrusion width = 0.50mm
; infill extrusion width = 0.50mm
; solid infill extrusion width = 0.50mm
; top infill extrusion width = 0.45mm
; support material extrusion width = 0.35mm
; first layer extrusion width = 0.42mm

M73 P0 R69
M73 Q0 S69
M201 X1000 Y1000 Z1000 E5000 ; sets maximum accelerations, mm/sec^2
M203 X200 Y200 Z12 E120 ; sets maximum feedrates, mm/sec
M204 P1250 R1250 T1250 ; sets acceleration (P, T) and retract acceleration (R), mm/sec^2
M205 X8.00 Y8.00 Z0.40 E1.50 ; sets the jerk limits, mm/sec
M205 S0 T0 ; sets the minimum extruding and travel feed rate, mm/sec
M107
M115 U3.7.2 ; tell printer latest fw version
G90 ; use absolute coordinates
M83 ; extruder relative mode
M104 S230 ; set extruder temp
M140 S85 ; set bed temp
M190 S85 ; wait for bed temp
M109 S230 ; wait for extruder temp
G28 W ; home all without mesh bed level
G80 ; mesh bed leveling
G1 Y-3.0 F1000.0 ; go outside print area
G92 E0.0
G1 X60.0 E9.0 F1000.0 ; intro line
M73 Q0 S69
M73 P0 R69
G1 X100.0 E12.5 F1000.0 ; intro line
G92 E0.0
M221 S95
M900 K45 ; Filament gcode
G21 ; set units to millimeters
G90 ; use absolute coordinates
M83 ; use relative distances for extrusion
;BEFORE_LAYER_CHANGE
G92 E0.0
;0.2


G1 E-0.80000 F2100.00000
G1 Z0.600 F10800.000
;AFTER_LAYER_CHANGE
;0.2
G1 X90.653 Y86.045
G1 Z0.200
G1 E0.80000 F2100.00000
M204 S1000
G1 F1200
G1 X92.345 Y81.022 E0.16618
G1 X92.583 Y80.571 E0.01601
G1 X92.920 Y80.187 E0.01601
G1 X93.395 Y79.861 E0.01805
G1 X107.258 Y72.911 E0.48625
G1 X110.552 Y71.765 E0.10935
G1 X113.666 Y71.210 E0.09916
G1 X116.854 Y71.150 E0.09997
G1 X120.418 Y71.664 E0.11291
G1 X123.799 Y72.777 E0.11162
G1 X149.220 Y84.273 E0.87476
G1 X150.196 Y84.874 E0.03595
G1 X150.578 Y85.208 E0.01589
G1 X151.410 Y86.438 E0.04657
G1 X151.757 Y87.870 E0.04620
G1 X152.586 Y110.506 E0.71022
G1 X152.567 Y112.513 E0.06292
G1 X152.151 Y113.799 E0.04237
G1 X151.905 Y114.200 E0.01475
G1 X151.215 Y115.011 E0.03340
G1 X150.127 Y115.703 E0.04042
G1 X124.759 Y127.452 E0.87657
G1 X121.377 Y128.590 E0.11189
G1 X117.816 Y129.127 E0.11291
G1 X114.574 Y129.080 E0.10168
G1 X111.447 Y128.532 E0.09953
G1 X108.019 Y127.340 E0.11378
G1 X104.981 Y125.638 E0.10921
G1 X94.103 Y119.234 E0.39577
G1 X93.507 Y118.712 E0.02484
G1 X91.775 Y116.194 E0.09582
G1 X91.479 Y115.329 E0.02867
G1 X90.627 Y94.782 E0.64477
G1 X90.653 Y86.105 E0.27208
G1 F8640
G1 X91.692 Y82.982 E-0.76000
G1 E-0.04000 F2100.00000
G1 Z0.800 F10800.000
G1 X93.652 Y106.704
G1 Z0.200
G1 E0.80000 F2100.00000
G1 F1200
G1 X93.652 Y115.068 E0.26224
G1 X94.406 Y115.068 E0.02365
G1 X94.406 Y106.874 E0.25692
G1 X95.161 Y106.874 E0.02365
G1 X95.161 Y115.068 E0.25692
G1 X95.223 Y115.068 E0.00196
G1 X95.223 Y117.353 E0.07166
G1 X95.915 Y117.353 E0.02169
G1 X95.915 Y104.588 E0.40025
G1 X96.669 Y104.588 E0.02365
G1 X96.669 Y117.523 E0.40557
G1 X99.686 Y116.774 F10800.000
G1 F1200
G1 X99.686 Y117.353 E0.01817
G1 X98.931 Y117.353 E0.02365
G1 X98.931 Y115.377 E0.06198
G1 X98.267 Y113.573 E0.06027
G1 X98.177 Y113.115 E0.01464
G1 X98.177 Y117.353 E0.13290
G1 X97.423 Y117.353 E0.02365
G1 X97.423 Y104.588 E0.40025
G1 X97.509 Y104.588 E0.00268
G1 X97.509 Y102.303 E0.07166
G1 X98.177 Y102.303 E0.02096
G1 X98.177 Y108.858 E0.20555
G1 X98.712 Y108.073 E0.02978
G1 X98.783 Y108.004 E0.00312
G1 X98.931 Y107.909 E0.00551
G1 X98.931 Y102.303 E0.17580
G1 X99.686 Y102.303 E0.02365
G1 X99.686 Y107.429 E0.16072
G1 X99.884 Y107.302 E0.00739
G1 X99.973 Y107.267 E0.00300
G1 X100.440 Y107.184 E0.01485
G1 X100.440 Y102.303 E0.15304
G1 X101.194 Y102.303 E0.02365
G1 X101.194 Y107.054 E0.14897
G1 X101.948 Y107.193 E0.02404
G1 X101.948 Y102.303 E0.15332
G1 X102.702 Y102.303 E0.02365
G1 X102.702 Y107.441 E0.16110
G1 X103.456 Y107.943 E0.02841
G1 X103.456 Y102.303 E0.17685
G1 X104.210 Y102.303 E0.02365
G1 X104.210 Y108.921 E0.20751
G1 X104.404 Y109.218 E0.01110
G1 X104.439 Y109.306 E0.00300
G1 X104.654 Y110.438 E0.03611
G1 X104.965 Y111.685 E0.04032
G1 X104.965 Y102.303 E0.29419
G1 X105.703 Y102.303 E0.02314
G1 X105.703 Y104.588 E0.07166
G1 X105.719 Y104.588 E0.00051
G1 X105.719 Y113.710 E0.28602
G1 X105.987 Y114.320 E0.02087
G1 X106.473 Y115.042 E0.02730
G1 X106.473 Y104.588 E0.32777
G1 X107.227 Y104.588 E0.02365
G1 X107.227 Y116.148 E0.36246
G1 X107.981 Y116.920 E0.03383
G1 X107.988 Y104.588 E0.38665
G1 X107.988 Y109.159 E0.14333
G1 X108.735 Y109.159 E0.02343
G1 X108.735 Y117.353 E0.25692
G1 X109.490 Y117.353 E0.02365
G1 X109.490 Y109.159 E0.25692
G1 X110.244 Y109.159 E0.02365
G1 X110.244 Y117.523 E0.26224
G1 F8640
G1 X110.244 Y114.232 E-0.76000
G1 E-0.04000 F2100.00000
G1 Z0.800 F10800.000
G1 X101.948 Y111.704
G1 Z0.200
G1 E0.80000 F2100.00000
G1 F1200
G1 X101.948 Y109.583 E0.06651
G1 X101.634 Y109.377 E0.01179
G1 X101.194 Y109.293 E0.01404
G1 X101.194 Y111.792 E0.07835
G1 X100.719 Y111.708 E0.01511
G1 X100.440 Y111.524 E0.01049
G1 X100.440 Y109.358 E0.06793
G1 F8640
G1 X100.440 Y111.524 E-0.50023
G1 X100.719 Y111.708 E-0.07728
G1 X101.194 Y111.792 E-0.11125
G1 X101.194 Y111.483 E-0.07124
G1 E-0.04000 F2100.00000
G1 Z0.800 F10800.000
G1 X99.516 Y108.879
G1 Z0.200
G1 E0.80000 F2100.00000
G1 F1200
G1 X100.320 Y108.358 E0.03005
G1 X101.177 Y108.195 E0.02734
G1 X102.045 Y108.360 E0.02773
G1 X102.838 Y108.881 E0.02973
G1 X103.359 Y109.673 E0.02973
G1 X103.524 Y110.542 E0.02773
G1 X103.359 Y111.411 E0.02773
G1 X102.838 Y112.204 E0.02973
G1 X102.045 Y112.724 E0.02973
G1 X101.177 Y112.890 E0.02773
G1 X100.308 Y112.724 E0.02773
G1 X99.515 Y112.204 E0.02973
G1 X98.995 Y111.411 E0.02973
G1 X98.829 Y110.542 E0.02773
G1 X98.995 Y109.673 E0.02773
G1 X99.483 Y108.930 E0.02790
G1 X99.788 Y109.153 F10800.000
G1 F1200
G1 X100.463 Y108.715 E0.02525
G1 X101.177 Y108.579 E0.02276
G1 X101.901 Y108.717 E0.02313
G1 X102.566 Y109.153 E0.02493
G1 X103.002 Y109.818 E0.02493
G1 X103.140 Y110.542 E0.02313
G1 X103.002 Y111.267 E0.02313
G1 X102.566 Y111.931 E0.02493
G1 X101.901 Y112.368 E0.02493
G1 X101.177 Y112.506 E0.02313
G1 X100.452 Y112.368 E0.02313
G1 X99.788 Y111.931 E0.02493
G1 X99.351 Y111.267 E0.02493
G1 X99.213 Y110.542 E0.02313
G1 X99.351 Y109.818 E0.02313
G1 X99.755 Y109.203 E0.02307
G1 X99.688 Y108.765 F10800.000
G1 F8640
G1 X100.463 Y108.715 E-0.19868
G1 X101.177 Y108.579 E-0.16765
G1 X101.901 Y108.717 E-0.17032
G1 X102.566 Y109.153 E-0.18358
G1 X102.660 Y109.297 E-0.03977
G1 E-0.04000 F2100.00000
G1 Z0.800 F10800.000
G1 X133.765 Y113.302
G1 Z0.200
G1 E0.80000 F2100.00000
G1 F1200
G1 X132.538 Y116.413 E0.10486
G1 X130.977 Y119.009 E0.09498
G1 X128.931 Y121.369 E0.09794
G1 X126.464 Y123.364 E0.09948
G1 X123.683 Y124.891 E0.09948
G1 X120.723 Y125.891 E0.09794
G1 X117.730 Y126.352 E0.09498
G1 X114.833 Y126.314 E0.09083
G1 X111.981 Y125.808 E0.09083
G1 X109.127 Y124.793 E0.09498
G1 X106.408 Y123.256 E0.09794
G1 X103.962 Y121.234 E0.09948
G1 X101.914 Y118.811 E0.09948
G1 X100.347 Y116.109 E0.09794
G1 X99.300 Y113.266 E0.09498
G1 X98.776 Y110.488 E0.08865
G1 X98.958 Y109.623 E0.02773
G1 X99.505 Y108.819 E0.03047
G1 X100.324 Y108.297 E0.03047
G1 X101.201 Y108.140 E0.02792
G1 X102.057 Y108.311 E0.02739
G1 X102.884 Y108.855 E0.03101
G1 X103.413 Y109.668 E0.03041
G1 X103.603 Y110.668 E0.03193
G1 X104.122 Y112.751 E0.06732
G1 X105.041 Y114.840 E0.07156
G1 X106.357 Y116.797 E0.07392
G1 X108.033 Y118.511 E0.07516
G1 X109.993 Y119.891 E0.07516
G1 X112.134 Y120.877 E0.07392
G1 X114.344 Y121.450 E0.07156
G1 X116.516 Y121.631 E0.06833
G1 X118.687 Y121.450 E0.06833
G1 X120.897 Y120.877 E0.07156
G1 X123.038 Y119.891 E0.07392
G1 X124.999 Y118.511 E0.07516
G1 X126.674 Y116.797 E0.07516
G1 X127.990 Y114.840 E0.07392
G1 X128.910 Y112.751 E0.07156
G1 X129.313 Y111.129 E0.05241
G1 X149.810 Y111.129 E0.64267
G1 X149.810 Y112.125 E0.03120
G1 X149.654 Y112.569 E0.01477
G1 X149.331 Y112.961 E0.01593
G1 X148.890 Y113.213 E0.01593
G1 X148.376 Y113.302 E0.01635
G1 X133.825 Y113.302 E0.45625
G1 X134.021 Y113.679 F10800.000
G1 F1200
G1 X132.878 Y116.580 E0.09779
G1 X131.283 Y119.231 E0.09699
G1 X129.194 Y121.641 E0.10000
G1 X126.675 Y123.679 E0.10158
G1 X123.835 Y125.238 E0.10158
G1 X120.813 Y126.258 E0.10000
G1 X117.756 Y126.730 E0.09699
G1 X114.797 Y126.691 E0.09277
G1 X111.884 Y126.174 E0.09277
G1 X108.970 Y125.137 E0.09699
G1 X106.193 Y123.568 E0.10000
G1 X103.696 Y121.503 E0.10158
G1 X101.604 Y119.029 E0.10158
G1 X100.005 Y116.270 E0.10000
G1 X98.936 Y113.367 E0.09699
G1 X98.391 Y110.484 E0.09200
G1 X98.604 Y109.472 E0.03243
G1 X99.237 Y108.543 E0.03524
G1 X100.185 Y107.939 E0.03524
G1 X101.205 Y107.756 E0.03249
G1 X102.203 Y107.956 E0.03193
G1 X103.157 Y108.583 E0.03578
G1 X103.770 Y109.524 E0.03522
G1 X103.971 Y110.587 E0.03393
G1 X104.480 Y112.629 E0.06597
G1 X105.373 Y114.658 E0.06950
G1 X106.651 Y116.558 E0.07179
G1 X108.278 Y118.223 E0.07300
G1 X110.182 Y119.563 E0.07300
G1 X112.262 Y120.520 E0.07179
G1 X114.407 Y121.077 E0.06950
G1 X116.516 Y121.253 E0.06634
G1 X118.624 Y121.077 E0.06634
G1 X120.769 Y120.520 E0.06950
G1 X122.849 Y119.563 E0.07179
G1 X124.753 Y118.223 E0.07300
G1 X126.381 Y116.558 E0.07300
G1 X127.659 Y114.658 E0.07179
G1 X128.551 Y112.629 E0.06950
G1 X129.019 Y110.752 E0.06064
G1 X150.187 Y110.752 E0.66373
G1 X150.187 Y112.189 E0.04505
G1 X149.987 Y112.757 E0.01889
G1 X149.578 Y113.254 E0.02018
G1 X149.020 Y113.574 E0.02018
G1 X148.408 Y113.679 E0.01945
G1 X134.081 Y113.679 E0.44921
G1 X133.633 Y113.580 F10800.000
G1 F8640
G1 X132.878 Y116.580 E-0.72537
G1 X132.800 Y116.709 E-0.03463
G1 E-0.04000 F2100.00000
G1 Z0.800 F10800.000
G1 X149.697 Y112.007
G1 Z0.200
G1 E0.80000 F2100.00000
G1 F1200
G1 X149.102 Y111.412 E0.02647
G1 X148.567 Y111.412 E0.01682
G1 X149.450 Y112.295 E0.03928
G1 X149.404 Y112.428 E0.00442
G1 X149.243 Y112.623 E0.00795
G1 X148.032 Y111.412 E0.05385
G1 X147.498 Y111.412 E0.01682
G1 X148.943 Y112.857 E0.06428
G1 X148.793 Y112.943 E0.00543
G1 X148.537 Y112.987 E0.00816
G1 X146.963 Y111.412 E0.07004
G1 X146.428 Y111.412 E0.01682
G1 X148.034 Y113.019 E0.07146
G1 X147.499 Y113.019 E0.01682
G1 X145.893 Y111.412 E0.07146
G1 X145.358 Y111.412 E0.01682
G1 X146.965 Y113.019 E0.07146
G1 X146.430 Y113.019 E0.01682
G1 X144.823 Y111.412 E0.07146
G1 X144.288 Y111.412 E0.01682
G1 X145.895 Y113.019 E0.07146
G1 X145.360 Y113.019 E0.01682
G1 X143.753 Y111.412 E0.07146
G1 X143.218 Y111.412 E0.01682
G1 X144.825 Y113.019 E0.07146
G1 X144.290 Y113.019 E0.01682
G1 X142.683 Y111.412 E0.07146
G1 X142.148 Y111.412 E0.01682
G1 X143.755 Y113.019 E0.07146
G1 X143.220 Y113.019 E0.01682
G1 X141.614 Y111.412 E0.07146
G1 X141.079 Y111.412 E0.01682
G1 X142.685 Y113.019 E0.07146
G1 X142.150 Y113.019 E0.01682
G1 X140.544 Y111.412 E0.07146
G1 X140.009 Y111.412 E0.01682
G1 X141.615 Y113.019 E0.07146
G1 X141.081 Y113.019 E0.01682
G1 X139.474 Y111.412 E0.07146
G1 X138.939 Y111.412 E0.01682
G1 X140.546 Y113.019 E0.07146
G1 X140.011 Y113.019 E0.01682
G1 X138.404 Y111.412 E0.07146
G1 X137.869 Y111.412 E0.01682
G1 X139.476 Y113.019 E0.07146
G1 X138.941 Y113.019 E0.01682
G1 X137.334 Y111.412 E0.07146
G1 X136.799 Y111.412 E0.01682
G1 X138.406 Y113.019 E0.07146
G1 X137.871 Y113.019 E0.01682
G1 X136.264 Y111.412 E0.07146
G1 X135.730 Y111.412 E0.01682
G1 X137.336 Y113.019 E0.07146
G1 X136.801 Y113.019 E0.01682
G1 X135.195 Y111.412 E0.07146
G1 X134.660 Y111.412 E0.01682
G1 X136.266 Y113.019 E0.07146
G1 X135.731 Y113.019 E0.01682
G1 X134.125 Y111.412 E0.07146
G1 X133.590 Y111.412 E0.01682
G1 X135.197 Y113.019 E0.07146
G1 X134.662 Y113.019 E0.01682
G1 X133.055 Y111.412 E0.07146
G1 X132.520 Y111.412 E0.01682
G1 X134.127 Y113.019 E0.07146
G1 X133.592 Y113.019 E0.01682
G1 X131.985 Y111.412 E0.07146
G1 X131.450 Y111.412 E0.01682
G1 X133.426 Y113.388 E0.08789
G1 X133.275 Y113.772 E0.01297
G1 X130.915 Y111.412 E0.10496
G1 X130.381 Y111.412 E0.01682
G1 X133.124 Y114.156 E0.12202
G1 X132.973 Y114.539 E0.01297
G1 X129.846 Y111.412 E0.13909
G1 X129.534 Y111.412 E0.00979
G1 X129.490 Y111.591 E0.00581
G1 X132.822 Y114.923 E0.14819
G1 X132.670 Y115.307 E0.01297
G1 X129.383 Y112.020 E0.14621
G1 X129.277 Y112.448 E0.01388
G1 X132.519 Y115.690 E0.14422
G1 X132.368 Y116.074 E0.01297
G1 X129.166 Y112.872 E0.14243
G1 X129.002 Y113.243 E0.01276
G1 X132.195 Y116.436 E0.14200
G1 X131.994 Y116.770 E0.01226
G1 X128.839 Y113.615 E0.14033
G1 X128.675 Y113.986 E0.01276
G1 X131.793 Y117.104 E0.13867
G1 X131.592 Y117.438 E0.01226
G1 X128.512 Y114.357 E0.13700
G1 X128.348 Y114.729 E0.01276
G1 X131.391 Y117.772 E0.13533
G1 X131.190 Y118.106 E0.01226
G1 X128.168 Y115.083 E0.13443
G1 X127.953 Y115.403 E0.01212
G1 X130.989 Y118.440 E0.13506
G1 X130.788 Y118.774 E0.01226
G1 X127.737 Y115.723 E0.13569
G1 X127.522 Y116.043 E0.01212
G1 X130.549 Y119.070 E0.13464
G1 X130.301 Y119.356 E0.01193
G1 X127.307 Y116.362 E0.13316
G1 X127.092 Y116.682 E0.01212
G1 X130.053 Y119.643 E0.13168
G1 X129.804 Y119.930 E0.01193
G1 X126.873 Y116.998 E0.13038
G1 X126.609 Y117.269 E0.01190
G1 X129.556 Y120.216 E0.13110
G1 X129.308 Y120.503 E0.01193
G1 X126.344 Y117.539 E0.13181
G1 X126.080 Y117.810 E0.01190
G1 X129.059 Y120.789 E0.13253
G1 X128.811 Y121.076 E0.01193
G1 X125.815 Y118.080 E0.13324
G1 X125.551 Y118.351 E0.01190
G1 X128.530 Y121.330 E0.13250
G1 X128.234 Y121.569 E0.01196
G1 X125.286 Y118.621 E0.13111
G1 X125.183 Y118.727 E0.00467
G1 X124.992 Y118.861 E0.00733
G1 X127.939 Y121.808 E0.13106
G1 X127.643 Y122.047 E0.01196
G1 X124.678 Y119.082 E0.13187
G1 X124.364 Y119.303 E0.01207
G1 X127.347 Y122.286 E0.13268
G1 X127.051 Y122.526 E0.01196
G1 X124.050 Y119.524 E0.13349
G1 X123.736 Y119.745 E0.01207
G1 X126.756 Y122.765 E0.13430
G1 X126.460 Y123.004 E0.01196
G1 X123.422 Y119.966 E0.13511
G1 X123.180 Y120.137 E0.00932
G1 X123.096 Y120.175 E0.00289
G1 X126.141 Y123.219 E0.13539
G1 X125.795 Y123.409 E0.01239
G1 X122.730 Y120.344 E0.13633
G1 X122.364 Y120.513 E0.01268
G1 X125.450 Y123.599 E0.13726
G1 X125.105 Y123.788 E0.01239
G1 X121.998 Y120.681 E0.13819
G1 X121.631 Y120.850 E0.01268
G1 X124.759 Y123.978 E0.13913
G1 X124.414 Y124.167 E0.01239
G1 X121.265 Y121.018 E0.14006
G1 X120.992 Y121.144 E0.00945
G1 X120.884 Y121.172 E0.00351
G1 X124.069 Y124.357 E0.14165
G1 X123.723 Y124.547 E0.01239
G1 X120.459 Y121.282 E0.14519
G1 X120.034 Y121.393 E0.01380
G1 X123.348 Y124.706 E0.14738
G1 X122.948 Y124.841 E0.01327
G1 X119.610 Y121.503 E0.14848
G1 X119.185 Y121.613 E0.01380
G1 X122.548 Y124.976 E0.14958
G1 X122.148 Y125.111 E0.01327
G1 X118.760 Y121.723 E0.15068
G1 X118.271 Y121.769 E0.01546
G1 X121.748 Y125.246 E0.15467
G1 X121.348 Y125.381 E0.01327
G1 X117.777 Y121.810 E0.15884
G1 X117.283 Y121.851 E0.01558
G1 X120.949 Y125.516 E0.16302
G1 X120.656 Y125.615 E0.00970
G1 X120.532 Y125.634 E0.00397
M73 Q1 S68
G1 X116.790 Y121.892 E0.16643
G1 X116.516 Y121.915 E0.00865
G1 X116.256 Y121.894 E0.00819
G1 X120.068 Y125.706 E0.16955
M73 P1 R68
G1 X119.605 Y125.777 E0.01475
G1 X115.672 Y121.845 E0.17490
G1 X115.089 Y121.796 E0.01842
G1 X119.141 Y125.849 E0.18025
G1 X118.678 Y125.920 E0.01475
G1 X114.505 Y121.747 E0.18559
G1 X114.296 Y121.730 E0.00660
G1 X113.833 Y121.610 E0.01506
G1 X118.214 Y125.992 E0.19490
G1 X117.751 Y126.063 E0.01475
G1 X113.110 Y121.422 E0.20642
G1 X112.388 Y121.235 E0.02347
G1 X117.216 Y126.063 E0.21475
G1 X116.674 Y126.056 E0.01705
G1 X111.526 Y120.908 E0.22896
G1 X110.535 Y120.452 E0.03432
G1 X116.132 Y126.049 E0.24894
G1 X115.590 Y126.042 E0.01705
G1 X109.291 Y119.743 E0.28016
G1 F8640
G1 X111.619 Y122.070 E-0.76000
G1 E-0.04000 F2100.00000
G1 Z0.800 F10800.000
G1 X107.288 Y123.624
G1 Z0.200
G1 E0.80000 F2100.00000
G1 F1200
G1 X101.450 Y117.785 E0.25969
G1 F8640
G1 X103.777 Y120.113 E-0.76000
G1 E-0.04000 F2100.00000
G1 Z0.800 F10800.000
G1 X100.712 Y116.513
G1 Z0.200
G1 E0.80000 F2100.00000
G1 F1200
G1 X108.518 Y124.319 E0.34721
G1 F8640
G1 X106.191 Y121.992 E-0.76000
G1 E-0.04000 F2100.00000
G1 Z0.800 F10800.000
G1 X115.220 Y126.206
G1 Z0.200
G1 E0.80000 F2100.00000
G1 F1200
G1 X102.029 Y113.015 E0.58671
G1 X101.580 Y113.101 E0.01438
G1 X114.435 Y125.957 E0.57179
G1 X113.785 Y125.841 E0.02077
G1 X101.109 Y113.165 E0.56382
G1 X100.448 Y113.039 E0.02116
